;FLAVOR:RepRap
;TIME:10136
;Generated with Cura_SteamEngine 2.3.1
M190 S60
M104 S207
M109 S207
G28 ;Home
G1 Z15.0 F6000 ;Move the platform down 15mm
;Prime the extruder
G92 E0
G1 F200 E3
G92 E0
;LAYER_COUNT:25
;LAYER:0
M107
G1 F1500 E-6.5
G0 F2800 X57.398 Y76.576 Z.3
;TYPE:WALL-INNER
G1 F1500 E0
G1 F1800 X59.928 Y75.086 E0.14649
G1 X63.056 Y73.916 E0.3131
G1 X66.432 Y73.446 E0.48316
G1 X69.346 Y73.736 E0.62925
G1 X72.334 Y75.291 E0.7973
G1 X73.697 Y75.313 E0.86531
G1 X75.146 Y74.983 E0.93945
G1 X75.471 Y74.909 E0.95608
G1 X75.68 Y74.815 E0.96752
G1 X78.263 Y73.653 E1.10882
G1 X79.811 Y72.957 E1.1935
G1 X79.971 Y72.863 E1.20276
G1 X81.074 Y72.212 E1.26666
G1 X81.441 Y71.159 E1.32229
G1 X81.513 Y70.953 E1.33318
G1 X81.301 Y70.901 E1.34003
G1 X76.437 Y69.703 E1.58995
G1 X73.215 Y68.235 E1.7666
G1 X71.175 Y66.58 E1.89765
G1 X70.798 Y65.385 E1.96017
G1 X71.656 Y64.874 E2.00999
G1 X74.26 Y64.457 E2.14156
G1 X77.586 Y64.426 E2.3075
G1 X80.523 Y64.915 E2.45605
G1 X82.984 Y66.059 E2.59144
G1 X84.714 Y67.71 E2.71075
G1 X85.574 Y68.843 E2.78172
G1 X86.728 Y69.534 E2.84882
G1 X88.302 Y69.69 E2.92773
G1 X89.387 Y69.572 E2.98218
G1 X91.91 Y69.299 E3.10879
G1 X92.752 Y69.208 E3.15104
G1 X94.761 Y68.989 E3.25187
G1 X94.975 Y68.194 E3.29294
G1 X91.817 Y65.906 E3.4875
G1 X89.383 Y63.791 E3.64837
G1 X87.36 Y61.334 E3.80716
G1 X86.216 Y59.352 E3.92133
G1 X86.236 Y58.853 E3.94624
G1 X87.576 Y58.757 E4.01327
G1 X90.594 Y59.356 E4.16677
G1 X93.809 Y60.533 E4.33758
G1 X96.267 Y61.881 E4.47744
G1 X98.043 Y63.826 E4.60884
G1 X99.182 Y66.002 E4.73138
G1 X99.668 Y67.385 E4.80451
G1 X100.464 Y68.424 E4.86981
G1 X101.767 Y69.017 E4.94123
G1 X102.209 Y69.122 E4.9639
G1 X102.429 Y69.173 E4.97517
G1 X102.885 Y69.281 E4.99855
G1 X104.338 Y69.425 E5.07139
G1 X106.519 Y69.643 E5.18074
G1 X106.737 Y69.664 E5.19167
G1 X106.737 Y69.445 E5.19856
G1 X106.737 Y69.444 E5.19861
G1 X106.737 Y57.1 E5.81445
G1 X108.237 Y57.1 E5.88929
G1 X108.237 Y53.1 E6.08885
G1 X112.036 Y53.1 E6.27838
G1 X112.036 Y57.1 E6.47794
G1 X113.536 Y57.1 E6.55278
G1 X113.536 Y69.444 E7.16862
G1 X113.536 Y69.445 E7.16867
G1 X113.536 Y69.664 E7.1796
G1 X113.754 Y69.643 E7.18648
G1 X116.053 Y69.413 E7.30175
G1 X116.893 Y69.33 E7.34386
G1 X116.925 Y69.411 E7.34821
G1 X117.814 Y69.205 E7.39374
G1 X118.031 Y69.155 E7.40485
G1 X118.474 Y69.052 E7.42754
G1 X119.78 Y68.465 E7.49897
G1 X120.582 Y67.429 E7.56434
G1 X121.068 Y66.059 E7.63686
G1 X122.227 Y63.87 E7.76043
G1 X124.001 Y61.943 E7.89111
G1 X126.479 Y60.597 E8.03179
G1 X129.678 Y59.442 E8.20148
G1 X132.709 Y58.852 E8.35553
G1 X134.049 Y58.954 E8.42258
G1 X134.067 Y59.452 E8.44744
G1 X132.915 Y61.426 E8.56147
G1 X130.878 Y63.878 E8.7205
G1 X128.427 Y65.991 E8.88195
G1 X125.272 Y68.257 E9.07575
G1 X125.479 Y69.054 E9.11683
G1 X127.496 Y69.282 E9.2181
G1 X128.33 Y69.375 E9.25996
G1 X130.812 Y69.655 E9.38458
G1 X131.938 Y69.782 E9.44111
G1 X133.511 Y69.632 E9.51994
G1 X134.669 Y68.947 E9.58707
G1 X135.531 Y67.819 E9.65789
G1 X137.27 Y66.174 E9.77732
G1 X139.738 Y65.039 E9.91285
G1 X142.671 Y64.563 E10.06109
G1 X145.998 Y64.608 E10.22709
G1 X148.605 Y65.037 E10.3589
G1 X149.46 Y65.55 E10.40865
G1 X149.078 Y66.742 E10.47109
G1 X147.027 Y68.393 E10.60245
G1 X143.805 Y69.843 E10.77873
G1 X138.931 Y71.023 E11.02892
G1 X138.718 Y71.074 E11.03984
G1 X138.79 Y71.281 E11.04673
G1 X139.155 Y72.335 E11.10238
G1 X140.253 Y72.989 E11.16614
G1 X140.413 Y73.084 E11.17543
G1 X141.958 Y73.786 E11.26009
G1 X144.536 Y74.958 E11.40137
G1 X144.746 Y75.054 E11.41289
G1 X145.07 Y75.129 E11.42949
G1 X146.517 Y75.467 E11.50362
G1 X147.882 Y75.45 E11.57172
G1 X150.878 Y73.908 E11.73983
G1 X153.788 Y73.63 E11.88567
G1 X157.167 Y74.115 E12.05598
G1 X160.289 Y75.298 E12.22254
G1 X162.811 Y76.798 E12.36894
G1 X163.649 Y77.482 E12.42291
G1 X163.463 Y77.845 E12.44326
G1 X161.655 Y78.649 E12.54197
G1 X158.963 Y79.203 E12.67909
G1 X156.046 Y79.24 E12.82463
G1 X154.514 Y79.03 E12.90178
G1 X151.768 Y78.891 E13.03896
G1 X151.441 Y79.668 E13.08101
G1 X152.619 Y80.754 E13.16095
G1 X152.803 Y80.924 E13.17345
G1 X155.498 Y83.41 E13.35637
G1 X155.55 Y83.448 E13.35958
G1 X156.951 Y84.457 E13.44572
G1 X158.722 Y85.733 E13.55462
G1 X161.083 Y86.331 E13.67613
G1 X163.151 Y86.219 E13.77945
G1 X165.545 Y86.574 E13.9002
G1 X166.762 Y87.009 E13.96467
G1 X170.084 Y88.914 E14.15573
G1 X171.827 Y90.119 E14.26144
G1 X174.681 Y92.486 E14.44643
G1 X175.375 Y93.278 E14.49896
G1 X175.475 Y93.392 E14.50653
G1 X175.53 Y93.499 E14.51253
G1 X175.408 Y93.588 E14.52007
G1 X175.1 Y93.814 E14.53912
G1 X172.983 Y93.866 E14.64477
G1 X170.097 Y93.401 E14.79061
G1 X167.112 Y92.4 E14.94769
G1 X163.256 Y90.64 E15.15915
G1 X162.666 Y91.258 E15.20178
G1 X162.938 Y91.785 E15.23137
G1 X163.052 Y92.007 E15.24382
G1 X162.81 Y92.069 E15.2514
G1 X162.421 Y92.17 E15.27145
G1 X162.57 Y96.674 E15.49628
G1 X162.388 Y100.494 E15.68708
G1 X161.898 Y104.068 E15.86705
G1 X161.555 Y105.5 E15.94052
G1 X161.43 Y106.024 E15.96739
G1 X161.184 Y105.545 E15.98165
G1 X160.095 Y103.432 E16.10025
G1 X158.852 Y100.2 E16.273
G1 X158.257 Y96.746 E16.44786
G1 X158.439 Y93.614 E16.60438
G1 X159.285 Y91.118 E16.73587
G1 X159.595 Y89.639 E16.81126
G1 X159.045 Y87.766 E16.90865
G1 X157.617 Y85.74 E17.03231
G1 X156.694 Y84.763 E17.09936
G1 X155.509 Y83.507 E17.15024
G0 X155.456 Y83.457
G1 X152.785 Y80.945 E17.17086
G1 X152.569 Y81.072 E17.17868
G1 X152.008 Y81.401 E17.21112
G1 X153.386 Y86.824 E17.49028
G1 X154.2 Y90.891 E17.6972
G1 X154.359 Y92.55 E17.78035
G1 X154.346 Y93.691 E17.83728
G1 X154.279 Y93.979 E17.85203
G1 X154.209 Y94.282 E17.86755
G1 X153.963 Y94.092 E17.87651
G1 X153.8 Y93.966 E17.88679
G1 X152.317 Y92.434 E17.99317
G1 X150.531 Y90.059 E18.14142
G1 X149.259 Y87.452 E18.28614
G1 X148.471 Y84.433 E18.44181
G1 X148.002 Y79.014 E18.71317
G1 X147.515 Y77.579 E18.78878
G1 X146.354 Y76.444 E18.86978
G1 X144.87 Y75.473 E18.95826
G1 X144.592 Y75.291 E18.97113
G1 X144.432 Y75.186 E18.97458
G1 X141.949 Y73.807 E19.02297
G1 X140.377 Y73.177 E19.03568
G1 X140.354 Y73.168 E19.03646
G1 X140.225 Y73.302 E19.04303
G1 X139.794 Y73.752 E19.07412
G1 X140.446 Y75.212 E19.15389
G1 X141.898 Y77.605 E19.29354
G1 X143.662 Y80.888 E19.47947
G1 X145.003 Y84.322 E19.6634
G1 X145.397 Y85.755 E19.73754
G1 X145.398 Y85.756 E19.73761
G1 X145.544 Y86.291 E19.76528
G1 X145.09 Y85.972 E19.77993
G1 X143.171 Y84.623 E19.89696
G1 X141.204 Y83.115 E20.02062
G1 X139.77 Y81.528 E20.12733
G1 X138.576 Y79.48 E20.2456
G1 X135.747 Y73.427 E20.57894
G1 X134.607 Y71.517 E20.68991
G1 X133.186 Y70.562 E20.77533
G1 X131.412 Y70.149 E20.8662
G1 X130.766 Y70.053 E20.89878
G1 X128.295 Y69.687 E21.00985
G1 X127.455 Y69.68 E21.04722
G1 X126.334 Y69.67 E21.10314
G1 X126.186 Y70.978 E21.16882
G1 X129.954 Y74.296 E21.4193
G1 X132.092 Y76.94 E21.58894
G1 X133.547 Y79.107 E21.71916
G1 X133.573 Y79.349 E21.7313
G1 X133.574 Y79.35 E21.73137
G1 X133.595 Y79.56 E21.7419
G1 X133.384 Y79.569 E21.74862
G1 X131.891 Y79.64 E21.82319
G1 X128.88 Y78.408 E21.9855
G1 X125.71 Y76.055 E22.18246
G1 X122.917 Y72.968 E22.39015
G1 X121.299 Y70.834 E22.52376
G1 X119.826 Y69.757 E22.61479
G1 X118.108 Y69.545 E22.70115
G1 X117.887 Y69.518 E22.71118
G1 X116.967 Y69.669 E22.74516
G1 X116.95 Y69.672 E22.7454
G1 X116.116 Y69.809 E22.78472
G1 X115.254 Y69.951 E22.82831
G1 X113.536 Y70.251 E22.91532
G1 X113.536 Y78.194 E23.3116
G1 X119.666 Y79.136 E23.62101
G1 X125.08 Y80.692 E23.90205
G1 X130.266 Y82.928 E24.18381
G1 X135.118 Y85.798 E24.46505
G1 X139.579 Y89.27 E24.74708
G1 X143.554 Y93.269 E25.02838
G1 X146.993 Y97.746 E25.31003
G1 X149.838 Y102.627 E25.59189
G1 X152.035 Y107.811 E25.87279
G1 X153.56 Y113.249 E26.15456
G1 X154.383 Y118.834 E26.4362
G1 X154.491 Y124.471 E26.71749
G1 X153.881 Y130.092 E26.99957
G1 X152.568 Y135.569 E27.28056
G1 X150.567 Y140.847 E27.56217
G1 X147.909 Y145.835 E27.84415
G1 X144.646 Y150.434 E28.12548
G1 X140.83 Y154.579 E28.40656
G1 X136.502 Y158.222 E28.6888
G1 X131.767 Y161.272 E28.96979
G1 X126.669 Y163.705 E29.25161
G1 X121.307 Y165.469 E29.53323
G1 X115.77 Y166.539 E29.81458
G1 X110.136 Y166.898 E30.09623
G1 X104.503 Y166.539 E30.37783
G1 X98.966 Y165.469 E30.65919
G1 X93.604 Y163.705 E30.9408
G1 X88.507 Y161.272 E31.22258
G1 X83.772 Y158.222 E31.50357
G1 X79.443 Y154.579 E31.78585
G1 X75.627 Y150.434 E32.06693
G1 X72.361 Y145.829 E32.34859
G1 X69.709 Y140.854 E32.62986
G1 X67.705 Y135.569 E32.91185
G1 X66.393 Y130.092 E33.19283
G1 X65.783 Y124.471 E33.47491
G1 X65.89 Y118.834 E33.75619
G1 X66.714 Y113.249 E34.03784
G1 X68.238 Y107.811 E34.3196
G1 X70.435 Y102.627 E34.6005
G1 X73.28 Y97.746 E34.88236
G1 X76.72 Y93.269 E35.16404
G1 X80.694 Y89.27 E35.44531
G1 X85.155 Y85.798 E35.72733
G1 X90.007 Y82.928 E36.00857
G1 X95.194 Y80.692 E36.29038
G1 X100.607 Y79.136 E36.57137
G1 X106.737 Y78.194 E36.88078
G1 X106.737 Y70.251 E37.27706
G1 X104.273 Y69.82 E37.40186
G1 X102.835 Y69.569 E37.46486
G1 X102.355 Y69.485 E37.48357
G1 X102.131 Y69.511 E37.49371
G1 X100.414 Y69.716 E37.57998
G1 X98.936 Y70.786 E37.67101
G1 X97.314 Y72.905 E37.80414
G1 X94.498 Y75.993 E38.01264
G1 X91.323 Y78.328 E38.20927
G1 X88.304 Y79.549 E38.37174
G1 X86.813 Y79.473 E38.44622
G1 X86.602 Y79.463 E38.45676
G1 X86.624 Y79.253 E38.46346
G1 X86.625 Y79.252 E38.46353
G1 X86.652 Y79.007 E38.47583
G1 X88.116 Y76.847 E38.60601
G1 X90.263 Y74.217 E38.77539
G1 X94.048 Y70.911 E39.02612
G1 X93.906 Y69.601 E39.09186
G1 X92.791 Y69.607 E39.14749
G1 X91.944 Y69.61 E39.1851
G1 X89.432 Y69.97 E39.29778
G1 X88.824 Y70.058 E39.32843
G1 X87.049 Y70.464 E39.41927
G1 X85.625 Y71.414 E39.50468
G1 X84.476 Y73.32 E39.61571
G1 X81.617 Y79.37 E39.94955
G1 X80.421 Y81.399 E40.06705
G1 X78.975 Y82.988 E40.17424
G1 X77.005 Y84.485 E40.29768
G1 X75.081 Y85.826 E40.41468
G1 X74.625 Y86.143 E40.44239
G1 X74.774 Y85.608 E40.45707
G1 X75.175 Y84.174 E40.53136
G1 X76.527 Y80.755 E40.71478
G1 X78.314 Y77.461 E40.90175
G1 X79.769 Y75.085 E41.04075
G1 X80.428 Y73.628 E41.12053
G1 X79.999 Y73.175 E41.15165
G1 X79.871 Y73.041 E41.15821
G1 X79.849 Y73.049 E41.15938
G1 X78.273 Y73.673 E41.17214
G1 X75.784 Y75.042 E41.22035
G1 X75.625 Y75.145 E41.22496
G1 X75.345 Y75.326 E41.23916
G1 X73.858 Y76.292 E41.32762
G1 X72.69 Y77.421 E41.40867
G1 X72.198 Y78.855 E41.4843
G1 X71.706 Y84.27 E41.75557
G1 X70.908 Y87.284 E41.91112
G1 X69.621 Y89.889 E42.05608
G1 X67.829 Y92.254 E42.20412
G1 X66.333 Y93.784 E42.31087
G1 X66.174 Y93.906 E42.32087
G1 X66.173 Y93.907 E42.32094
G1 X65.927 Y94.095 E42.33639
G1 X65.859 Y93.792 E42.34536
G1 X65.793 Y93.506 E42.36
G1 X65.785 Y92.366 E42.41688
G1 X65.95 Y90.708 E42.50001
G1 X66.785 Y86.621 E42.70812
G1 X68.181 Y81.226 E42.98614
G1 X67.622 Y80.893 E43.01861
G1 X67.408 Y80.765 E43.03105
G1 X64.727 Y83.266 E43.21397
G1 X64.672 Y83.317 E43.21771
G1 X63.481 Y84.567 E43.30385
G1 X62.554 Y85.539 E43.37086
G1 X61.119 Y87.559 E43.49448
G1 X60.561 Y89.43 E43.59188
G1 X60.864 Y90.91 E43.66725
G1 X61.7 Y93.411 E43.79881
G1 X61.868 Y96.539 E43.9551
G1 X61.257 Y99.998 E44.13034
G1 X60 Y103.227 E44.30321
G1 X58.904 Y105.333 E44.42165
G1 X58.656 Y105.81 E44.44848
G1 X58.533 Y105.287 E44.46271
G1 X58.198 Y103.862 E44.53575
G1 X57.72 Y100.254 E44.71732
G1 X57.555 Y96.455 E44.90703
G1 X57.724 Y91.949 E45.132
G1 X57.335 Y91.847 E45.15206
G1 X57.093 Y91.785 E45.16452
G1 X57.207 Y91.564 E45.17207
G1 X57.208 Y91.563 E45.17214
G1 X57.482 Y91.036 E45.20177
G1 X56.895 Y90.415 E45.2444
G1 X53.034 Y92.158 E45.45575
G1 X50.043 Y93.148 E45.61293
G1 X47.152 Y93.6 E45.75891
G1 X45.04 Y93.541 E45.86432
G1 X44.732 Y93.312 E45.88347
G1 X44.609 Y93.221 E45.89111
G1 X44.664 Y93.116 E45.89702
G1 X44.765 Y93.002 E45.90462
G1 X45.463 Y92.213 E45.95717
G1 X48.316 Y89.867 E46.14145
G1 X50.072 Y88.663 E46.24767
G1 X53.407 Y86.769 E46.43902
G1 X54.626 Y86.341 E46.50347
G1 X57.016 Y85.995 E46.62395
G1 X59.086 Y86.117 E46.72741
G1 X61.449 Y85.528 E46.8489
G1 X63.225 Y84.261 E46.95775
G1 X64.631 Y83.259 E47.00713
G0 X64.684 Y83.221
G1 X67.389 Y80.744 E47.02772
G1 X67.573 Y80.576 E47.0355
G1 X68.756 Y79.493 E47.11552
G1 X68.432 Y78.716 E47.15752
G1 X65.686 Y78.844 E47.29467
G1 X64.15 Y79.045 E47.37195
G1 X61.232 Y78.998 E47.51755
G1 X58.546 Y78.433 E47.65449
G1 X56.743 Y77.621 E47.75314
G1 X56.558 Y77.256 E47.77356
G1 X57.398 Y76.576 E47.82748
G1 F1500 E41.32748
G0 F2800 X57.454 Y76.658
G0 X68.453 Y78.683
G0 X68.795 Y79.501
G0 X64.709 Y83.252
G0 X56.902 Y90.376
G0 X57.521 Y91.031
G0 X57.756 Y91.926
G0 X57.595 Y96.455
G0 X56.292 Y96.51
G0 X55.389 Y97.238
G0 X54.259 Y96.663
G0 X54.229 Y96.715
G0 X54.279 Y96.629
G1 F1500 E47.82748
G1 F1800 X53.744 Y97.678 E47.88623
G1 X53.531 Y98.095 E47.90959
G1 X52.959 Y99.216 E47.97237
G1 X52.362 Y100.979 E48.06524
G1 X52.483 Y102.311 E48.13196
G1 X54.363 Y105.349 E48.3102
G1 X55.194 Y108.273 E48.46186
G1 X55.445 Y111.547 E48.62568
G1 X55.086 Y114.806 E48.78925
G1 X54.323 Y117.476 E48.92779
G1 X54.181 Y117.75 E48.94319
G1 X54.069 Y117.966 E48.95533
G1 X53.879 Y117.813 E48.96278
G1 X53.715 Y117.681 E48.97328
G1 X52.539 Y115.37 E49.10265
G1 X51.412 Y112.24 E49.26862
G1 X50.813 Y109.307 E49.41797
G1 X50.449 Y105.577 E49.60494
G1 X50.02 Y105.527 E49.62649
G1 X49.773 Y105.499 E49.63889
G1 X49.855 Y105.264 E49.64645
G1 X50.308 Y103.966 E49.71504
G1 X49.508 Y103.453 E49.76245
G1 X46.579 Y106.289 E49.96586
G1 X43.683 Y108.321 E50.14236
G1 X40.327 Y109.888 E50.32714
G1 X38.465 Y110.5 E50.42492
G1 X38 Y110.652 E50.44933
G1 X38.226 Y110.218 E50.46244
G1 X38.938 Y108.85 E50.53938
G1 X41.374 Y104.991 E50.76705
G1 X44.107 Y102.154 E50.96358
G1 X47.403 Y100.243 E51.15366
G1 X51.666 Y98.898 E51.37668
G1 X53.216 Y97.868 E51.46952
G1 X53.606 Y97.609 E51.48594
G1 X54.279 Y96.629 E51.49766
G1 F1500 E44.99766
G0 F2800 X54.229 Y96.715
G0 X52.923 Y99.201
G0 X52.323 Y100.975
G0 X50.967 Y109.858
G0 X49.688 Y110.12
G0 X49.109 Y110.762
G0 X47.881 Y110.438
G0 X47.857 Y110.493
G0 X47.896 Y110.402
G1 F1500 E51.49766
G1 F1800 X47.566 Y111.65 E51.56206
G1 X47.565 Y111.651 E51.56213
G1 X47.302 Y112.643 E51.61333
G1 X47.049 Y115.054 E51.73428
G1 X47.458 Y116.878 E51.82754
G1 X50.094 Y119.512 E52.01345
G1 X51.472 Y122.016 E52.15604
G1 X52.315 Y124.833 E52.30274
G1 X52.77 Y127.9 E52.45743
G1 X52.839 Y130.224 E52.57343
G1 X52.666 Y130.602 E52.59417
G1 X52.63 Y130.681 E52.5985
G1 X52.624 Y130.693 E52.59917
G1 X52.371 Y130.561 E52.60426
G1 X52.313 Y130.497 E52.60805
G1 X50.982 Y129.016 E52.70739
G1 X49.31 Y126.806 E52.84565
G1 X46.063 Y121.177 E53.16985
G1 X45.668 Y121.265 E53.19004
G1 X45.374 Y121.329 E53.20505
G1 X45.428 Y121.033 E53.21381
G1 X46.009 Y117.867 E53.3744
G1 X45.13 Y117.488 E53.42216
G1 X42.338 Y121.317 E53.65858
G1 X39.813 Y124.121 E53.84683
G1 X37.392 Y126.082 E54.00227
G1 X36.173 Y126.718 E54.07086
G1 X36.12 Y126.745 E54.07383
G1 X35.809 Y126.823 E54.08983
G0 X35.805 Y126.781
G1 X35.799 Y126.722 E54.09253
G1 X35.75 Y126.28 E54.11472
G1 X35.941 Y125.303 E54.16438
G1 X36.567 Y123.705 E54.25001
G1 X38.797 Y119.419 E54.49105
G1 X40.445 Y116.798 E54.64551
G1 X41.832 Y115.073 E54.75594
G1 X43.07 Y113.979 E54.83836
G1 X45.933 Y112.649 E54.99586
G1 X47.113 Y111.634 E55.07351
G1 X47.203 Y111.492 E55.0819
G1 X47.896 Y110.402 E55.1145
G1 F1500 E48.6145
G0 F2800 X47.857 Y110.493
G0 X47.263 Y112.636
G0 X45.401 Y121.301
G0 X45.037 Y123.179
G0 X45.03 Y123.239
G0 X45.042 Y123.14
G1 F1500 E55.1145
G1 F1800 X44.926 Y124.411 E55.17817
G1 X44.821 Y125.556 E55.23553
G1 X44.44 Y129.711 E55.4437
G1 X45.504 Y130.654 E55.51463
G1 X47.689 Y131.936 E55.64102
G1 X50.154 Y133.778 E55.79454
G1 X52.207 Y136.377 E55.95978
G1 X53.465 Y138.942 E56.10231
G1 X53.63 Y140.882 E56.19944
G1 X53.632 Y140.908 E56.20074
G1 X53.446 Y141.214 E56.21861
G1 X53.42 Y141.21 E56.21992
G1 X52.912 Y141.119 E56.24567
G1 X50.991 Y139.846 E56.36064
G1 X46.418 Y136.286 E56.64977
G1 X45.208 Y135.996 E56.71185
G1 X45.04 Y136.622 E56.74419
G1 X45.014 Y136.005 E56.75134
G1 X44.905 Y133.495 E56.87668
G1 X44.641 Y132.005 E56.95217
G1 X43.814 Y131.861 E56.99405
G1 X39.882 Y138.68 E57.38676
G1 X38.797 Y140.362 E57.48662
G1 X37.723 Y141.618 E57.56907
G1 X36.934 Y142.383 E57.62389
G1 X36.608 Y142.549 E57.64215
G1 X36.355 Y142.677 E57.65629
G1 X36.32 Y142.396 E57.66464
G1 X36.291 Y142.17 E57.67601
