;FLAVOR:Marlin
;TIME:14024
;Filament used: 15.6291m
;Layer height: 0.2
;MINX:86.635
;MINY:14.627
;MINZ:0.2
;MAXX:148.368
;MAXY:180.121
;MAXZ:40.8
;Generated with Cura_SteamEngine 5.2.2
M140 S60
M105
M190 S60
M104 S205
M105
M109 S205
M82 ;absolute extrusion mode
; Ender 3 Custom Start G-code
G92 E0 ; Reset Extruder
G28 ; Home all axes
G1 Z2.0 F3000 ; Move Z Axis up little to prevent scratching of Heat Bed
G1 X0.1 Y20 Z0.3 F5000.0 ; Move to start position
G1 X0.1 Y200.0 Z0.3 F1500.0 E15 ; Draw the first line
G1 X0.4 Y200.0 Z0.3 F5000.0 ; Move to side a little
G1 X0.4 Y20 Z0.3 F1500.0 E30 ; Draw the second line
G92 E0 ; Reset Extruder
G1 Z2.0 F3000 ; Move Z Axis up little to prevent scratching of Heat Bed
G1 X5 Y20 Z0.3 F5000.0 ; Move over to prevent blob squish
G92 E0
G92 E0
G1 F2700 E-5
;LAYER_COUNT:204
;LAYER:0
M107
G0 F6000 X86.992 Y29.987 Z0.2
;TYPE:SKIRT
G1 F2700 E0
G1 F1200 X87.266 Y29.247 E0.02625
G1 X87.614 Y28.538 E0.05251
G1 X88.032 Y27.867 E0.07881
G1 X88.515 Y27.243 E0.10505
G1 X89.058 Y26.67 E0.13131
G1 X89.657 Y26.155 E0.15758
G1 X90.305 Y25.704 E0.18384
G1 X90.996 Y25.32 E0.21014
G1 X91.721 Y25.008 E0.23639
G1 X92.474 Y24.771 E0.26264
G1 X93.248 Y24.612 E0.28892
G1 X94.033 Y24.531 E0.31517
G1 X94.435 Y24.521 E0.32855
G1 X96.978 Y24.521 E0.41313
G1 X97.31 Y24.538 E0.42418
G1 X97.778 Y24.521 E0.43976
G1 X102.627 Y24.521 E0.60104
G1 X102.627 Y24.252 E0.60999
G1 X102.667 Y23.463 E0.63626
G1 X102.786 Y22.683 E0.6625
G1 X102.962 Y21.965 E0.68709
G1 X103.252 Y21.12 E0.71681
G1 X103.602 Y20.363 E0.74454
G1 X103.733 Y20.116 E0.75384
G1 X104.138 Y19.438 E0.78011
G1 X104.839 Y18.539 E0.81803
G1 X105.104 Y18.246 E0.83117
G1 X105.663 Y17.688 E0.85744
G1 X106.275 Y17.189 E0.8837
G1 X106.935 Y16.755 E0.90997
G1 X107.635 Y16.389 E0.93625
G1 X108.165 Y16.19 E0.95508
G1 X108.723 Y15.924 E0.97564
G1 X109.466 Y15.657 E1.0019
G1 X110.233 Y15.468 E1.02817
G1 X110.298 Y15.459 E1.03035
G1 X110.657 Y15.343 E1.0429
G1 X111.567 Y15.157 E1.07379
G1 X111.818 Y15.121 E1.08223
G1 X112.799 Y14.949 E1.11535
G1 X113.582 Y14.852 E1.14159
G1 X114.122 Y14.832 E1.15957
G1 X115.686 Y14.667 E1.21187
G1 X116.732 Y14.627 E1.24669
G1 X117.058 Y14.637 E1.25754
G1 X117.212 Y14.633 E1.26266
G1 X119.058 Y14.686 E1.32408
G1 X119.953 Y14.764 E1.35397
G1 X120.592 Y14.857 E1.37544
G1 X120.741 Y14.845 E1.38041
G1 X121.531 Y14.864 E1.4067
G1 X122.314 Y14.962 E1.43294
G1 X123.182 Y15.168 E1.46262
G1 X123.371 Y15.181 E1.46892
G1 X124.149 Y15.313 E1.49516
G1 X124.813 Y15.497 E1.51808
G1 X125.06 Y15.541 E1.52642
G1 X125.82 Y15.756 E1.55269
G1 X127.301 Y16.347 E1.60573
G1 X127.999 Y16.715 E1.63197
G1 X128.903 Y17.342 E1.66856
G1 X129.137 Y17.53 E1.67855
G1 X129.727 Y18.055 E1.70482
G1 X130.261 Y18.638 E1.73111
G1 X130.628 Y19.119 E1.75123
G1 X130.845 Y19.427 E1.76377
G1 X131.267 Y20.094 E1.79002
G1 X131.619 Y20.801 E1.81629
G1 X132 Y21.887 E1.85456
G1 X132.102 Y22.265 E1.86759
G1 X132.269 Y23.037 E1.89386
G1 X132.356 Y23.822 E1.92013
G1 X132.371 Y24.521 E1.94338
G1 X137.218 Y24.521 E2.10459
G1 X137.55 Y24.538 E2.11565
G1 X138.018 Y24.521 E2.13123
G1 X140.567 Y24.521 E2.21601
G1 X141.356 Y24.561 E2.24228
G1 X142.136 Y24.68 E2.26852
G1 X142.901 Y24.878 E2.29481
G1 X143.641 Y25.152 E2.32105
G1 X144.35 Y25.5 E2.34732
G1 X145.021 Y25.918 E2.37362
G1 X145.645 Y26.401 E2.39986
G1 X146.218 Y26.944 E2.42612
G1 X146.733 Y27.543 E2.45239
G1 X147.184 Y28.191 E2.47865
G1 X147.568 Y28.882 E2.50494
G1 X147.88 Y29.607 E2.53119
G1 X148.117 Y30.36 E2.55745
G1 X148.276 Y31.134 E2.58373
G1 X148.357 Y31.919 E2.60998
G1 X148.367 Y32.321 E2.62335
G1 X148.368 Y172.321 E7.27977
G1 X148.328 Y173.11 E7.30605
G1 X148.209 Y173.89 E7.33229
G1 X148.011 Y174.655 E7.35857
G1 X147.737 Y175.395 E7.38482
G1 X147.389 Y176.104 E7.41109
G1 X146.972 Y176.775 E7.43736
G1 X146.488 Y177.399 E7.46363
G1 X145.945 Y177.972 E7.48989
G1 X145.346 Y178.487 E7.51616
G1 X144.698 Y178.938 E7.54242
G1 X144.008 Y179.322 E7.56868
G1 X143.282 Y179.634 E7.59497
G1 X142.529 Y179.871 E7.62122
G1 X141.755 Y180.03 E7.6475
G1 X140.97 Y180.111 E7.67375
G1 X140.568 Y180.121 E7.68712
G1 X138.019 Y180.121 E7.7719
G1 X137.687 Y180.104 E7.78296
G1 X137.219 Y180.121 E7.79854
G1 X97.779 Y180.121 E9.11032
G1 X97.447 Y180.104 E9.12137
G1 X96.979 Y180.121 E9.13695
G1 X94.435 Y180.121 E9.22156
G1 X93.646 Y180.081 E9.24784
G1 X92.866 Y179.962 E9.27408
G1 X92.101 Y179.764 E9.30037
G1 X91.361 Y179.49 E9.32661
G1 X90.652 Y179.142 E9.35288
G1 X89.981 Y178.724 E9.37917
G1 X89.357 Y178.241 E9.40542
G1 X88.784 Y177.698 E9.43168
G1 X88.269 Y177.099 E9.45795
G1 X87.818 Y176.451 E9.48421
G1 X87.434 Y175.76 E9.5105
G1 X87.122 Y175.035 E9.53675
G1 X86.885 Y174.282 E9.56301
G1 X86.726 Y173.508 E9.58929
G1 X86.645 Y172.723 E9.61554
G1 X86.635 Y172.321 E9.62891
G1 X86.635 Y32.321 E14.28533
G1 X86.675 Y31.532 E14.31161
G1 X86.794 Y30.752 E14.33785
G1 X86.992 Y29.987 E14.36413
G0 F6000 X87.392 Y30.05
G1 F1200 X87.666 Y29.331 E14.38972
G1 X88.013 Y28.645 E14.41529
G1 X88.429 Y27.998 E14.44088
G1 X88.91 Y27.398 E14.46645
G1 X89.451 Y26.851 E14.49204
G1 X90.046 Y26.363 E14.51764
G1 X90.688 Y25.94 E14.54321
G1 X91.371 Y25.585 E14.56881
G1 X92.086 Y25.304 E14.59436
G1 X92.828 Y25.098 E14.61997
G1 X93.586 Y24.97 E14.64554
G1 X94.435 Y24.921 E14.67383
G1 X96.978 Y24.921 E14.75841
G1 X97.399 Y24.943 E14.77243
G1 X97.778 Y24.921 E14.78506
G1 X103.027 Y24.921 E14.95964
G1 X103.027 Y24.252 E14.98189
G1 X103.067 Y23.484 E15.00747
G1 X103.186 Y22.724 E15.03305
G1 X103.348 Y22.071 E15.05543
G1 X103.63 Y21.25 E15.0843
G1 X103.956 Y20.551 E15.10996
G1 X104.087 Y20.304 E15.11926
G1 X104.482 Y19.644 E15.14484
G1 X105.136 Y18.807 E15.18017
G1 X105.401 Y18.514 E15.19331
G1 X105.946 Y17.971 E15.2189
G1 X106.544 Y17.488 E15.24446
G1 X107.189 Y17.069 E15.27004
G1 X107.874 Y16.72 E15.29561
G1 X108.352 Y16.543 E15.31257
G1 X108.895 Y16.285 E15.33256
G1 X109.62 Y16.029 E15.35814
G1 X110.407 Y15.844 E15.38502
G1 X110.78 Y15.724 E15.39806
G1 X111.624 Y15.553 E15.4267
G1 X111.879 Y15.517 E15.43526
G1 X112.868 Y15.343 E15.46866
G1 X113.631 Y15.25 E15.49423
G1 X114.147 Y15.231 E15.5114
G1 X115.728 Y15.065 E15.56428
G1 X116.721 Y15.027 E15.59733
G1 X117.046 Y15.037 E15.60814
G1 X117.2 Y15.033 E15.61327
G1 X119.046 Y15.086 E15.67469
G1 X119.895 Y15.16 E15.70303
G1 X120.581 Y15.259 E15.72609
G1 X120.792 Y15.244 E15.73312
G1 X121.56 Y15.267 E15.75868
G1 X122.323 Y15.371 E15.78429
G1 X123.116 Y15.565 E15.81144
G1 X123.363 Y15.583 E15.81968
G1 X124.121 Y15.717 E15.84528
G1 X124.702 Y15.884 E15.86539
G1 X125.01 Y15.939 E15.8758
G1 X125.748 Y16.154 E15.90136
G1 X126.404 Y16.421 E15.92492
G1 X126.456 Y16.436 E15.92672
G1 X127.168 Y16.727 E15.9523
G1 X127.846 Y17.09 E15.97788
G1 X128.653 Y17.654 E16.01063
G1 X128.887 Y17.842 E16.02061
G1 X129.461 Y18.354 E16.04619
G1 X129.978 Y18.923 E16.07176
G1 X130.301 Y19.349 E16.08954
G1 X130.518 Y19.657 E16.10208
G1 X130.928 Y20.308 E16.12766
G1 X131.268 Y20.998 E16.15325
G1 X131.613 Y21.991 E16.18821
G1 X131.715 Y22.369 E16.20123
G1 X131.877 Y23.121 E16.22682
G1 X131.96 Y23.886 E16.25241
G1 X131.971 Y24.298 E16.26612
G1 X131.971 Y24.921 E16.28684
G1 X137.218 Y24.921 E16.46136
G1 X137.639 Y24.943 E16.47538
G1 X138.018 Y24.921 E16.48801
G1 X140.567 Y24.921 E16.57279
G1 X141.335 Y24.961 E16.59837
G1 X142.095 Y25.08 E16.62395
G1 X142.838 Y25.278 E16.64953
G1 X143.557 Y25.552 E16.67512
G1 X144.243 Y25.899 E16.70069
G1 X144.89 Y26.315 E16.72627
G1 X145.49 Y26.796 E16.75185
G1 X146.037 Y27.337 E16.77744
G1 X146.525 Y27.932 E16.80303
G1 X146.948 Y28.574 E16.8286
G1 X147.303 Y29.257 E16.8542
G1 X147.584 Y29.972 E16.87976
G1 X147.79 Y30.714 E16.90537
G1 X147.918 Y31.472 E16.93094
G1 X147.967 Y32.321 E16.95922
G1 X147.968 Y172.321 E21.61564
G1 X147.928 Y173.089 E21.64122
G1 X147.809 Y173.849 E21.6668
G1 X147.611 Y174.592 E21.69238
G1 X147.337 Y175.311 E21.71797
G1 X146.99 Y175.997 E21.74354
G1 X146.574 Y176.644 E21.76912
G1 X146.093 Y177.244 E21.7947
G1 X145.552 Y177.791 E21.82029
G1 X144.957 Y178.279 E21.84588
G1 X144.315 Y178.702 E21.87145
G1 X143.632 Y179.057 E21.89706
G1 X142.917 Y179.338 E21.92261
G1 X142.176 Y179.544 E21.94819
G1 X141.417 Y179.672 E21.97379
G1 X140.568 Y179.721 E22.00207
G1 X138.019 Y179.721 E22.08685
G1 X137.598 Y179.699 E22.10088
G1 X137.219 Y179.721 E22.1135
G1 X97.779 Y179.721 E23.42528
G1 X97.358 Y179.699 E23.4393
G1 X96.979 Y179.721 E23.45193
G1 X94.435 Y179.721 E23.53654
G1 X93.667 Y179.681 E23.56212
G1 X92.907 Y179.562 E23.58771
G1 X92.164 Y179.364 E23.61328
G1 X91.445 Y179.09 E23.63887
G1 X90.759 Y178.743 E23.66444
G1 X90.112 Y178.327 E23.69003
G1 X89.512 Y177.846 E23.7156
G1 X88.965 Y177.305 E23.74119
G1 X88.477 Y176.71 E23.76679
G1 X88.054 Y176.068 E23.79236
G1 X87.699 Y175.385 E23.81796
G1 X87.418 Y174.67 E23.84351
G1 X87.212 Y173.928 E23.86913
G1 X87.084 Y173.17 E23.89469
G1 X87.035 Y172.321 E23.92298
G1 X87.035 Y32.321 E28.5794
G1 X87.075 Y31.553 E28.60498
G1 X87.194 Y30.793 E28.63056
G1 X87.392 Y30.05 E28.65614
G0 F6000 X87.792 Y30.114
G1 F1200 X88.065 Y29.418 E28.681
G1 X88.412 Y28.755 E28.70589
G1 X88.827 Y28.132 E28.73079
G1 X89.306 Y27.558 E28.75565
G1 X89.843 Y27.037 E28.78054
G1 X90.433 Y26.578 E28.8054
G1 X91.069 Y26.183 E28.8303
G1 X91.743 Y25.859 E28.85518
G1 X92.448 Y25.609 E28.88006
G1 X93.176 Y25.435 E28.90495
G1 X93.918 Y25.34 E28.92983
G1 X94.435 Y25.321 E28.94704
G1 X96.978 Y25.321 E29.03162
G1 X97.304 Y25.338 E29.04248
G1 X97.778 Y25.321 E29.05825
G1 X103.428 Y25.321 E29.24617
G1 X103.427 Y24.251 E29.28176
G1 X103.467 Y23.504 E29.30664
G1 X103.586 Y22.766 E29.3315
G1 X103.735 Y22.174 E29.35181
G1 X104.009 Y21.38 E29.37974
G1 X104.309 Y20.738 E29.40331
G1 X104.44 Y20.491 E29.41261
G1 X104.825 Y19.85 E29.43748
G1 X105.432 Y19.076 E29.4702
G1 X105.697 Y18.783 E29.48334
G1 X106.228 Y18.255 E29.50824
G1 X106.812 Y17.788 E29.53312
G1 X107.443 Y17.385 E29.55802
G1 X108.112 Y17.052 E29.58287
G1 X108.536 Y16.898 E29.59788
G1 X109.067 Y16.647 E29.61741
G1 X109.773 Y16.401 E29.64228
G1 X110.515 Y16.229 E29.66761
G1 X110.902 Y16.106 E29.68112
G1 X111.681 Y15.949 E29.70755
G1 X111.939 Y15.912 E29.71622
G1 X112.937 Y15.737 E29.74992
G1 X113.679 Y15.648 E29.77477
G1 X114.162 Y15.631 E29.79085
G1 X115.77 Y15.462 E29.84462
G1 X116.709 Y15.427 E29.87588
G1 X117.035 Y15.437 E29.88672
G1 X117.189 Y15.433 E29.89185
G1 X119.035 Y15.486 E29.95327
G1 X119.838 Y15.555 E29.98008
G1 X120.572 Y15.661 E30.00474
G1 X120.841 Y15.643 E30.01371
G1 X121.589 Y15.671 E30.03861
G1 X122.329 Y15.779 E30.06348
G1 X122.891 Y15.917 E30.08273
G1 X123.046 Y15.962 E30.0881
G1 X123.355 Y15.985 E30.0984
G1 X124.09 Y16.121 E30.12326
G1 X124.593 Y16.271 E30.14072
G1 X124.958 Y16.338 E30.15306
G1 X125.675 Y16.552 E30.17795
G1 X126.248 Y16.793 E30.19863
G1 X126.344 Y16.821 E30.20195
G1 X127.035 Y17.107 E30.22683
G1 X127.692 Y17.465 E30.25171
G1 X128.402 Y17.966 E30.28061
G1 X128.636 Y18.154 E30.2906
G1 X129.194 Y18.653 E30.31549
G1 X129.694 Y19.209 E30.34036
G1 X129.974 Y19.579 E30.3558
G1 X130.191 Y19.887 E30.36833
G1 X130.589 Y20.521 E30.39323
G1 X130.917 Y21.193 E30.4181
G1 X131.227 Y22.095 E30.44982
G1 X131.329 Y22.473 E30.46284
G1 X131.485 Y23.205 E30.48774
G1 X131.571 Y24.298 E30.5242
G1 X131.571 Y25.321 E30.55823
G1 X137.218 Y25.321 E30.74605
G1 X137.544 Y25.338 E30.7569
G1 X138.018 Y25.321 E30.77268
G1 X140.567 Y25.321 E30.85746
G1 X141.314 Y25.361 E30.88234
G1 X142.052 Y25.48 E30.9072
G1 X142.774 Y25.678 E30.9321
G1 X143.47 Y25.951 E30.95697
G1 X144.133 Y26.298 E30.98186
G1 X144.756 Y26.713 E31.00676
G1 X145.33 Y27.192 E31.03162
G1 X145.851 Y27.729 E31.05651
G1 X146.31 Y28.319 E31.08137
G1 X146.705 Y28.955 E31.10627
G1 X147.029 Y29.629 E31.13114
G1 X147.279 Y30.334 E31.15602
G1 X147.453 Y31.062 E31.18092
G1 X147.548 Y31.804 E31.2058
G1 X147.567 Y32.321 E31.22301
G1 X147.568 Y172.321 E35.87943
G1 X147.528 Y173.068 E35.90431
G1 X147.409 Y173.806 E35.92917
G1 X147.211 Y174.528 E35.95407
G1 X146.938 Y175.224 E35.97894
G1 X146.591 Y175.887 E36.00382
G1 X146.176 Y176.51 E36.02872
G1 X145.697 Y177.084 E36.05359
G1 X145.16 Y177.605 E36.07847
G1 X144.57 Y178.064 E36.10334
G1 X143.934 Y178.459 E36.12824
G1 X143.26 Y178.783 E36.15311
G1 X142.555 Y179.033 E36.17799
G1 X141.827 Y179.207 E36.20288
G1 X141.085 Y179.302 E36.22776
G1 X140.568 Y179.321 E36.24497
G1 X138.019 Y179.321 E36.32975
G1 X137.693 Y179.304 E36.34061
G1 X137.219 Y179.321 E36.35639
G1 X97.779 Y179.321 E37.66816
G1 X97.453 Y179.304 E37.67902
G1 X96.979 Y179.321 E37.6948
G1 X94.435 Y179.321 E37.77941
G1 X93.688 Y179.281 E37.80429
G1 X92.95 Y179.162 E37.82916
G1 X92.228 Y178.964 E37.85406
G1 X91.532 Y178.691 E37.87892
G1 X90.869 Y178.344 E37.90381
G1 X90.246 Y177.929 E37.92871
G1 X89.672 Y177.45 E37.95357
G1 X89.151 Y176.913 E37.97846
G1 X88.692 Y176.323 E38.00332
G1 X88.297 Y175.687 E38.02822
G1 X87.973 Y175.013 E38.0531
G1 X87.723 Y174.308 E38.07798
G1 X87.549 Y173.58 E38.10287
G1 X87.454 Y172.838 E38.12775
G1 X87.435 Y172.321 E38.14496
G1 X87.435 Y32.321 E42.80138
G1 X87.475 Y31.574 E42.82626
G1 X87.594 Y30.836 E42.85112
G1 X87.792 Y30.114 E42.87602
G0 F6000 X88.192 Y30.18
G1 F1200 X88.465 Y29.507 E42.90018
G1 X88.81 Y28.868 E42.92433
G1 X89.224 Y28.271 E42.94849
G1 X89.7 Y27.723 E42.97264
G1 X90.234 Y27.23 E42.99681
G1 X90.819 Y26.8 E43.02096
G1 X91.448 Y26.436 E43.04513
G1 X92.113 Y26.143 E43.0693
G1 X92.806 Y25.925 E43.09346
G1 X93.518 Y25.785 E43.1176
G1 X94.435 Y25.721 E43.14817
G1 X96.978 Y25.721 E43.23275
G1 X97.425 Y25.746 E43.24764
G1 X97.778 Y25.721 E43.25941
G1 X103.828 Y25.721 E43.46063
G1 X103.827 Y24.251 E43.50953
G1 X103.867 Y23.526 E43.53368
G1 X103.986 Y22.809 E43.55785
G1 X104.149 Y22.198 E43.57888
G1 X104.387 Y21.511 E43.60307
G1 X104.662 Y20.926 E43.62456
G1 X104.793 Y20.679 E43.63386
G1 X105.168 Y20.057 E43.65802
G1 X105.729 Y19.344 E43.6882
G1 X105.994 Y19.051 E43.70134
G1 X106.51 Y18.54 E43.72549
G1 X107.079 Y18.088 E43.74966
G1 X107.695 Y17.703 E43.77382
G1 X108.349 Y17.386 E43.79799
G1 X108.71 Y17.258 E43.81073
G1 X109.238 Y17.009 E43.83015
G1 X109.925 Y16.773 E43.85431
G1 X110.6 Y16.622 E43.87731
G1 X111.024 Y16.487 E43.89211
G1 X111.737 Y16.345 E43.91629
G1 X112.003 Y16.307 E43.92523
G1 X113.006 Y16.131 E43.9591
G1 X114.083 Y16.032 E43.99507
G1 X114.186 Y16.031 E43.9985
G1 X115.811 Y15.86 E44.05284
G1 X116.697 Y15.827 E44.08233
G1 X117.177 Y15.833 E44.0983
G1 X119.023 Y15.886 E44.15972
G1 X119.781 Y15.951 E44.18503
G1 X120.558 Y16.064 E44.21114
G1 X120.89 Y16.042 E44.22221
G1 X121.615 Y16.076 E44.24635
G1 X122.333 Y16.189 E44.27052
G1 X122.975 Y16.357 E44.2926
G1 X123.345 Y16.387 E44.30494
G1 X124.058 Y16.525 E44.3291
G1 X124.482 Y16.656 E44.34386
G1 X124.905 Y16.737 E44.35818
G1 X125.599 Y16.951 E44.38234
G1 X126.094 Y17.165 E44.40027
G1 X126.231 Y17.205 E44.40502
G1 X126.901 Y17.486 E44.42918
G1 X127.536 Y17.839 E44.45335
G1 X128.152 Y18.278 E44.47851
G1 X128.386 Y18.466 E44.48849
G1 X128.926 Y18.951 E44.51263
G1 X129.41 Y19.493 E44.5368
G1 X129.647 Y19.81 E44.54996
G1 X129.864 Y20.118 E44.5625
G1 X130.249 Y20.734 E44.58666
G1 X130.564 Y21.388 E44.6108
G1 X130.841 Y22.2 E44.63934
G1 X130.943 Y22.578 E44.65236
G1 X131.093 Y23.288 E44.67649
G1 X131.171 Y24.298 E44.71019
G1 X131.171 Y25.721 E44.75752
G1 X137.218 Y25.721 E44.95864
G1 X137.665 Y25.746 E44.97353
G1 X138.018 Y25.721 E44.9853
G1 X140.567 Y25.721 E45.07008
G1 X141.292 Y25.761 E45.09423
G1 X142.009 Y25.88 E45.1184
G1 X142.708 Y26.078 E45.14257
G1 X143.381 Y26.351 E45.16672
G1 X144.02 Y26.696 E45.19088
G1 X144.617 Y27.11 E45.21504
G1 X145.165 Y27.586 E45.23918
G1 X145.658 Y28.12 E45.26336
G1 X146.088 Y28.705 E45.2875
G1 X146.452 Y29.334 E45.31167
G1 X146.745 Y29.999 E45.33584
G1 X146.963 Y30.692 E45.36001
G1 X147.103 Y31.404 E45.38414
G1 X147.167 Y32.321 E45.41472
G1 X147.168 Y172.321 E50.07113
G1 X147.128 Y173.046 E50.09528
G1 X147.009 Y173.763 E50.11946
G1 X146.811 Y174.462 E50.14362
G1 X146.538 Y175.135 E50.16778
G1 X146.193 Y175.774 E50.19193
G1 X145.779 Y176.371 E50.21609
G1 X145.303 Y176.919 E50.24024
G1 X144.769 Y177.412 E50.26441
G1 X144.184 Y177.842 E50.28856
G1 X143.555 Y178.206 E50.31273
G1 X142.89 Y178.499 E50.3369
G1 X142.198 Y178.717 E50.36103
G1 X141.485 Y178.857 E50.3852
