;FLAVOR:Marlin
;TIME:450
;Filament used: 0.409352m
;Layer height: 0.2
;Generated with Cura_SteamEngine master
M190 S60
M104 S207
M109 S207
G21 ;metric values
G90 ;absolute positioning
M82 ;set extruder to absolute mode
M107 ;start with the fan off
G28 X0 Y0 ;move X/Y to min endstops
G28 Z0 ;move Z to min endstops
G1 Z15.0 F9000 ;move the platform down 15mm
G92 E0 ;zero the extruded length
G1 F200 E3 ;extrude 3mm of feed stock
G92 E0 ;zero the extruded length again
G1 F9000
;Put printing message on LCD screen
M117 Printing...
;LAYER_COUNT:25
;LAYER:0
M107
G0 F3000 X96.817 Y96.056 Z0.3
;TYPE:SKIRT
G1 F1500 X97.807 Y95.083 E0.06925
G1 X98.275 Y94.689 E0.09977
G1 X99.882 Y93.533 E0.19854
G1 X100.374 Y93.23 E0.22736
G1 X101.479 Y92.656 E0.28949
G1 X101.904 Y92.466 E0.31271
G1 X103.035 Y92.037 E0.37306
G1 X103.459 Y91.903 E0.39525
G1 X104.763 Y91.568 E0.46241
G1 X105.258 Y91.473 E0.48756
G1 X106.505 Y91.316 E0.55027
G1 X106.926 Y91.286 E0.57132
G1 X108.186 Y91.261 E0.6342
G1 X108.746 Y91.289 E0.66217
G1 X110.396 Y91.489 E0.74509
G1 X110.931 Y91.591 E0.77226
G1 X112.309 Y91.953 E0.84334
G1 X112.874 Y92.148 E0.87316
G1 X114.52 Y92.856 E0.96256
G1 X115.037 Y93.124 E0.99161
G1 X116.284 Y93.892 E1.06468
G1 X116.686 Y94.176 E1.08923
G1 X117.635 Y94.936 E1.14989
G1 X118.015 Y95.282 E1.17553
G1 X119.118 Y96.426 E1.25481
G1 X119.453 Y96.822 E1.28069
G1 X120.219 Y97.857 E1.34493
G1 X120.476 Y98.25 E1.36836
G1 X121.11 Y99.358 E1.43204
G1 X121.316 Y99.772 E1.45511
G1 X121.832 Y100.978 E1.52056
G1 X121.998 Y101.444 E1.54524
G1 X122.377 Y102.76 E1.61356
G1 X122.477 Y103.197 E1.63593
G1 X122.656 Y104.251 E1.68926
G1 X122.708 Y104.732 E1.7134
G1 X122.785 Y106.362 E1.79481
G1 X122.766 Y106.975 E1.82541
G1 X122.587 Y108.653 E1.9096
G1 X122.51 Y109.119 E1.93317
G1 X122.286 Y110.101 E1.98342
G1 X122.151 Y110.561 E2.00733
G1 X121.644 Y111.975 E2.08228
G1 X121.44 Y112.446 E2.10788
G1 X120.812 Y113.674 E2.1767
G1 X120.568 Y114.088 E2.20067
G1 X119.88 Y115.109 E2.26209
G1 X119.573 Y115.509 E2.28725
G1 X118.561 Y116.665 E2.3639
G1 X118.149 Y117.072 E2.39279
G1 X116.875 Y118.16 E2.47638
G1 X116.434 Y118.486 E2.50374
G1 X115.313 Y119.204 E2.57015
G1 X114.809 Y119.478 E2.59877
G1 X113.13 Y120.24 E2.69076
G1 X112.567 Y120.447 E2.72069
G1 X111.211 Y120.831 E2.791
G1 X110.713 Y120.938 E2.81641
G1 X109.369 Y121.139 E2.88421
G1 X108.856 Y121.182 E2.90989
G1 X107.294 Y121.213 E2.98784
G1 X106.685 Y121.179 E3.01827
G1 X104.993 Y120.953 E3.10343
G1 X104.428 Y120.835 E3.13223
G1 X102.967 Y120.419 E3.20801
G1 X102.474 Y120.243 E3.23413
G1 X101.253 Y119.715 E3.3005
G1 X100.801 Y119.485 E3.3258
G1 X99.514 Y118.722 E3.40044
G1 X99.069 Y118.415 E3.42742
G1 X97.982 Y117.553 E3.49663
G1 X97.59 Y117.198 E3.52301
G1 X96.482 Y116.051 E3.60258
G1 X96.133 Y115.636 E3.62963
G1 X95.346 Y114.562 E3.69606
G1 X95.03 Y114.057 E3.72578
G1 X94.116 Y112.316 E3.82388
G1 X93.88 Y111.772 E3.85346
G1 X93.443 Y110.517 E3.91976
G1 X93.306 Y110.021 E3.94544
G1 X93.011 Y108.61 E4.01735
G1 X92.94 Y108.127 E4.04171
G1 X92.834 Y106.869 E4.10469
G1 X92.825 Y106.325 E4.13184
G1 X92.916 Y104.579 E4.21906
G1 X92.967 Y104.122 E4.242
G1 X93.091 Y103.386 E4.27924
G1 X93.169 Y103.024 E4.29772
G1 X93.499 Y101.782 E4.36183
G1 X93.671 Y101.275 E4.38854
G1 X94.298 Y99.765 E4.47011
G1 X94.536 Y99.285 E4.49684
G1 X95.226 Y98.101 E4.56521
G1 X95.526 Y97.658 E4.5919
G1 X96.465 Y96.452 E4.66816
G1 X96.817 Y96.056 E4.69459
G0 F3000 X97.098 Y96.341
G1 F1500 X98.088 Y95.368 E4.76384
G1 X98.509 Y95.014 E4.79128
G1 X100.116 Y93.858 E4.89005
G1 X100.558 Y93.585 E4.91596
G1 X101.663 Y93.011 E4.97809
G1 X102.046 Y92.84 E4.99901
G1 X103.177 Y92.411 E5.05936
G1 X103.558 Y92.29 E5.07931
G1 X104.862 Y91.955 E5.14647
G1 X105.308 Y91.87 E5.16913
G1 X106.555 Y91.713 E5.23183
G1 X106.934 Y91.686 E5.25079
G1 X108.194 Y91.661 E5.31366
G1 X108.698 Y91.686 E5.33884
G1 X110.348 Y91.886 E5.42176
G1 X110.83 Y91.978 E5.44624
G1 X112.208 Y92.34 E5.51732
G1 X112.715 Y92.515 E5.54408
G1 X114.361 Y93.223 E5.63347
G1 X114.827 Y93.465 E5.65967
G1 X116.074 Y94.233 E5.73274
G1 X116.436 Y94.488 E5.75483
G1 X117.385 Y95.248 E5.81548
G1 X117.727 Y95.559 E5.83855
G1 X118.83 Y96.703 E5.91783
G1 X119.132 Y97.06 E5.94116
G1 X119.898 Y98.095 E6.0054
G1 X120.129 Y98.449 E6.02649
G1 X120.763 Y99.557 E6.09017
G1 X120.948 Y99.929 E6.1109
G1 X121.464 Y101.135 E6.17634
G1 X121.613 Y101.555 E6.19858
G1 X121.992 Y102.871 E6.2669
G1 X122.082 Y103.264 E6.28702
G1 X122.261 Y104.318 E6.34035
G1 X122.308 Y104.751 E6.36208
G1 X122.385 Y106.381 E6.44349
G1 X122.369 Y106.933 E6.47105
G1 X122.19 Y108.611 E6.55524
G1 X122.12 Y109.03 E6.57643
G1 X121.896 Y110.012 E6.62668
G1 X121.775 Y110.426 E6.6482
G1 X121.268 Y111.84 E6.72314
G1 X121.084 Y112.264 E6.7462
G1 X120.456 Y113.492 E6.81501
G1 X120.236 Y113.865 E6.83662
G1 X119.548 Y114.886 E6.89804
G1 X119.272 Y115.245 E6.92063
G1 X118.26 Y116.401 E6.99728
G1 X117.889 Y116.768 E7.02332
G1 X116.615 Y117.856 E7.1069
G1 X116.219 Y118.149 E7.13148
G1 X115.098 Y118.867 E7.19789
G1 X114.644 Y119.114 E7.22368
G1 X112.965 Y119.876 E7.31567
G1 X112.458 Y120.062 E7.34261
G1 X111.102 Y120.446 E7.41292
G1 X110.653 Y120.542 E7.43583
G1 X109.309 Y120.743 E7.50363
G1 X108.848 Y120.782 E7.52671
G1 X107.286 Y120.813 E7.60465
G1 X106.738 Y120.782 E7.63204
G1 X105.046 Y120.556 E7.7172
G1 X104.537 Y120.45 E7.74314
G1 X103.076 Y120.034 E7.81893
G1 X102.633 Y119.876 E7.84239
G1 X101.412 Y119.348 E7.90876
G1 X101.005 Y119.141 E7.93154
G1 X99.718 Y118.378 E8.00618
G1 X99.317 Y118.102 E8.03047
G1 X98.23 Y117.24 E8.09968
G1 X97.878 Y116.92 E8.12342
G1 X96.77 Y115.773 E8.20298
G1 X96.455 Y115.4 E8.22734
G1 X95.668 Y114.326 E8.29377
G1 X95.385 Y113.871 E8.3205
G1 X94.471 Y112.13 E8.4186
G1 X94.258 Y111.641 E8.44521
G1 X93.821 Y110.386 E8.51151
G1 X93.697 Y109.939 E8.53465
G1 X93.402 Y108.528 E8.60657
G1 X93.339 Y108.093 E8.6285
G1 X93.233 Y106.835 E8.69148
G1 X93.225 Y106.346 E8.71588
G1 X93.316 Y104.6 E8.80311
G1 X93.361 Y104.189 E8.82374
G1 X93.485 Y103.453 E8.86097
G1 X93.556 Y103.127 E8.87762
G1 X93.886 Y101.885 E8.94173
G1 X94.04 Y101.428 E8.96579
G1 X94.667 Y99.918 E9.04736
G1 X94.882 Y99.486 E9.07144
G1 X95.572 Y98.302 E9.1398
G1 X95.841 Y97.903 E9.16381
G1 X96.78 Y96.697 E9.24007
G1 X97.098 Y96.341 E9.26388
G0 F3000 X97.378 Y96.627
G1 F1500 X98.368 Y95.654 E9.33313
G1 X98.742 Y95.338 E9.35756
G1 X100.349 Y94.182 E9.45632
G1 X100.743 Y93.94 E9.47939
G1 X101.848 Y93.366 E9.54151
G1 X102.188 Y93.214 E9.5601
G1 X103.319 Y92.785 E9.62044
G1 X103.658 Y92.678 E9.63818
G1 X104.962 Y92.343 E9.70535
G1 X105.358 Y92.267 E9.72547
G1 X106.605 Y92.11 E9.78817
G1 X106.942 Y92.086 E9.80503
G1 X108.202 Y92.061 E9.8679
G1 X108.65 Y92.083 E9.89028
G1 X110.3 Y92.283 E9.9732
G1 X110.728 Y92.365 E9.99494
G1 X112.106 Y92.727 E10.06602
G1 X112.557 Y92.882 E10.08981
G1 X114.203 Y93.59 E10.17921
G1 X114.617 Y93.805 E10.20248
G1 X115.864 Y94.573 E10.27555
G1 X116.186 Y94.8 E10.2952
G1 X117.135 Y95.56 E10.35586
G1 X117.439 Y95.837 E10.37638
G1 X118.542 Y96.981 E10.45566
G1 X118.81 Y97.298 E10.47637
G1 X119.576 Y98.333 E10.54061
G1 X119.781 Y98.648 E10.55936
G1 X120.415 Y99.756 E10.62305
G1 X120.58 Y100.086 E10.64145
G1 X121.096 Y101.292 E10.7069
G1 X121.229 Y101.665 E10.72666
G1 X121.608 Y102.981 E10.79498
G1 X121.688 Y103.331 E10.81289
G1 X121.867 Y104.385 E10.86623
G1 X121.908 Y104.77 E10.88554
G1 X121.985 Y106.4 E10.96696
G1 X121.971 Y106.89 E10.99141
G1 X121.792 Y108.568 E11.0756
G1 X121.73 Y108.941 E11.09447
G1 X121.506 Y109.923 E11.14472
G1 X121.398 Y110.291 E11.16385
G1 X120.891 Y111.705 E11.23879
G1 X120.728 Y112.082 E11.25929
G1 X120.1 Y113.31 E11.3281
G1 X119.905 Y113.641 E11.34726
G1 X119.217 Y114.662 E11.40869
G1 X118.971 Y114.982 E11.42882
G1 X117.959 Y116.138 E11.50547
G1 X117.629 Y116.463 E11.52858
G1 X116.355 Y117.551 E11.61217
G1 X116.003 Y117.813 E11.63406
G1 X114.882 Y118.531 E11.70047
G1 X114.478 Y118.75 E11.7234
G1 X112.799 Y119.512 E11.81539
G1 X112.349 Y119.677 E11.8393
G1 X110.993 Y120.061 E11.90961
G1 X110.594 Y120.147 E11.92998
G1 X109.25 Y120.348 E11.99777
G1 X108.84 Y120.382 E12.0183
G1 X107.278 Y120.413 E12.09624
G1 X106.791 Y120.386 E12.12058
G1 X105.099 Y120.16 E12.20574
G1 X104.647 Y120.066 E12.22877
G1 X103.186 Y119.65 E12.30456
G1 X102.792 Y119.509 E12.32544
G1 X101.571 Y118.981 E12.39181
G1 X101.209 Y118.797 E12.41206
G1 X99.922 Y118.034 E12.48671
G1 X99.566 Y117.788 E12.5083
G1 X98.479 Y116.926 E12.57751
G1 X98.165 Y116.642 E12.59863
G1 X97.057 Y115.495 E12.6782
G1 X96.778 Y115.163 E12.69983
G1 X95.991 Y114.089 E12.76626
G1 X95.739 Y113.685 E12.79002
G1 X94.825 Y111.944 E12.88812
G1 X94.636 Y111.509 E12.91178
G1 X94.199 Y110.254 E12.97808
G1 X94.089 Y109.857 E12.99863
G1 X93.794 Y108.446 E13.07055
G1 X93.737 Y108.06 E13.09001
G1 X93.631 Y106.802 E13.153
G1 X93.624 Y106.366 E13.17475
G1 X93.715 Y104.62 E13.26198
G1 X93.755 Y104.255 E13.2803
G1 X93.879 Y103.519 E13.31754
G1 X93.942 Y103.229 E13.33234
G1 X94.272 Y101.987 E13.39645
G1 X94.41 Y101.582 E13.4178
G1 X95.037 Y100.072 E13.49937
G1 X95.227 Y99.688 E13.52075
G1 X95.917 Y98.504 E13.58912
G1 X96.157 Y98.149 E13.61049
G1 X97.096 Y96.943 E13.68675
G1 X97.378 Y96.627 E13.70788
G1 F1500 E7.20788
G0 F3000 X99.255 Y98.306
G0 X100.18 Y99.194
G0 X100.239 Y99.249
G0 X100.166 Y99.181
;TYPE:WALL-INNER
G1 F1500 E13.70788
G1 X100.406 Y98.932 E13.72513
G1 X100.667 Y98.677 E13.74334
G1 X100.921 Y98.445 E13.7605
G1 X101.175 Y98.227 E13.7772
G1 X101.452 Y98.007 E13.79485
G1 X101.733 Y97.797 E13.81235
G1 X102.039 Y97.585 E13.83092
G1 X102.316 Y97.406 E13.84737
G1 X102.635 Y97.217 E13.86587
G1 X102.927 Y97.056 E13.88251
G1 X103.231 Y96.9 E13.89956
G1 X103.489 Y96.779 E13.91377
G1 X103.807 Y96.641 E13.93107
G1 X104.134 Y96.512 E13.9486
G1 X104.484 Y96.387 E13.96715
G1 X104.8 Y96.286 E13.9837
G1 X105.151 Y96.186 E14.00191
G1 X105.527 Y96.093 E14.02123
G1 X106.177 Y95.971 E14.05422
G1 X106.509 Y95.924 E14.07095
G1 X106.878 Y95.883 E14.08948
G1 X107.206 Y95.86 E14.10588
G1 X107.577 Y95.846 E14.1244
G1 X107.966 Y95.843 E14.14381
G1 X108.632 Y95.874 E14.17707
G1 X109.299 Y95.949 E14.21056
G1 X109.659 Y96.009 E14.22877
G1 X110.07 Y96.091 E14.24968
G1 X110.404 Y96.171 E14.26681
G1 X110.741 Y96.265 E14.28427
G1 X111.083 Y96.372 E14.30214
G1 X111.408 Y96.485 E14.31931
G1 X111.741 Y96.615 E14.33715
G1 X112.056 Y96.75 E14.35424
G1 X112.395 Y96.91 E14.37295
G1 X112.738 Y97.088 E14.39222
G1 X113.057 Y97.267 E14.41047
G1 X113.357 Y97.448 E14.42795
G1 X113.644 Y97.637 E14.4451
G1 X113.937 Y97.844 E14.463
G1 X114.209 Y98.049 E14.47999
G1 X114.45 Y98.243 E14.49542
G1 X114.687 Y98.446 E14.51099
G1 X114.946 Y98.682 E14.52847
G1 X115.206 Y98.937 E14.54664
G1 X115.444 Y99.186 E14.56383
G1 X115.682 Y99.453 E14.58167
G1 X115.899 Y99.713 E14.59857
G1 X116.131 Y100.012 E14.61745
G1 X116.365 Y100.338 E14.63747
G1 X116.556 Y100.625 E14.65467
G1 X116.737 Y100.917 E14.67181
G1 X116.911 Y101.223 E14.68937
G1 X117.082 Y101.546 E14.7076
G1 X117.23 Y101.848 E14.72438
G1 X117.372 Y102.169 E14.74189
G1 X117.502 Y102.488 E14.75908
G1 X117.628 Y102.832 E14.77736
G1 X117.734 Y103.151 E14.79413
G1 X117.832 Y103.487 E14.81159
G1 X117.92 Y103.835 E14.8295
G1 X117.997 Y104.186 E14.84743
G1 X118.058 Y104.509 E14.86383
G1 X118.113 Y104.869 E14.88199
G1 X118.152 Y105.212 E14.89922
G1 X118.181 Y105.556 E14.91644
G1 X118.198 Y105.92 E14.93462
G1 X118.203 Y106.257 E14.95143
G1 X118.196 Y106.616 E14.96935
G1 X118.155 Y107.247 E15.0009
G1 X118.117 Y107.579 E15.01757
G1 X118.063 Y107.941 E15.03583
G1 X118.001 Y108.28 E15.05302
G1 X117.928 Y108.618 E15.07027
G1 X117.842 Y108.961 E15.08791
G1 X117.639 Y109.623 E15.12246
G1 X117.52 Y109.951 E15.13987
G1 X117.383 Y110.289 E15.15806
G1 X117.247 Y110.599 E15.17495
G1 X117.094 Y110.916 E15.19251
G1 X116.932 Y111.225 E15.20992
G1 X116.725 Y111.587 E15.23072
G1 X116.383 Y112.118 E15.26223
G1 X116.171 Y112.415 E15.28044
G1 X115.966 Y112.684 E15.29731
G1 X115.746 Y112.954 E15.31469
G1 X115.464 Y113.274 E15.33597
G1 X115.225 Y113.526 E15.35329
G1 X114.971 Y113.777 E15.37111
G1 X114.72 Y114.006 E15.38806
G1 X114.179 Y114.46 E15.4233
G1 X113.901 Y114.666 E15.44056
G1 X113.607 Y114.871 E15.45844
G1 X113.251 Y115.099 E15.47953
G1 X112.955 Y115.274 E15.49669
G1 X112.652 Y115.44 E15.51392
G1 X112.321 Y115.608 E15.53244
G1 X112.009 Y115.752 E15.54959
G1 X111.697 Y115.884 E15.56649
G1 X111.406 Y115.997 E15.58206
G1 X111.107 Y116.102 E15.59787
G1 X110.778 Y116.206 E15.61509
G1 X110.433 Y116.302 E15.63295
G1 X110.088 Y116.386 E15.65067
G1 X109.735 Y116.459 E15.66865
G1 X109.396 Y116.518 E15.68582
G1 X109.037 Y116.568 E15.7039
G1 X108.639 Y116.607 E15.72385
G1 X108.29 Y116.629 E15.7413
G1 X107.928 Y116.64 E15.75937
G1 X107.597 Y116.639 E15.77588
G1 X107.231 Y116.624 E15.79416
G1 X106.887 Y116.6 E15.81136
G1 X106.533 Y116.562 E15.82912
G1 X106.192 Y116.515 E15.8463
G1 X105.858 Y116.457 E15.86321
G1 X105.494 Y116.381 E15.88176
G1 X105.152 Y116.298 E15.89932
G1 X104.833 Y116.208 E15.91586
G1 X104.488 Y116.098 E15.93392
G1 X104.163 Y115.983 E15.95112
G1 X103.849 Y115.86 E15.96795
G1 X103.527 Y115.72 E15.98546
G1 X103.191 Y115.561 E16.00401
G1 X102.884 Y115.403 E16.02123
G1 X102.583 Y115.235 E16.03843
G1 X102.276 Y115.05 E16.05631
G1 X101.768 Y114.71 E16.08681
G1 X101.471 Y114.49 E16.10525
G1 X101.196 Y114.272 E16.12276
G1 X100.935 Y114.049 E16.13988
G1 X100.68 Y113.817 E16.15708
G1 X100.418 Y113.562 E16.17532
G1 X100.14 Y113.272 E16.19537
G1 X99.729 Y112.793 E16.22686
G1 X99.502 Y112.505 E16.24515
G1 X99.301 Y112.229 E16.26218
G1 X99.108 Y111.944 E16.27936
G1 X98.916 Y111.64 E16.2973
G1 X98.713 Y111.293 E16.31735
G1 X98.414 Y110.71 E16.35004
G1 X98.271 Y110.395 E16.3673
G1 X98.141 Y110.082 E16.38421
G1 X98.011 Y109.741 E16.40241
G1 X97.877 Y109.345 E16.42327
G1 X97.783 Y109.02 E16.44015
G1 X97.691 Y108.67 E16.45821
G1 X97.619 Y108.338 E16.47515
G1 X97.552 Y107.985 E16.49308
G1 X97.501 Y107.651 E16.50994
G1 X97.457 Y107.288 E16.52818
G1 X97.428 Y106.954 E16.5449
G1 X97.409 Y106.524 E16.56638
G1 X97.404 Y106.194 E16.58284
G1 X97.431 Y105.485 E16.61824
G1 X97.462 Y105.141 E16.63547
G1 X97.507 Y104.777 E16.65377
G1 X97.612 Y104.17 E16.68451
G1 X97.688 Y103.82 E16.70237
G1 X97.772 Y103.495 E16.71912
G1 X97.871 Y103.157 E16.73669
G1 X97.981 Y102.823 E16.75424
G1 X98.106 Y102.481 E16.7724
G1 X98.25 Y102.131 E16.79128
G1 X98.404 Y101.79 E16.80995
G1 X98.56 Y101.476 E16.82744
G1 X98.727 Y101.166 E16.84501
G1 X98.914 Y100.845 E16.86354
G1 X99.09 Y100.565 E16.88004
G1 X99.291 Y100.268 E16.89794
G1 X99.488 Y99.996 E16.91469
G1 X99.713 Y99.707 E16.93296
G1 X99.942 Y99.432 E16.95082
G1 X100.166 Y99.181 E16.9676
G0 F3000 X100.239 Y99.249
G0 X100.821 Y101.832
G0 X100.873 Y101.917
G1 F1500 X100.827 Y102.111 E16.97755
G1 X99.71 Y106.74 E17.21512
G1 X99.664 Y106.934 E17.22507
G1 X99.858 Y106.98 E17.2315
G1 X103.04 Y107.747 E17.3948
G1 X103.081 Y107.884 E17.40193
G1 X103.175 Y108.133 E17.41521
G1 X103.282 Y108.376 E17.42846
G1 X103.399 Y108.607 E17.44138
G1 X103.529 Y108.836 E17.45452
G1 X103.673 Y109.058 E17.46772
G1 X103.825 Y109.27 E17.48073
G1 X103.989 Y109.474 E17.49379
G1 X104.165 Y109.671 E17.50697
G1 X104.351 Y109.859 E17.52016
G1 X104.547 Y110.035 E17.53331
G1 X104.749 Y110.199 E17.54629
G1 X104.961 Y110.356 E17.55945
G1 X105.181 Y110.499 E17.57254
G1 X105.409 Y110.632 E17.58571
G1 X105.643 Y110.75 E17.59878
G1 X105.883 Y110.858 E17.61191
G1 X106.128 Y110.952 E17.625
G1 X106.377 Y111.034 E17.63808
G1 X106.633 Y111.103 E17.65131
G1 X106.891 Y111.158 E17.66447
G1 X107.149 Y111.198 E17.6775
G1 X107.409 Y111.226 E17.69054
G1 X107.672 Y111.24 E17.70368
G1 X107.937 Y111.24 E17.7169
G1 X108.198 Y111.225 E17.72995
G1 X108.457 Y111.198 E17.74294
G1 X108.718 Y111.158 E17.75611
G1 X108.976 Y111.102 E17.76928
G1 X109.229 Y111.034 E17.78235
G1 X109.479 Y110.953 E17.79546
G1 X109.725 Y110.857 E17.80864
G1 X109.965 Y110.75 E17.82175
G1 X110.199 Y110.63 E17.83487
G1 X110.425 Y110.498 E17.84793
G1 X110.646 Y110.355 E17.86106
G1 X110.859 Y110.198 E17.87426
G1 X111.062 Y110.034 E17.88728
G1 X111.259 Y109.855 E17.90056
G1 X111.358 Y109.752 E17.90769
G1 X114.54 Y110.519 E18.07098
G1 X114.734 Y110.565 E18.08093
