;FLAVOR:Marlin
;TIME:192
;Filament used: 0.127123m
;Layer height: 0.2
;Generated with Cura_SteamEngine master
M190 S60
M104 S207
M109 S207
G21 ;metric values
G90 ;absolute positioning
M82 ;set extruder to absolute mode
M107 ;start with the fan off
G28 X0 Y0 ;move X/Y to min endstops
G28 Z0 ;move Z to min endstops
G1 Z15.0 F9000 ;move the platform down 15mm
G92 E0 ;zero the extruded length
G1 F200 E3 ;extrude 3mm of feed stock
G92 E0 ;zero the extruded length again
G1 F9000
;Put printing message on LCD screen
M117 Printing...
;LAYER_COUNT:18
;LAYER:0
M107
G0 F3000 X84.973 Y107.297 Z0.3
;TYPE:WALL-INNER
G1 F1500 X85.192 Y107.126 E0.01386
G1 X85.462 Y106.944 E0.03011
G1 X85.709 Y106.801 E0.04435
G1 X85.974 Y106.67 E0.05909
G1 X86.263 Y106.55 E0.07471
G1 X86.547 Y106.456 E0.08963
G1 X86.834 Y106.381 E0.10443
G1 X87.136 Y106.325 E0.11975
G1 X87.43 Y106.291 E0.13452
G1 X87.725 Y106.276 E0.14926
G1 X88.041 Y106.283 E0.16503
G1 X88.315 Y106.307 E0.17875
G1 X88.631 Y106.357 E0.19471
G1 X88.919 Y106.423 E0.20945
G1 X89.203 Y106.509 E0.22425
G1 X89.479 Y106.612 E0.23895
G1 X89.77 Y106.746 E0.25493
G1 X90.011 Y106.877 E0.26862
G1 X90.286 Y107.052 E0.28488
G1 X90.523 Y107.227 E0.29958
G1 X90.742 Y107.411 E0.31385
G1 X90.96 Y107.625 E0.32909
G1 X91.165 Y107.851 E0.34431
G1 X91.356 Y108.097 E0.35985
G1 X91.517 Y108.336 E0.37423
G1 X91.664 Y108.589 E0.38883
G1 X91.797 Y108.859 E0.40384
G1 X91.919 Y109.151 E0.41963
G1 X92.012 Y109.433 E0.43445
G1 X92.085 Y109.713 E0.44888
G1 X92.143 Y110.024 E0.46466
G1 X92.174 Y110.293 E0.47817
G1 X92.191 Y110.625 E0.49476
G1 X92.184 Y110.925 E0.50973
G1 X92.16 Y111.202 E0.5236
G1 X92.113 Y111.502 E0.53875
G1 X92.044 Y111.801 E0.55406
G1 X91.954 Y112.1 E0.56964
G1 X91.856 Y112.36 E0.5835
G1 X91.725 Y112.649 E0.59933
G1 X91.586 Y112.902 E0.61373
G1 X91.428 Y113.151 E0.62845
G1 X91.234 Y113.414 E0.64475
G1 X91.054 Y113.627 E0.65866
G1 X90.842 Y113.845 E0.67383
G1 X90.613 Y114.052 E0.68923
G1 X90.385 Y114.228 E0.7036
G1 X90.124 Y114.406 E0.71937
G1 X89.874 Y114.55 E0.73376
G1 X89.605 Y114.683 E0.74873
G1 X89.325 Y114.799 E0.76385
G1 X89.039 Y114.894 E0.77889
G1 X88.739 Y114.972 E0.79435
G1 X88.457 Y115.024 E0.80866
G1 X88.151 Y115.06 E0.82403
G1 X87.858 Y115.075 E0.83867
G1 X87.543 Y115.068 E0.85439
G1 X87.258 Y115.043 E0.86866
G1 X86.967 Y114.996 E0.88337
G1 X86.665 Y114.928 E0.89881
G1 X86.367 Y114.838 E0.91434
G1 X86.102 Y114.738 E0.92847
G1 X85.83 Y114.613 E0.94341
G1 X85.548 Y114.46 E0.95941
G1 X85.309 Y114.308 E0.97354
G1 X85.059 Y114.123 E0.98906
G1 X84.838 Y113.936 E1.0035
G1 X84.622 Y113.726 E1.01853
G1 X84.418 Y113.499 E1.03376
G1 X84.235 Y113.264 E1.04862
G1 X84.06 Y113.005 E1.06421
G1 X83.917 Y112.758 E1.07845
G1 X83.786 Y112.493 E1.0932
G1 X83.666 Y112.204 E1.10881
G1 X83.57 Y111.913 E1.1241
G1 X83.497 Y111.633 E1.13854
G1 X83.44 Y111.326 E1.15411
G1 X83.408 Y111.046 E1.16817
G1 X83.392 Y110.727 E1.18411
G1 X83.399 Y110.418 E1.19953
G1 X83.424 Y110.148 E1.21306
G1 X83.472 Y109.842 E1.22851
G1 X83.541 Y109.543 E1.24382
G1 X83.63 Y109.249 E1.25914
G1 X83.728 Y108.988 E1.27305
G1 X83.862 Y108.695 E1.28913
G1 X83.997 Y108.449 E1.30313
G1 X84.155 Y108.2 E1.31784
G1 X84.347 Y107.94 E1.33396
G1 X84.537 Y107.716 E1.34862
G1 X84.741 Y107.506 E1.36322
G1 X84.973 Y107.297 E1.3788
G0 F3000 X85.037 Y107.373
G0 X86.374 Y108.992
G0 X86.438 Y109.068
G1 F1500 X86.249 Y109.249 E1.39186
G1 X86.083 Y109.452 E1.40494
G1 X85.945 Y109.674 E1.41798
G1 X85.834 Y109.911 E1.43104
G1 X85.756 Y110.159 E1.44401
G1 X85.706 Y110.415 E1.45702
G1 X85.691 Y110.676 E1.47007
G1 X85.706 Y110.936 E1.48306
G1 X85.756 Y111.195 E1.49622
G1 X85.835 Y111.442 E1.50916
G1 X85.946 Y111.68 E1.52226
G1 X86.084 Y111.901 E1.53526
G1 X86.25 Y112.103 E1.5483
G1 X86.439 Y112.284 E1.56136
G1 X86.649 Y112.438 E1.57435
G1 X86.876 Y112.567 E1.58738
G1 X87.119 Y112.666 E1.60047
G1 X87.37 Y112.734 E1.61344
G1 X87.629 Y112.771 E1.62649
G1 X87.892 Y112.774 E1.63961
G1 X88.151 Y112.745 E1.65262
G1 X88.403 Y112.686 E1.66553
G1 X88.65 Y112.594 E1.67868
G1 X88.881 Y112.471 E1.69174
G1 X89.095 Y112.323 E1.70472
G1 X89.29 Y112.148 E1.71779
G1 X89.46 Y111.951 E1.73077
G1 X89.606 Y111.734 E1.74382
G1 X89.723 Y111.502 E1.75678
G1 X89.811 Y111.255 E1.76986
G1 X89.868 Y111 E1.7829
G1 X89.892 Y110.738 E1.79603
G1 X89.883 Y110.479 E1.80895
G1 X89.843 Y110.222 E1.82193
G1 X89.77 Y109.969 E1.83507
G1 X89.671 Y109.736 E1.8477
G1 X89.599 Y109.606 E1.85511
G1 X89.46 Y109.398 E1.86759
G1 X89.288 Y109.199 E1.88072
G1 X89.092 Y109.026 E1.89376
G1 X88.88 Y108.878 E1.90666
G1 X88.648 Y108.756 E1.91974
G1 X88.403 Y108.665 E1.93277
G1 X88.147 Y108.604 E1.9459
G1 X87.888 Y108.577 E1.9589
G1 X87.626 Y108.58 E1.97197
G1 X87.369 Y108.618 E1.98493
G1 X87.117 Y108.685 E1.99794
G1 X86.875 Y108.785 E2.011
G1 X86.648 Y108.912 E2.02398
G1 X86.438 Y109.068 E2.03703
G0 F3000 X86.696 Y109.375
;TYPE:WALL-OUTER
G1 F1500 X86.543 Y109.521 E2.04758
G1 X86.409 Y109.685 E2.05815
G1 X86.297 Y109.865 E2.06872
G1 X86.208 Y110.056 E2.07924
G1 X86.144 Y110.258 E2.08981
G1 X86.104 Y110.465 E2.10033
G1 X86.092 Y110.676 E2.11087
G1 X86.104 Y110.887 E2.12141
G1 X86.144 Y111.096 E2.13203
G1 X86.208 Y111.296 E2.14251
G1 X86.298 Y111.488 E2.15309
G1 X86.41 Y111.667 E2.16362
G1 X86.544 Y111.831 E2.17419
G1 X86.697 Y111.977 E2.18474
G1 X86.867 Y112.102 E2.19526
G1 X87.051 Y112.206 E2.20581
G1 X87.247 Y112.286 E2.21637
G1 X87.451 Y112.341 E2.22691
G1 X87.66 Y112.371 E2.23745
G1 X87.872 Y112.374 E2.24802
G1 X88.082 Y112.35 E2.25857
G1 X88.287 Y112.302 E2.26907
G1 X88.486 Y112.228 E2.27966
G1 X88.673 Y112.129 E2.29022
G1 X88.846 Y112.009 E2.30072
G1 X89.004 Y111.867 E2.31132
G1 X89.142 Y111.708 E2.32183
G1 X89.26 Y111.532 E2.3324
G1 X89.355 Y111.344 E2.34291
G1 X89.426 Y111.144 E2.3535
G1 X89.472 Y110.938 E2.36403
G1 X89.491 Y110.727 E2.3746
G1 X89.484 Y110.516 E2.38513
G1 X89.452 Y110.308 E2.39563
G1 X89.393 Y110.104 E2.40622
G1 X89.311 Y109.912 E2.41664
G1 X89.257 Y109.814 E2.42222
G1 X89.141 Y109.641 E2.43261
G1 X89.003 Y109.481 E2.44315
G1 X88.845 Y109.341 E2.45369
G1 X88.672 Y109.221 E2.46419
G1 X88.484 Y109.122 E2.47479
G1 X88.286 Y109.048 E2.48534
G1 X88.08 Y108.999 E2.4959
G1 X87.87 Y108.977 E2.50643
G1 X87.658 Y108.98 E2.51701
G1 X87.45 Y109.01 E2.5275
G1 X87.246 Y109.065 E2.53804
G1 X87.05 Y109.146 E2.54862
G1 X86.866 Y109.249 E2.55914
G1 X86.696 Y109.375 E2.56969
G0 F3000 X86.551 Y109.513
G0 X86.206 Y109.152
G0 X85.037 Y107.373
G0 X84.712 Y106.994
G1 F1500 X84.968 Y106.794 E2.5859
G1 X85.245 Y106.607 E2.60258
G1 X85.521 Y106.447 E2.61849
G1 X85.811 Y106.304 E2.63462
G1 X86.123 Y106.175 E2.65147
G1 X86.428 Y106.074 E2.6675
G1 X86.746 Y105.991 E2.68389
G1 X87.072 Y105.93 E2.70044
G1 X87.397 Y105.893 E2.71676
G1 X87.726 Y105.876 E2.73319
G1 X88.055 Y105.883 E2.74961
G1 X88.371 Y105.911 E2.76544
G1 X88.704 Y105.964 E2.78226
G1 X89.026 Y106.037 E2.79873
G1 X89.333 Y106.13 E2.81474
G1 X89.635 Y106.243 E2.83082
G1 X89.945 Y106.385 E2.84784
G1 X90.221 Y106.536 E2.86353
G1 X90.501 Y106.714 E2.88008
G1 X90.768 Y106.911 E2.89664
G1 X91.017 Y107.12 E2.91286
G1 X91.247 Y107.345 E2.92891
G1 X91.476 Y107.599 E2.94597
G1 X91.672 Y107.851 E2.9619
G1 X91.86 Y108.129 E2.97864
G1 X92.018 Y108.401 E2.99434
G1 X92.163 Y108.695 E3.01069
G1 X92.294 Y109.011 E3.02776
G1 X92.392 Y109.307 E3.04331
G1 X92.475 Y109.625 E3.05971
G1 X92.538 Y109.961 E3.07676
G1 X92.574 Y110.273 E3.09243
G1 X92.591 Y110.614 E3.10947
G1 X92.584 Y110.938 E3.12564
G1 X92.556 Y111.255 E3.14151
G1 X92.504 Y111.588 E3.15833
G1 X92.432 Y111.898 E3.1742
G1 X92.334 Y112.225 E3.19124
G1 X92.224 Y112.518 E3.20685
G1 X92.083 Y112.828 E3.22384
G1 X91.931 Y113.105 E3.2396
G1 X91.756 Y113.381 E3.25591
G1 X91.556 Y113.652 E3.27271
G1 X91.341 Y113.906 E3.28931
G1 X91.122 Y114.131 E3.30498
G1 X90.872 Y114.357 E3.32179
G1 X90.615 Y114.556 E3.33801
G1 X90.338 Y114.744 E3.35471
G1 X90.062 Y114.904 E3.37063
G1 X89.768 Y115.049 E3.38698
G1 X89.465 Y115.174 E3.40333
G1 X89.155 Y115.277 E3.41963
G1 X88.835 Y115.361 E3.43614
G1 X88.514 Y115.42 E3.45242
G1 X88.186 Y115.458 E3.46889
G1 X87.857 Y115.475 E3.48533
G1 X87.529 Y115.468 E3.5017
G1 X87.202 Y115.439 E3.51807
G1 X86.89 Y115.389 E3.53384
G1 X86.565 Y115.315 E3.55047
G1 X86.242 Y115.218 E3.56729
G1 X85.95 Y115.108 E3.58286
G1 X85.639 Y114.965 E3.59994
G1 X85.357 Y114.812 E3.61595
G1 X85.082 Y114.637 E3.63221
G1 X84.815 Y114.44 E3.64876
G1 X84.561 Y114.225 E3.66536
G1 X84.336 Y114.006 E3.68103
G1 X84.107 Y113.752 E3.69809
G1 X83.91 Y113.499 E3.71409
G1 X83.723 Y113.222 E3.73076
G1 X83.563 Y112.946 E3.74668
G1 X83.42 Y112.656 E3.76281
G1 X83.291 Y112.344 E3.77965
G1 X83.19 Y112.039 E3.79568
G1 X83.107 Y111.721 E3.81208
G1 X83.045 Y111.39 E3.82888
G1 X83.008 Y111.065 E3.8452
G1 X82.992 Y110.737 E3.86158
G1 X82.999 Y110.409 E3.87795
G1 X83.027 Y110.096 E3.89363
G1 X83.08 Y109.76 E3.9106
G1 X83.151 Y109.453 E3.92632
G1 X83.249 Y109.126 E3.94335
G1 X83.359 Y108.832 E3.95901
G1 X83.501 Y108.522 E3.97602
G1 X83.652 Y108.246 E3.99172
G1 X83.827 Y107.97 E4.00802
G1 X84.03 Y107.695 E4.02508
G1 X84.242 Y107.445 E4.04143
G1 X84.461 Y107.22 E4.05709
G1 X84.712 Y106.994 E4.07394
G0 F3000 X84.87 Y106.871
G0 X85.177 Y107.265
G0 X91.136 Y108.106
;TYPE:SKIN
G1 F1500 X90.356 Y107.327 E4.12894
G1 X90.286 Y107.257
G0 F3000 X89.142 Y106.678
G1 F1500 X91.787 Y109.323 E4.31556
G1 X91.857 Y109.393
G0 F3000 X91.968 Y110.07
G1 F1500 X88.4 Y106.502 E4.5673
G1 X88.33 Y106.432
G0 F3000 X87.788 Y106.456
G1 F1500 X92.01 Y110.677 E4.86515
G1 X92.08 Y110.747
G0 F3000 X91.976 Y111.209
G1 F1500 X87.258 Y106.491 E5.19803
G1 X87.188 Y106.421
G0 F3000 X86.781 Y106.58
G1 F1500 X88.869 Y108.668 E5.34535
G1 X88.939 Y108.738
G0 F3000 X88.046 Y108.411
G1 F1500 X86.346 Y106.711 E5.4653
G1 X86.276 Y106.641
G0 F3000 X85.95 Y106.881
G1 F1500 X87.487 Y108.417 E5.5737
G1 X87.557 Y108.487
G0 F3000 X87.029 Y108.525
G1 F1500 X85.584 Y107.08 E5.67566
G1 X85.514 Y107.01
G0 F3000 X85.248 Y107.31
G1 F1500 X86.644 Y108.706 E5.77415
G1 X86.714 Y108.776
G0 F3000 X86.311 Y108.938
G1 F1500 X84.941 Y107.568 E5.87081
G1 X84.871 Y107.498
G0 F3000 X84.658 Y107.851
G1 F1500 X86.033 Y109.226 E5.96783
G1 X86.103 Y109.296
G0 F3000 X85.802 Y109.561
G1 F1500 X84.404 Y108.163 E6.06646
G1 X84.334 Y108.093
G0 F3000 X84.176 Y108.5
G1 F1500 X85.631 Y109.955 E6.16912
G1 X85.701 Y110.025
G0 F3000 X85.526 Y110.416
G1 F1500 X83.979 Y108.869 E6.27827
G1 X83.909 Y108.799
G0 F3000 X83.814 Y109.269
G1 F1500 X85.534 Y110.99 E6.39966
G1 X85.604 Y111.06
G0 F3000 X85.86 Y111.881
G1 F1500 X83.686 Y109.708 E6.55301
G1 X83.616 Y109.638
G0 F3000 X83.6 Y110.187
G1 F1500 X88.275 Y114.863 E6.8829
G1 X88.345 Y114.933
G0 F3000 X88.758 Y114.78
G1 F1500 X86.588 Y112.61 E7.036
G1 X86.518 Y112.54
G0 F3000 X87.474 Y112.929
G1 F1500 X89.195 Y114.651 E7.15746
G1 X89.265 Y114.721
G0 F3000 X89.595 Y114.485
G1 F1500 X88.046 Y112.936 E7.26675
G1 X87.976 Y112.866
G0 F3000 X88.512 Y112.836
G1 F1500 X89.965 Y114.289 E7.36927
G1 X90.035 Y114.359
G0 F3000 X90.303 Y114.062
G1 F1500 X88.903 Y112.661 E7.46808
G1 X88.833 Y112.591
G0 F3000 X89.24 Y112.433
G1 F1500 X90.614 Y113.807 E7.56502
G1 X90.684 Y113.877
G0 F3000 X90.899 Y113.527
G1 F1500 X89.523 Y112.15 E7.66214
G1 X89.453 Y112.08
G0 F3000 X89.761 Y111.823
G1 F1500 X91.155 Y113.217 E7.7605
G1 X91.225 Y113.287
G0 F3000 X91.385 Y112.881
G1 F1500 X89.937 Y111.433 E7.86266
G1 X89.867 Y111.363
G0 F3000 X90.05 Y110.98
G1 F1500 X91.587 Y112.517 E7.97111
G1 X91.657 Y112.587
G0 F3000 X91.754 Y112.118
G1 F1500 X90.055 Y110.42 E8.09094
G1 X89.985 Y110.35
G0 F3000 X89.803 Y109.602
G1 F1500 X91.885 Y111.684 E8.23784
G1 X91.955 Y111.754
G0 F3000 X91.953 Y111.754
G0 X87.738 Y114.891
G1 F1500 X83.572 Y110.725 E8.53178
G1 X83.502 Y110.655
G0 F3000 X83.626 Y111.345
G1 F1500 X87.12 Y114.839 E8.7783
G1 X87.19 Y114.909
G0 F3000 X86.355 Y114.639
G1 F1500 X83.823 Y112.107 E8.95694
G1 X83.753 Y112.037
G0 F3000 X84.006 Y111.956
G1 F1500 E2.45694
G0 F3000 X87.626 Y112.81
G0 X88.414 Y112.724
G0 X89.119 Y112.354
G0 X92.155 Y110.294
G0 X93.428 Y110.147
G0 X102.878 Y109.682
G0 X104.16 Y109.619
G0 X104.24 Y109.612
G0 X104.141 Y109.62
;TYPE:WALL-INNER
G1 F1500 E8.95694
G1 X104.125 Y109.303 E8.97278
G1 X104.132 Y108.995 E8.98815
G1 X104.156 Y108.724 E9.00172
G1 X104.204 Y108.424 E9.01688
G1 X104.272 Y108.129 E9.03198
G1 X104.363 Y107.825 E9.04781
G1 X104.46 Y107.568 E9.06152
G1 X104.597 Y107.271 E9.07784
G1 X104.733 Y107.02 E9.09208
G1 X104.887 Y106.777 E9.10643
G1 X105.08 Y106.516 E9.12263
G1 X105.27 Y106.292 E9.13728
G1 X105.474 Y106.082 E9.15189
G1 X105.697 Y105.882 E9.16683
G1 X105.947 Y105.687 E9.18265
G1 X106.179 Y105.531 E9.1966
G1 X106.453 Y105.371 E9.21243
G1 X106.716 Y105.241 E9.22706
G1 X106.998 Y105.126 E9.24226
G1 X107.264 Y105.037 E9.25625
G1 X107.576 Y104.955 E9.27235
G1 X107.862 Y104.902 E9.28686
G1 X108.165 Y104.867 E9.30207
G1 X108.458 Y104.852 E9.31671
G1 X108.774 Y104.859 E9.33248
G1 X109.058 Y104.884 E9.3467
G1 X109.349 Y104.931 E9.36141
G1 X109.654 Y105 E9.37701
G1 X109.942 Y105.088 E9.39204
G1 X110.213 Y105.188 E9.40645
G1 X110.491 Y105.317 E9.42174
G1 X110.768 Y105.467 E9.43745
G1 X111.007 Y105.619 E9.45158
G1 X111.248 Y105.797 E9.46653
G1 X111.481 Y105.994 E9.48175
G1 X111.693 Y106.2 E9.4965
G1 X111.901 Y106.431 E9.51201
G1 X112.076 Y106.656 E9.52623
G1 X112.256 Y106.922 E9.54225
G1 X112.397 Y107.165 E9.55627
G1 X112.53 Y107.435 E9.57129
G1 X112.657 Y107.74 E9.58777
G1 X112.741 Y107.993 E9.60107
G1 X112.817 Y108.285 E9.61612
G1 X112.876 Y108.6 E9.63211
G1 X112.907 Y108.869 E9.64562
G1 X112.924 Y109.201 E9.66221
G1 X112.917 Y109.501 E9.67718
G1 X112.893 Y109.775 E9.6909
G1 X112.843 Y110.091 E9.70686
G1 X112.776 Y110.383 E9.72181
G1 X112.697 Y110.648 E9.7356
G1 X112.586 Y110.944 E9.75137
G1 X112.457 Y111.226 E9.76685
G1 X112.322 Y111.475 E9.78098
G1 X112.153 Y111.738 E9.79657
G1 X111.982 Y111.972 E9.81103
G1 X111.783 Y112.208 E9.82643
G1 X111.576 Y112.42 E9.84122
G1 X111.343 Y112.63 E9.85686
G1 X111.124 Y112.801 E9.87073
G1 X110.854 Y112.983 E9.88697
G1 X110.607 Y113.126 E9.90121
G1 X110.342 Y113.257 E9.91596
G1 X110.044 Y113.381 E9.93206
G1 X109.776 Y113.47 E9.94615
G1 X109.486 Y113.545 E9.96109
G1 X109.18 Y113.602 E9.97662
G1 X108.898 Y113.635 E9.99079
G1 X108.581 Y113.651 E10.00662
G1 X108.276 Y113.644 E10.02184
G1 X108.002 Y113.62 E10.03557
G1 X107.685 Y113.57 E10.05158
G1 X107.397 Y113.504 E10.06632
G1 X107.105 Y113.416 E10.08153
G1 X106.84 Y113.316 E10.09566
G1 X106.562 Y113.189 E10.11091
G1 X106.29 Y113.042 E10.12634
G1 X106.038 Y112.88 E10.14128
G1 X105.795 Y112.703 E10.15628
G1 X105.577 Y112.518 E10.17055
G1 X105.354 Y112.301 E10.18607
G1 X105.152 Y112.075 E10.20119
G1 X104.96 Y111.829 E10.21676
G1 X104.8 Y111.593 E10.23099
G1 X104.648 Y111.331 E10.2461
G1 X104.516 Y111.065 E10.26091
G1 X104.402 Y110.788 E10.27586
G1 X104.303 Y110.489 E10.29157
G1 X104.227 Y110.197 E10.30662
G1 X104.175 Y109.91 E10.32118
G1 X104.141 Y109.62 E10.33574
G0 F3000 X104.24 Y109.612
G0 X106.34 Y109.525
G0 X106.439 Y109.513
G1 F1500 X106.489 Y109.771 E10.34885
G1 X106.568 Y110.018 E10.36179
G1 X106.679 Y110.256 E10.37489
G1 X106.817 Y110.477 E10.38789
G1 X106.983 Y110.679 E10.40094
G1 X107.172 Y110.86 E10.41399
G1 X107.383 Y111.016 E10.42708
G1 X107.61 Y111.143 E10.44006
G1 X107.852 Y111.243 E10.45312
G1 X108.104 Y111.31 E10.46613
G1 X108.362 Y111.347 E10.47914
G1 X108.623 Y111.35 E10.49216
G1 X108.883 Y111.322 E10.50521
G1 X109.138 Y111.261 E10.51829
G1 X109.381 Y111.17 E10.53123
G1 X109.614 Y111.049 E10.54433
G1 X109.827 Y110.9 E10.5573
G1 X110.022 Y110.727 E10.5703
G1 X110.194 Y110.528 E10.58343
G1 X110.339 Y110.311 E10.59645
G1 X110.456 Y110.078 E10.60946
G1 X110.545 Y109.831 E10.62255
G1 X110.601 Y109.575 E10.63563
G1 X110.625 Y109.315 E10.64865
G1 X110.616 Y109.055 E10.66163
G1 X110.576 Y108.796 E10.67471
G1 X110.503 Y108.546 E10.6877
G1 X110.404 Y108.314 E10.70029
G1 X110.332 Y108.182 E10.70779
G1 X110.192 Y107.974 E10.7203
G1 X110.022 Y107.778 E10.73324
G1 X109.827 Y107.603 E10.74631
G1 X109.612 Y107.453 E10.75939
G1 X109.38 Y107.333 E10.77242
G1 X109.137 Y107.242 E10.78537
G1 X108.881 Y107.181 E10.7985
G1 X108.622 Y107.153 E10.81149
G1 X108.359 Y107.156 E10.82462
