;FLAVOR:Marlin
;TIME:4760
;Filament used: 1.72039m
;Layer height: 0.1
;Generated with Cura_SteamEngine master
M190 S50
M104 S207
M109 S207
G21 ;metric values
G90 ;absolute positioning
M82 ;set extruder to absolute mode
M107 ;start with the fan off
G28 X0 Y0 ;move X/Y to min endstops
G28 Z0 ;move Z to min endstops
G1 Z15.0 F9000 ;move the platform down 15mm
G92 E0 ;zero the extruded length
G1 F200 E3 ;extrude 3mm of feed stock
G92 E0 ;zero the extruded length again
G1 F9000
;Put printing message on LCD screen
M117 Printing...
;LAYER_COUNT:158
;LAYER:0
M107
G0 F2700 X87.262 Y87.888 Z0.3
;TYPE:SKIRT
G1 F1350 X87.648 Y87.516 E0.02675
G1 X88.018 Y87.247 E0.04957
G1 X88.756 Y86.779 E0.09317
G1 X89.229 Y86.526 E0.11993
G1 X89.706 Y86.354 E0.14522
G1 X90.482 Y86.135 E0.18545
G1 X91.008 Y86.029 E0.21222
G1 X91.448 Y86 E0.23422
G1 X110.347 Y85.938 E1.1771
G1 X110.676 Y85.952 E1.19353
G1 X112.238 Y86.09 E1.27176
G1 X112.767 Y86.177 E1.29851
G1 X113.492 Y86.437 E1.33693
G1 X114.263 Y86.811 E1.37969
G1 X114.727 Y87.08 E1.40644
G1 X115.091 Y87.366 E1.42954
G1 X117.45 Y89.474 E1.58737
G1 X121.654 Y93.023 E1.86186
G1 X126.024 Y96.307 E2.13458
G1 X130.553 Y99.327 E2.40616
G1 X136.479 Y102.824 E2.74944
G1 X136.867 Y103.088 E2.77286
G1 X139.071 Y104.812 E2.91246
G1 X139.429 Y105.133 E2.93645
G1 X140.905 Y106.645 E3.04187
G1 X141.085 Y106.844 E3.05525
G1 X141.942 Y107.864 E3.12172
G1 X142.109 Y108.078 E3.13526
G1 X143.354 Y109.809 E3.24164
G1 X143.61 Y110.221 E3.26584
G1 X144.915 Y112.675 E3.4045
G1 X145.112 Y113.115 E3.42855
G1 X145.832 Y115.06 E3.53203
G1 X145.866 Y115.155 E3.53706
G1 X146.116 Y115.893 E3.57593
G1 X146.228 Y116.302 E3.59709
G1 X146.786 Y118.937 E3.73147
G1 X146.855 Y119.425 E3.75605
G1 X147.057 Y122.241 E3.89691
G1 X147.057 Y122.751 E3.92235
G1 X146.862 Y125.529 E4.06129
G1 X146.792 Y126.029 E4.08647
G1 X146.2 Y128.801 E4.22789
G1 X146.059 Y129.288 E4.25318
G1 X145.099 Y131.907 E4.39235
G1 X144.892 Y132.368 E4.41756
G1 X143.559 Y134.856 E4.55838
G1 X143.297 Y135.274 E4.58299
G1 X141.701 Y137.467 E4.71831
G1 X141.38 Y137.85 E4.74324
G1 X139.462 Y139.836 E4.88098
G1 X139.089 Y140.171 E4.906
G1 X136.844 Y141.926 E5.04816
G1 X136.425 Y142.209 E5.07339
G1 X134.035 Y143.587 E5.21102
G1 X133.601 Y143.799 E5.23512
G1 X131.667 Y144.591 E5.33939
G1 X131.418 Y144.683 E5.35263
G1 X130.116 Y145.107 E5.42094
G1 X129.848 Y145.183 E5.43484
G1 X127.742 Y145.693 E5.54295
G1 X127.268 Y145.775 E5.56695
G1 X124.529 Y146.06 E5.70433
G1 X124.026 Y146.077 E5.72944
G1 X121.253 Y145.977 E5.86788
G1 X120.76 Y145.925 E5.89261
G1 X118.03 Y145.445 E6.0309
G1 X117.559 Y145.329 E6.0551
G1 X115.528 Y144.681 E6.16146
G1 X115.28 Y144.591 E6.17462
G1 X114.073 Y144.106 E6.23952
G1 X113.815 Y143.991 E6.25361
G1 X111.836 Y143.009 E6.36383
G1 X111.417 Y142.765 E6.38802
G1 X109.124 Y141.212 E6.52619
G1 X108.731 Y140.903 E6.55113
G1 X106.678 Y139.05 E6.68911
G1 X106.361 Y138.726 E6.71172
G1 X101.447 Y133.015 E7.0876
G1 X97.649 Y129.09 E7.36009
G1 X93.643 Y125.393 E7.63205
G1 X89.411 Y121.909 E7.90553
G1 X87.044 Y120.119 E8.05358
G1 X86.571 Y119.691 E8.08541
G1 X85.855 Y118.916 E8.13805
G1 X85.398 Y118.301 E8.17627
G1 X84.867 Y117.4 E8.22845
G1 X84.556 Y116.721 E8.26571
G1 X84.221 Y115.726 E8.31809
G1 X84.056 Y114.982 E8.35611
G1 X83.939 Y113.948 E8.40802
G1 X83.918 Y113.412 E8.43479
G1 X83.944 Y113.095 E8.45065
G1 X84.993 Y104.734 E8.87106
G1 X85.345 Y99.278 E9.14382
G1 X85.404 Y96.597 E9.27761
G1 X85.367 Y92.439 E9.48506
G1 X85.412 Y91.842 E9.51493
G1 X85.539 Y91.043 E9.55529
G1 X85.662 Y90.521 E9.58205
G1 X85.848 Y90.051 E9.60727
G1 X86.229 Y89.257 E9.65121
G1 X86.497 Y88.792 E9.67798
G1 X86.791 Y88.415 E9.70183
G1 X87.262 Y87.888 E9.7371
G0 F2700 X87.56 Y88.155
G1 F1350 X87.926 Y87.805 E9.76236
G1 X88.232 Y87.585 E9.78116
G1 X88.97 Y87.117 E9.82476
G1 X89.417 Y86.88 E9.85
G1 X89.815 Y86.739 E9.87107
G1 X90.591 Y86.52 E9.9113
G1 X91.087 Y86.422 E9.93652
G1 X91.45 Y86.4 E9.95466
G1 X110.349 Y86.338 E10.89754
G1 X110.641 Y86.35 E10.91212
G1 X112.203 Y86.488 E10.99036
G1 X112.701 Y86.573 E11.01556
G1 X113.318 Y86.797 E11.04831
G1 X114.089 Y87.171 E11.09106
G1 X114.525 Y87.427 E11.11628
G1 X114.824 Y87.664 E11.13532
G1 X117.191 Y89.779 E11.29368
G1 X121.401 Y93.333 E11.56856
G1 X125.795 Y96.636 E11.8428
G1 X130.336 Y99.663 E12.11507
G1 X136.275 Y103.168 E12.45912
G1 X136.621 Y103.404 E12.48002
G1 X138.825 Y105.128 E12.61962
G1 X139.143 Y105.413 E12.64093
G1 X140.619 Y106.925 E12.74634
G1 X140.779 Y107.102 E12.75825
G1 X141.636 Y108.122 E12.82471
G1 X141.784 Y108.312 E12.83673
G1 X143.029 Y110.043 E12.9431
G1 X143.256 Y110.409 E12.96459
G1 X144.561 Y112.863 E13.10326
G1 X144.737 Y113.254 E13.12465
G1 X145.457 Y115.199 E13.22812
G1 X145.487 Y115.283 E13.23257
G1 X145.737 Y116.021 E13.27144
G1 X145.837 Y116.385 E13.29028
G1 X146.395 Y119.02 E13.42465
G1 X146.456 Y119.454 E13.44652
G1 X146.658 Y122.27 E13.58737
G1 X146.658 Y122.723 E13.60997
G1 X146.463 Y125.501 E13.74891
G1 X146.4 Y125.945 E13.77128
G1 X145.808 Y128.717 E13.91269
G1 X145.684 Y129.15 E13.93517
G1 X144.724 Y131.769 E14.07433
G1 X144.54 Y132.179 E14.09675
G1 X143.207 Y134.667 E14.23757
G1 X142.973 Y135.039 E14.25949
G1 X141.377 Y137.232 E14.39481
G1 X141.092 Y137.572 E14.41694
G1 X139.174 Y139.558 E14.55469
G1 X138.843 Y139.856 E14.57691
G1 X136.598 Y141.611 E14.71908
G1 X136.225 Y141.862 E14.74151
G1 X133.835 Y143.24 E14.87914
G1 X133.45 Y143.429 E14.90054
G1 X131.516 Y144.221 E15.00481
G1 X131.294 Y144.303 E15.01661
G1 X129.992 Y144.727 E15.08493
G1 X129.754 Y144.794 E15.09726
G1 X127.648 Y145.304 E15.20537
G1 X127.226 Y145.377 E15.22673
G1 X124.487 Y145.662 E15.36412
G1 X124.041 Y145.677 E15.38638
G1 X121.268 Y145.577 E15.52482
G1 X120.829 Y145.531 E15.54684
G1 X118.099 Y145.051 E15.68513
G1 X117.68 Y144.948 E15.70666
G1 X115.649 Y144.3 E15.81302
G1 X115.429 Y144.22 E15.8247
G1 X114.222 Y143.735 E15.88959
G1 X113.993 Y143.632 E15.90212
G1 X112.014 Y142.65 E16.01234
G1 X111.642 Y142.434 E16.0338
G1 X109.349 Y140.881 E16.17197
G1 X108.999 Y140.606 E16.19417
G1 X106.946 Y138.753 E16.33215
G1 X106.664 Y138.465 E16.35226
G1 X101.731 Y132.731 E16.72963
G1 X97.943 Y128.817 E17.00137
G1 X93.904 Y125.09 E17.27556
G1 X89.663 Y121.598 E17.54964
G1 X87.285 Y119.8 E17.69837
G1 X86.865 Y119.42 E17.72663
G1 X86.149 Y118.645 E17.77927
G1 X85.742 Y118.098 E17.81328
G1 X85.211 Y117.197 E17.86546
G1 X84.935 Y116.593 E17.89859
G1 X84.6 Y115.598 E17.95097
G1 X84.453 Y114.937 E17.98475
G1 X84.336 Y113.903 E18.03667
G1 X84.319 Y113.398 E18.06188
G1 X84.341 Y113.145 E18.07455
G1 X85.39 Y104.778 E18.49525
G1 X85.744 Y99.302 E18.76902
G1 X85.804 Y96.603 E18.9037
G1 X85.767 Y92.435 E19.11165
G1 X85.807 Y91.905 E19.13817
G1 X85.934 Y91.106 E19.17853
G1 X86.052 Y90.614 E19.20378
G1 X86.209 Y90.224 E19.22475
G1 X86.59 Y89.43 E19.26869
G1 X86.844 Y88.993 E19.2939
G1 X87.089 Y88.682 E19.31366
G1 X87.56 Y88.155 E19.34892
G1 F1500 E12.84892
G0 F2700 X89.381 Y89.903
G0 X90.34 Y90.756
G0 X90.638 Y90.688
G0 X90.586 Y90.603
;TYPE:WALL-INNER
G1 F1500 E19.34892
G1 F1350 X90.955 Y90.348 E19.3713
G1 X91.274 Y90.227 E19.38832
G1 X91.944 Y90.138 E19.42204
G1 X102.638 Y90.138 E19.95556
G1 X103.099 Y90.138 E19.97856
G1 X103.693 Y90.138 E20.0082
G1 X104.154 Y90.138 E20.0312
G1 X107.138 Y90.138 E20.18007
G1 X107.599 Y90.138 E20.20307
G1 X108.193 Y90.138 E20.2327
G1 X108.654 Y90.138 E20.2557
G1 X111.015 Y90.138 E20.37349
G1 X111.608 Y90.236 E20.40348
G1 X111.8 Y90.258 E20.41312
G1 X111.931 Y90.31 E20.42015
G1 X112.273 Y90.484 E20.4393
G1 X112.613 Y90.717 E20.45986
G1 X112.656 Y90.756 E20.46276
G1 X113.091 Y91.293 E20.49724
G1 X113.165 Y91.436 E20.50527
G1 X113.309 Y91.798 E20.52471
G1 X113.404 Y92.187 E20.54468
G1 X113.413 Y92.271 E20.5489
G1 X113.412 Y92.657 E20.56816
G1 X113.315 Y93.122 E20.59185
G1 X113.25 Y93.387 E20.60547
G1 X113.122 Y93.633 E20.6193
G1 X112.908 Y93.965 E20.63901
G1 X112.711 Y94.19 E20.65393
G1 X112.329 Y94.475 E20.67771
G1 X112.176 Y94.579 E20.68694
G1 X111.645 Y94.786 E20.71537
G1 X111.031 Y94.863 E20.74624
G1 X109.783 Y94.863 E20.8085
G1 X109.742 Y94.863 E20.81055
G1 X109.339 Y94.863 E20.83066
G1 X109.742 Y94.507 E20.84527
G1 X109.765 Y94.474 E20.84718
G1 X110.078 Y94.018 E20.87477
G1 X110.289 Y93.462 E20.90444
G1 X110.36 Y92.872 E20.93409
G1 X110.289 Y92.283 E20.96369
G1 X110.078 Y91.727 E20.99335
G1 X109.742 Y91.238 E21.02295
G1 X109.296 Y90.844 E21.05264
G1 X108.77 Y90.568 E21.08228
G1 X108.64 Y90.536 E21.08896
G1 X108.193 Y90.426 E21.10873
G1 X107.599 Y90.426 E21.13007
G1 X107.152 Y90.536 E21.14984
G1 X107.022 Y90.568 E21.15652
G1 X106.497 Y90.844 E21.18611
G1 X106.052 Y91.238 E21.21576
G1 X105.822 Y91.57 E21.23591
G1 X105.714 Y91.727 E21.24542
G1 X105.697 Y91.771 E21.24777
G1 X105.646 Y91.906 E21.25497
G1 X105.596 Y91.772
G1 X105.578 Y91.727
G1 X105.47 Y91.57 E21.26448
G1 X105.242 Y91.238 E21.28457
G1 X104.796 Y90.844 E21.31426
G1 X104.27 Y90.568 E21.3439
G1 X104.14 Y90.536 E21.35058
G1 X103.693 Y90.426 E21.37035
G1 X103.099 Y90.426 E21.39169
G1 X102.652 Y90.536 E21.41146
G1 X102.522 Y90.568 E21.41814
G1 X101.997 Y90.844 E21.44773
G1 X101.552 Y91.238 E21.47738
G1 X101.214 Y91.727 E21.50704
G1 X101.003 Y92.283 E21.53671
G1 X100.932 Y92.872 E21.56631
G1 X101.003 Y93.462 E21.59595
G1 X101.214 Y94.018 E21.62562
G1 X101.529 Y94.474 E21.65327
G1 X101.552 Y94.507 E21.65528
G1 X101.954 Y94.863 E21.68207
G1 X101.552 Y94.863 E21.68996
G1 X101.511 Y94.863 E21.6919
G1 X91.932 Y94.863 E22.1698
G1 X91.322 Y94.786 E22.20048
G1 X90.785 Y94.578 E22.22921
G1 X90.367 Y94.294 E22.25442
G1 X90.195 Y94.111 E22.26695
G1 X89.963 Y93.846 E22.28452
G1 X89.684 Y93.309 E22.31471
G1 X89.651 Y93.14 E22.3233
G1 X89.555 Y92.746 E22.34353
G1 X89.564 Y92.47 E22.35731
G1 X89.565 Y92.16 E22.37278
G1 X89.647 Y91.827 E22.38989
G1 X89.854 Y91.433 E22.41209
G1 X89.964 Y91.149 E22.42729
G1 X90.328 Y90.741 E22.45456
G1 X90.586 Y90.603 E22.46916
G1 F1500 E15.96916
G0 F2700 X90.638 Y90.688
G0 X101.197 Y94.027
G0 X102.341 Y93.427
G0 X104.074 Y93.853
G0 X104.857 Y94.856
G0 X105.316 Y94.573
G0 X105.242 Y94.507
G1 F1500 E22.46916
G1 F1350 X105.578 Y94.018 E22.49876
G1 X105.595 Y93.974 E22.50112
G1 X105.646 Y93.839 E22.50832
G1 X105.696 Y93.973
G1 X105.714 Y94.018
G1 X106.052 Y94.507 E22.53797
G1 X106.454 Y94.863 E22.56476
G1 X106.052 Y94.863 E22.57265
G1 X105.242 Y94.863 E22.61306
G1 X104.839 Y94.863 E22.63317
G1 X105.242 Y94.507 E22.64778
G0 F2700 X104.94 Y94.24
;TYPE:WALL-OUTER
G1 F1350 X105.221 Y93.831 E22.67254
G1 X105.398 Y93.366 E22.69736
G1 X105.447 Y92.963 E22.71761
G1 X105.457 Y92.872 E22.72218
G1 X105.447 Y92.782 E22.7267
G1 X105.398 Y92.379 E22.74695
G1 X105.221 Y91.914 E22.77177
G1 X104.94 Y91.505 E22.79653
G1 X104.567 Y91.176 E22.82134
G1 X104.127 Y90.945 E22.84614
G1 X103.644 Y90.826 E22.87096
G1 X103.148 Y90.826 E22.8957
G1 X102.665 Y90.945 E22.92052
G1 X102.226 Y91.176 E22.94527
G1 X101.853 Y91.505 E22.97008
G1 X101.571 Y91.914 E22.99487
G1 X101.394 Y92.379 E23.01969
G1 X101.335 Y92.872 E23.04446
G1 X101.394 Y93.366 E23.06928
G1 X101.571 Y93.831 E23.0941
G1 X101.853 Y94.24 E23.11889
G1 X102.226 Y94.569 E23.1437
G1 X102.665 Y94.8 E23.16845
G1 X102.925 Y94.864 E23.18181
G1 X103.148 Y94.919 E23.19327
G1 X103.644 Y94.919 E23.21801
G1 X103.867 Y94.864 E23.22947
G1 X104.127 Y94.8 E23.24283
G1 X104.567 Y94.569 E23.26763
G1 X104.94 Y94.24 E23.29244
G0 F2700 X105.053 Y94.076
G0 X105.464 Y94.359
G0 X105.659 Y94.114
G0 X106.071 Y93.831
G1 F1350 X106.353 Y94.24 E23.31722
G1 X106.726 Y94.569 E23.34204
G1 X107.165 Y94.8 E23.36679
G1 X107.425 Y94.864 E23.38014
G1 X107.648 Y94.919 E23.3916
G1 X108.144 Y94.919 E23.41635
G1 X108.367 Y94.864 E23.42781
G1 X108.627 Y94.8 E23.44117
G1 X109.067 Y94.569 E23.46596
G1 X109.44 Y94.24 E23.49077
G1 X109.721 Y93.831 E23.51553
G1 X109.898 Y93.366 E23.54035
G1 X109.957 Y92.872 E23.56517
G1 X109.898 Y92.379 E23.58995
G1 X109.721 Y91.914 E23.61477
G1 X109.44 Y91.505 E23.63953
G1 X109.067 Y91.176 E23.66434
G1 X108.627 Y90.945 E23.68913
G1 X108.144 Y90.826 E23.71395
G1 X107.648 Y90.826 E23.73869
G1 X107.165 Y90.945 E23.76351
G1 X106.726 Y91.176 E23.78826
G1 X106.353 Y91.505 E23.81307
G1 X106.071 Y91.914 E23.83786
G1 X105.894 Y92.379 E23.86268
G1 X105.845 Y92.782 E23.88294
G1 X105.835 Y92.872 E23.88733
G1 X105.845 Y92.963 E23.89177
G1 X105.894 Y93.366 E23.91203
G1 X106.071 Y93.831 E23.93685
G0 F2700 X106.184 Y93.995
G0 X105.773 Y94.278
G0 X106.361 Y94.828
G0 X107.418 Y95.263
G1 F1350 X103.874 Y95.263 E24.11366
G1 X103.644 Y95.263 E24.12434
G1 X103.148 Y95.263 E24.14562
G1 X102.918 Y95.263 E24.1563
G1 X91.906 Y95.263 E24.70569
G1 X91.225 Y95.177 E24.73993
G1 X90.596 Y94.934 E24.77357
G1 X90.108 Y94.602 E24.80302
G1 X89.894 Y94.375 E24.81859
G1 X89.631 Y94.075 E24.83849
G1 X89.302 Y93.44 E24.87417
G1 X89.26 Y93.226 E24.88505
G1 X89.153 Y92.788 E24.90754
G1 X89.164 Y92.463 E24.92377
G1 X89.165 Y92.111 E24.94133
G1 X89.269 Y91.686 E24.96316
G1 X89.489 Y91.267 E24.98677
G1 X89.61 Y90.955 E25.00346
G1 X89.631 Y90.921 E25.00546
G1 X90.058 Y90.442 E25.03747
G1 X90.089 Y90.415 E25.03952
G1 X90.378 Y90.261 E25.05586
G1 X90.769 Y89.991 E25.07957
G1 X91.177 Y89.836 E25.10134
G1 X91.914 Y89.738 E25.13843
G1 X111.051 Y89.738 E26.09318
G1 X111.664 Y89.84 E26.12419
G1 X111.897 Y89.867 E26.13589
G1 X112.093 Y89.944 E26.14639
G1 X112.482 Y90.142 E26.16817
G1 X112.862 Y90.403 E26.19117
G1 X112.95 Y90.484 E26.19714
G1 X113.428 Y91.073 E26.23498
G1 X113.53 Y91.271 E26.24609
G1 X113.691 Y91.676 E26.26784
G1 X113.799 Y92.117 E26.29049
G1 X113.813 Y92.247 E26.29701
G1 X113.812 Y92.701 E26.31966
G1 X113.707 Y93.204 E26.3453
G1 X113.626 Y93.532 E26.36215
G1 X113.47 Y93.831 E26.37898
G1 X113.229 Y94.205 E26.40118
G1 X112.985 Y94.484 E26.41967
G1 X112.554 Y94.806 E26.44651
G1 X112.364 Y94.935 E26.45797
G1 X111.744 Y95.177 E26.49117
G1 X111.057 Y95.263 E26.52571
G1 X108.374 Y95.263 E26.65957
G1 X108.144 Y95.263 E26.67025
G1 X107.648 Y95.263 E26.69153
G1 X107.418 Y95.263 E26.70221
G0 F2700 X107.218 Y95.263
G1 F1500 E20.20221
G0 F2700 X106.361 Y94.828
G0 X106.436 Y94.856
G0 X107.219 Y93.853
G0 X108.574 Y93.853
G0 X109.357 Y94.856
G0 X109.886 Y94.613
G0 X109.921 Y94.648
G1 F1500 E26.70221
G1 F1350 X110.319 Y94.48 E26.71896
G0 F2700 X111.08 Y94.675
;TYPE:SKIN
G1 F1350 X110.311 Y93.906 E26.77322
G1 X110.241 Y93.836
G0 F2700 X110.465 Y93.495
G1 F1350 X111.582 Y94.612 E26.85203
G1 X111.652 Y94.682
G0 F2700 X111.992 Y94.456
G1 F1350 X110.525 Y92.989 E26.95554
G1 X110.455 Y92.919
G0 F2700 X110.481 Y92.379
G1 F1350 X112.341 Y94.239 E27.08677
G1 X112.411 Y94.309
G0 F2700 X112.652 Y93.984
G1 F1350 X110.076 Y91.409 E27.26848
G1 X110.006 Y91.339
G0 F2700 X109.322 Y90.654
G1 F1350 X108.985 Y90.318 E27.29223
G0 F2700 X109.551 Y90.318
G1 F1350 X112.891 Y93.657 E27.52785
G1 X112.961 Y93.727
G0 F2700 X113.088 Y93.289
G1 F1350 X110.117 Y90.318 E27.73747
G1 X110.047 Y90.248
G0 F2700 X110.682 Y90.318
G1 F1350 X113.192 Y92.827 E27.91453
G1 X113.262 Y92.897
G0 F2700 X113.232 Y92.302
G1 F1350 X111.297 Y90.367 E28.05105
G1 X111.227 Y90.297
G0 F2700 X112.089 Y90.593
G1 F1350 X112.992 Y91.496 E28.11476
G1 X113.062 Y91.566
G0 F2700 X108.197 Y90.387
G0 X106.856 Y90.451
G0 X106.789 Y90.384
G1 F1350 X106.321 Y90.482 E28.13098
G1 X105.879 Y90.605 E28.1628
G1 X106.237 Y90.963
G0 F2700 X105.878 Y91.17
G1 F1350 X105.025 Y90.318 E28.22295
G1 X104.955 Y90.248
G0 F2700 X104.768 Y90.626
G1 F1350 X104.46 Y90.318 E28.24468
G0 F2700 X102.339 Y90.46
G0 X102.268 Y90.389
G1 F1350 X101.799 Y90.486 E28.26158
G1 X101.359 Y90.611 E28.2941
G1 X101.723 Y90.975
G0 F2700 X101.367 Y91.185
G1 F1350 X100.5 Y90.318 E28.35527
G1 X100.43 Y90.248
G0 F2700 X99.934 Y90.318
G1 F1350 X101.136 Y91.52 E28.44008
G1 X101.206 Y91.59
G0 F2700 X100.954 Y91.903
G1 F1350 X99.369 Y90.318 E28.55191
G1 X99.299 Y90.248
G0 F2700 X98.803 Y90.318
G1 F1350 X100.815 Y92.329 E28.69383
G1 X100.885 Y92.399
G0 F2700 X100.754 Y92.835
G1 F1350 X98.237 Y90.318 E28.87142
G1 X98.167 Y90.248
G0 F2700 X97.671 Y90.318
G1 F1350 X100.821 Y93.467 E29.09364
G1 X100.891 Y93.537
G0 F2700 X100.904 Y94.682
G1 F1350 X96.54 Y90.318 E29.40154
G1 X96.47 Y90.248
G0 F2700 X97.106 Y90.318
G1 F1350 X101.41 Y94.622 E29.70521
G1 X101.48 Y94.692
