;FLAVOR:Marlin
;TIME:4299
;Filament used: 1.31914m
;Layer height: 0.12
;MINX:93.363
;MINY:7.386
;MINZ:0.12
;MAXX:139.541
;MAXY:66.729
;MAXZ:11.04
;Generated with Cura_SteamEngine 4.12.1
M140 S60
M105
M190 S60
M104 S200
M105
M109 S200
M82 ;absolute extrusion mode
; Ender 3 Custom Start G-code
G92 E0 ; Reset Extruder
G28 ; Home all axes
G1 Z2.0 F3000 ; Move Z Axis up little to prevent scratching of Heat Bed
G1 X0.1 Y20 Z0.3 F5000.0 ; Move to start position
G1 X0.1 Y200.0 Z0.3 F1500.0 E15 ; Draw the first line
G1 X0.4 Y200.0 Z0.3 F5000.0 ; Move to side a little
G1 X0.4 Y20 Z0.3 F1500.0 E30 ; Draw the second line
G92 E0 ; Reset Extruder
G1 Z2.0 F3000 ; Move Z Axis up little to prevent scratching of Heat Bed
G1 X5 Y20 Z0.3 F5000.0 ; Move over to prevent blob squish
G92 E0
G92 E0
G1 F1500 E-6.2
;LAYER_COUNT:92
;LAYER:0
M107
G0 F6000 X93.76 Y23.198 Z0.12
;TYPE:SKIRT
G1 F1500 E0
G1 F1200 X93.941 Y22.608 E0.01232
G1 X94.401 Y21.247 E0.04099
G1 X95.199 Y18.752 E0.09326
G1 X95.896 Y16.346 E0.14325
G1 X96.052 Y15.78 E0.15497
G1 X96.339 Y14.887 E0.17368
G1 X96.701 Y14.022 E0.1924
G1 X97.136 Y13.191 E0.21111
G1 X97.64 Y12.4 E0.22983
G1 X98.209 Y11.654 E0.24856
G1 X98.84 Y10.96 E0.26727
G1 X99.527 Y10.322 E0.28598
G1 X100.267 Y9.745 E0.30471
G1 X101.053 Y9.233 E0.32343
G1 X101.879 Y8.79 E0.34213
G1 X102.741 Y8.419 E0.36086
G1 X103.63 Y8.123 E0.37956
G1 X104.542 Y7.903 E0.39828
G1 X105.469 Y7.762 E0.41699
G1 X106.317 Y7.703 E0.43396
G1 X106.639 Y7.693 E0.44039
G1 X106.98 Y7.688 E0.44719
G1 X108.298 Y7.689 E0.4735
G1 X109.006 Y7.699 E0.48763
G1 X109.632 Y7.726 E0.50013
G1 X110.309 Y7.774 E0.51367
G1 X112.916 Y7.923 E0.56578
G1 X115.401 Y7.994 E0.6154
G1 X117.925 Y7.994 E0.66576
G1 X120.45 Y7.923 E0.71617
G1 X122.969 Y7.782 E0.76652
G1 X125.507 Y7.566 E0.81735
G1 X126.439 Y7.466 E0.83606
G1 X126.789 Y7.433 E0.84307
G1 X127.726 Y7.386 E0.8618
G1 X128.663 Y7.42 E0.88051
G1 X129.594 Y7.533 E0.89922
G1 X130.512 Y7.725 E0.91794
G1 X131.41 Y7.995 E0.93665
G1 X132.282 Y8.34 E0.95537
G1 X133.122 Y8.758 E0.97409
G1 X133.922 Y9.247 E0.9928
G1 X134.679 Y9.801 E1.01152
G1 X135.385 Y10.418 E1.03023
G1 X136.036 Y11.093 E1.04895
G1 X136.627 Y11.821 E1.06766
G1 X137.155 Y12.597 E1.08639
G1 X137.614 Y13.415 E1.10511
G1 X138.001 Y14.269 E1.12382
G1 X138.315 Y15.153 E1.14254
G1 X138.552 Y16.06 E1.16125
G1 X138.711 Y16.984 E1.17996
G1 X138.799 Y18.197 E1.20423
G1 X138.815 Y19.199 E1.22423
G1 X138.815 Y23.686 E1.31377
G1 X138.82 Y24.769 E1.33538
G1 X138.815 Y24.899 E1.33798
G1 X138.815 Y27.91 E1.39807
G1 X138.852 Y30.519 E1.45014
G1 X138.959 Y33.041 E1.50051
G1 X139.135 Y35.522 E1.55015
G1 X139.348 Y37.726 E1.59434
G1 X139.398 Y38.178 E1.60341
G1 X139.432 Y38.538 E1.61063
G1 X139.498 Y39.4 E1.62788
G1 X139.519 Y39.754 E1.63496
G1 X139.539 Y40.206 E1.64399
G1 X139.541 Y41.144 E1.6627
G1 X139.415 Y42.409 E1.68807
G1 X139.296 Y43.162 E1.70329
G1 X139.226 Y43.559 E1.71133
G1 X139.15 Y43.947 E1.71922
G1 X138.931 Y44.859 E1.73794
G1 X138.518 Y46.042 E1.76295
G1 X138.214 Y46.776 E1.7788
G1 X138.073 Y47.101 E1.78587
G1 X137.902 Y47.479 E1.79415
G1 X137.469 Y48.335 E1.81329
G1 X136.88 Y49.383 E1.83728
G1 X136.824 Y49.498 E1.83984
G1 X135.933 Y51.105 E1.8765
G1 X134.781 Y53.328 E1.92647
G1 X133.682 Y55.608 E1.97698
G1 X132.642 Y57.93 E2.02775
G1 X132.02 Y59.419 E2.05996
G1 X131.857 Y59.795 E2.06813
G1 X131.448 Y60.639 E2.08685
G1 X130.968 Y61.445 E2.10557
G1 X130.422 Y62.207 E2.12428
G1 X129.812 Y62.92 E2.143
G1 X129.144 Y63.578 E2.16172
G1 X128.422 Y64.177 E2.18044
G1 X127.652 Y64.712 E2.19915
G1 X126.839 Y65.18 E2.21787
G1 X125.989 Y65.577 E2.23659
G1 X125.109 Y65.899 E2.25529
G1 X124.204 Y66.146 E2.27401
G1 X123.281 Y66.315 E2.29274
G1 X122.092 Y66.415 E2.31655
G1 X120.599 Y66.459 E2.34636
G1 X119.563 Y66.482 E2.36704
G1 X117.025 Y66.611 E2.41775
G1 X116.109 Y66.68 E2.43608
G1 X115.542 Y66.714 E2.44742
G1 X114.604 Y66.729 E2.46614
G1 X113.669 Y66.664 E2.48484
G1 X112.742 Y66.519 E2.50357
G1 X111.831 Y66.295 E2.52229
G1 X110.943 Y65.995 E2.54099
G1 X110.083 Y65.621 E2.55971
G1 X109.258 Y65.174 E2.57843
G1 X108.474 Y64.659 E2.59715
G1 X107.511 Y63.879 E2.62188
G1 X106.747 Y63.184 E2.64249
G1 X100.836 Y57.647 E2.80412
G1 X100.286 Y57.119 E2.81934
G1 X99.638 Y56.442 E2.83804
G1 X99.05 Y55.711 E2.85676
G1 X98.526 Y54.933 E2.87548
G1 X98.07 Y54.113 E2.8942
G1 X97.686 Y53.258 E2.91291
G1 X97.376 Y52.372 E2.93164
G1 X97.143 Y51.464 E2.95035
G1 X96.955 Y50.246 E2.97494
G1 X96.893 Y49.594 E2.98801
G1 X96.755 Y47.923 E3.02147
G1 X96.478 Y45.429 E3.07155
G1 X96.127 Y42.918 E3.12215
G1 X95.713 Y40.465 E3.17179
G1 X95.098 Y37.407 E3.23404
G1 X95.065 Y37.256 E3.23712
G1 X94.952 Y36.66 E3.24923
G1 X94.734 Y35.305 E3.27662
G1 X94.709 Y35.174 E3.27928
G1 X94.447 Y33.467 E3.31374
G1 X93.627 Y28.736 E3.40956
G1 X93.497 Y27.917 E3.42611
G1 X93.39 Y26.986 E3.44481
G1 X93.363 Y26.049 E3.46352
G1 X93.364 Y25.976 E3.46498
G1 X93.417 Y25.04 E3.48368
G1 X93.549 Y24.111 E3.50241
G1 X93.76 Y23.198 E3.52111
G0 F6000 X94.159 Y23.255
G1 F1200 X94.32 Y22.736 E3.53195
G1 X94.799 Y21.315 E3.56188
G1 X95.577 Y18.884 E3.61282
G1 X96.287 Y16.434 E3.66372
G1 X96.438 Y15.886 E3.67506
G1 X96.72 Y15.01 E3.69343
G1 X97.078 Y14.161 E3.71182
G1 X97.508 Y13.347 E3.73019
G1 X98.007 Y12.573 E3.74857
G1 X98.571 Y11.846 E3.76693
G1 X99.196 Y11.17 E3.7853
G1 X99.877 Y10.551 E3.80367
G1 X100.61 Y9.993 E3.82205
G1 X101.388 Y9.501 E3.84042
G1 X102.206 Y9.078 E3.8588
G1 X103.057 Y8.728 E3.87716
G1 X103.936 Y8.453 E3.89554
G1 X104.835 Y8.256 E3.91391
G1 X105.748 Y8.137 E3.93228
G1 X106.329 Y8.103 E3.94389
G1 X106.651 Y8.093 E3.95032
G1 X106.98 Y8.088 E3.95689
G1 X108.293 Y8.089 E3.98309
G1 X109.001 Y8.099 E3.99722
G1 X109.603 Y8.125 E4.00925
G1 X110.256 Y8.171 E4.02231
G1 X112.881 Y8.321 E4.07478
G1 X115.425 Y8.394 E4.12557
G1 X117.936 Y8.394 E4.17568
G1 X120.483 Y8.323 E4.22653
G1 X122.991 Y8.182 E4.27666
G1 X125.535 Y7.966 E4.32761
G1 X126.642 Y7.848 E4.34982
G1 X126.826 Y7.831 E4.35351
G1 X127.745 Y7.786 E4.37187
G1 X128.665 Y7.821 E4.39025
G1 X129.579 Y7.936 E4.40863
G1 X130.479 Y8.13 E4.427
G1 X131.359 Y8.401 E4.44538
G1 X132.212 Y8.747 E4.46375
G1 X133.031 Y9.166 E4.48211
G1 X133.812 Y9.655 E4.50049
G1 X134.547 Y10.209 E4.51886
G1 X135.231 Y10.826 E4.53725
G1 X135.859 Y11.499 E4.55561
G1 X136.426 Y12.224 E4.57398
G1 X136.928 Y12.996 E4.59236
G1 X137.361 Y13.808 E4.61072
G1 X137.723 Y14.655 E4.6291
G1 X138.009 Y15.53 E4.64748
G1 X138.218 Y16.426 E4.66584
G1 X138.349 Y17.338 E4.68422
G1 X138.399 Y18.203 E4.70151
G1 X138.415 Y19.199 E4.72139
G1 X138.415 Y23.686 E4.81094
G1 X138.42 Y24.771 E4.83259
G1 X138.415 Y24.899 E4.83514
G1 X138.415 Y27.916 E4.89535
G1 X138.452 Y30.541 E4.94774
G1 X138.559 Y33.05 E4.99786
G1 X138.736 Y35.552 E5.04791
G1 X138.948 Y37.736 E5.0917
G1 X139.001 Y38.222 E5.10146
G1 X139.033 Y38.569 E5.10841
G1 X139.099 Y39.431 E5.12566
G1 X139.12 Y39.771 E5.13246
G1 X139.14 Y40.223 E5.14149
G1 X139.14 Y41.144 E5.15987
G1 X139.02 Y42.347 E5.184
G1 X138.901 Y43.1 E5.19921
G1 X138.833 Y43.483 E5.20697
G1 X138.757 Y43.871 E5.21486
G1 X138.541 Y44.766 E5.23324
G1 X138.148 Y45.889 E5.25698
G1 X137.844 Y46.623 E5.27283
G1 X137.709 Y46.936 E5.27964
G1 X137.538 Y47.314 E5.28792
G1 X137.12 Y48.139 E5.30637
G1 X136.559 Y49.138 E5.32924
G1 X136.475 Y49.304 E5.33295
G1 X135.571 Y50.934 E5.37015
G1 X134.409 Y53.177 E5.42056
G1 X133.327 Y55.42 E5.47025
G1 X132.279 Y57.761 E5.52144
G1 X131.713 Y59.12 E5.55082
G1 X131.49 Y59.636 E5.56204
G1 X131.088 Y60.464 E5.5804
G1 X130.615 Y61.254 E5.59878
G1 X130.075 Y62 E5.61716
G1 X129.473 Y62.696 E5.63552
G1 X128.813 Y63.338 E5.6539
G1 X128.099 Y63.919 E5.67227
G1 X127.338 Y64.437 E5.69064
G1 X126.534 Y64.886 E5.70901
G1 X125.695 Y65.265 E5.72739
G1 X124.826 Y65.568 E5.74575
G1 X123.934 Y65.796 E5.76412
G1 X123.025 Y65.945 E5.78251
G1 X122.08 Y66.015 E5.80142
G1 X120.59 Y66.059 E5.83116
G1 X119.535 Y66.083 E5.85222
G1 X117.015 Y66.21 E5.90258
G1 X116.079 Y66.281 E5.92131
G1 X115.519 Y66.315 E5.93251
G1 X114.598 Y66.329 E5.95089
G1 X113.68 Y66.262 E5.96926
G1 X112.771 Y66.116 E5.98763
G1 X111.878 Y65.892 E6.006
G1 X111.008 Y65.591 E6.02437
G1 X110.167 Y65.216 E6.04275
G1 X109.362 Y64.77 E6.06111
G1 X108.599 Y64.255 E6.07948
G1 X107.78 Y63.583 E6.10063
G1 X107.02 Y62.892 E6.12112
G1 X101.113 Y57.359 E6.28264
G1 X100.563 Y56.831 E6.29786
G1 X99.927 Y56.165 E6.31623
G1 X99.352 Y55.446 E6.33461
G1 X98.841 Y54.681 E6.35296
G1 X98.398 Y53.873 E6.37135
G1 X98.027 Y53.031 E6.38972
G1 X97.73 Y52.159 E6.4081
G1 X97.51 Y51.265 E6.42647
G1 X97.353 Y50.207 E6.44782
G1 X97.292 Y49.561 E6.46077
G1 X97.153 Y47.882 E6.49439
G1 X96.878 Y45.401 E6.5442
G1 X96.525 Y42.88 E6.595
G1 X96.105 Y40.385 E6.64549
G1 X95.485 Y37.302 E6.70825
G1 X95.456 Y37.171 E6.71093
G1 X95.347 Y36.596 E6.7226
G1 X95.148 Y35.357 E6.74765
G1 X95.104 Y35.114 E6.75258
G1 X94.829 Y33.327 E6.78866
G1 X93.996 Y28.513 E6.88615
G1 X93.892 Y27.855 E6.89945
G1 X93.788 Y26.94 E6.91782
G1 X93.763 Y26.055 E6.93549
G1 X93.764 Y25.982 E6.93695
G1 X93.817 Y25.063 E6.95532
G1 X93.949 Y24.152 E6.97369
G1 X94.159 Y23.255 E6.99207
G0 F6000 X94.559 Y23.314
G1 F1200 X94.699 Y22.864 E7.00148
G1 X95.18 Y21.439 E7.03149
G1 X95.956 Y19.012 E7.08234
G1 X96.686 Y16.494 E7.13466
G1 X96.824 Y15.992 E7.14505
G1 X97.101 Y15.133 E7.16306
G1 X97.454 Y14.301 E7.1811
G1 X97.879 Y13.504 E7.19912
G1 X98.373 Y12.748 E7.21714
G1 X98.932 Y12.039 E7.23516
G1 X99.551 Y11.382 E7.25318
G1 X100.226 Y10.782 E7.2712
G1 X100.952 Y10.244 E7.28923
G1 X101.722 Y9.772 E7.30725
G1 X102.531 Y9.37 E7.32528
G1 X103.372 Y9.042 E7.3433
G1 X104.239 Y8.789 E7.36132
G1 X105.125 Y8.614 E7.37934
G1 X106.341 Y8.503 E7.40371
G1 X106.663 Y8.493 E7.41014
G1 X106.98 Y8.488 E7.41647
G1 X108.287 Y8.489 E7.44255
G1 X108.995 Y8.499 E7.45668
G1 X109.575 Y8.524 E7.46826
G1 X110.274 Y8.574 E7.48225
G1 X112.849 Y8.721 E7.53372
G1 X115.413 Y8.794 E7.58491
G1 X117.947 Y8.794 E7.63548
G1 X120.482 Y8.723 E7.68609
G1 X123.009 Y8.581 E7.73659
G1 X125.615 Y8.36 E7.78879
G1 X126.679 Y8.246 E7.81014
G1 X126.863 Y8.229 E7.81383
G1 X127.765 Y8.186 E7.83185
G1 X128.667 Y8.223 E7.84986
G1 X129.563 Y8.339 E7.86789
G1 X130.444 Y8.534 E7.8859
G1 X131.305 Y8.807 E7.90393
G1 X132.139 Y9.154 E7.92195
G1 X132.939 Y9.574 E7.93998
G1 X133.698 Y10.063 E7.958
G1 X134.411 Y10.617 E7.97602
G1 X135.072 Y11.233 E7.99405
G1 X135.676 Y11.904 E8.01207
G1 X136.219 Y12.626 E8.0301
G1 X136.695 Y13.393 E8.04811
G1 X137.102 Y14.199 E8.06613
G1 X137.436 Y15.038 E8.08415
G1 X137.694 Y15.904 E8.10218
G1 X137.875 Y16.789 E8.12021
G1 X137.977 Y17.686 E8.13823
G1 X137.999 Y18.21 E8.14869
G1 X138.015 Y19.199 E8.16843
G1 X138.015 Y23.686 E8.25798
G1 X138.02 Y24.773 E8.27967
G1 X138.015 Y24.898 E8.28216
G1 X138.015 Y27.922 E8.34251
G1 X138.052 Y30.528 E8.39452
G1 X138.161 Y33.094 E8.44578
G1 X138.34 Y35.618 E8.49627
G1 X138.545 Y37.739 E8.5388
G1 X138.603 Y38.265 E8.54936
G1 X138.634 Y38.599 E8.55605
G1 X138.7 Y39.461 E8.5733
G1 X138.72 Y39.789 E8.57986
G1 X138.74 Y40.241 E8.58889
G1 X138.74 Y41.144 E8.60691
G1 X138.625 Y42.284 E8.62977
G1 X138.506 Y43.037 E8.64499
G1 X138.441 Y43.406 E8.65247
G1 X138.365 Y43.794 E8.66036
G1 X138.152 Y44.671 E8.67837
G1 X137.779 Y45.736 E8.70088
G1 X137.475 Y46.47 E8.71674
G1 X137.344 Y46.771 E8.72329
G1 X137.173 Y47.149 E8.73157
G1 X136.771 Y47.943 E8.74933
G1 X136.252 Y48.865 E8.77044
G1 X136.125 Y49.11 E8.77595
G1 X135.224 Y50.735 E8.81303
G1 X134.052 Y52.998 E8.86389
G1 X132.966 Y55.248 E8.91375
G1 X131.917 Y57.593 E8.96501
G1 X131.344 Y58.967 E8.99472
G1 X131.123 Y59.477 E9.00581
G1 X130.728 Y60.289 E9.02383
G1 X130.262 Y61.063 E9.04186
G1 X129.73 Y61.792 E9.05987
G1 X129.135 Y62.472 E9.0779
G1 X128.482 Y63.096 E9.09593
G1 X127.777 Y63.66 E9.11395
G1 X127.025 Y64.159 E9.13196
G1 X126.231 Y64.59 E9.14998
G1 X125.402 Y64.949 E9.16801
G1 X124.545 Y65.234 E9.18604
G1 X123.666 Y65.441 E9.20406
G1 X122.772 Y65.57 E9.22208
G1 X122.068 Y65.616 E9.23616
G1 X120.581 Y65.659 E9.26585
G1 X119.541 Y65.682 E9.28661
G1 X116.965 Y65.813 E9.33808
G1 X115.874 Y65.894 E9.35991
G1 X115.496 Y65.916 E9.36747
G1 X114.593 Y65.928 E9.38549
G1 X113.692 Y65.861 E9.40352
G1 X112.801 Y65.714 E9.42154
G1 X111.926 Y65.489 E9.43957
G1 X111.075 Y65.187 E9.45759
G1 X110.254 Y64.812 E9.47561
G1 X109.469 Y64.365 E9.49363
G1 X108.727 Y63.85 E9.51166
G1 X108.049 Y63.287 E9.52924
G1 X107.294 Y62.6 E9.54961
G1 X101.39 Y57.07 E9.71105
G1 X100.84 Y56.542 E9.72626
G1 X100.217 Y55.888 E9.74429
G1 X99.654 Y55.182 E9.76231
G1 X99.156 Y54.429 E9.78032
G1 X98.726 Y53.635 E9.79834
G1 X98.369 Y52.805 E9.81637
G1 X98.086 Y51.948 E9.83438
G1 X97.88 Y51.068 E9.85242
G1 X97.752 Y50.168 E9.87056
G1 X97.691 Y49.528 E9.88339
G1 X97.555 Y47.877 E9.91645
G1 X97.272 Y45.333 E9.96753
G1 X96.918 Y42.8 E10.01857
G1 X96.502 Y40.331 E10.06854
G1 X95.875 Y37.212 E10.13203
G1 X95.847 Y37.086 E10.1346
G1 X95.742 Y36.533 E10.14584
G1 X95.522 Y35.161 E10.17356
G1 X95.499 Y35.053 E10.17577
G1 X95.223 Y33.255 E10.21207
G1 X94.391 Y28.45 E10.30939
G1 X94.287 Y27.792 E10.32268
G1 X94.186 Y26.895 E10.34069
G1 X94.163 Y26.06 E10.35736
G1 X94.164 Y25.987 E10.35882
G1 X94.216 Y25.086 E10.37683
G1 X94.348 Y24.192 E10.39486
G1 X94.559 Y23.314 E10.41288
G0 F6000 X110.575 Y33.668
G1 F1200 X110.642 Y33.611 E10.41464
G1 X110.72 Y33.655 E10.41643
G1 X110.696 Y33.75 E10.41838
G1 X110.608 Y33.753 E10.42014
G1 X110.575 Y33.668 E10.42196
G0 F6000 X110.225 Y33.463
G1 F1200 X110.377 Y33.293 E10.42651
G1 X110.592 Y33.211 E10.4311
G1 X110.824 Y33.24 E10.43577
G1 X111.008 Y33.367 E10.44023
G1 X111.117 Y33.575 E10.44492
G1 X111.117 Y33.802 E10.44945
G1 X111.01 Y34.007 E10.45406
G1 X110.816 Y34.138 E10.45873
G1 X110.589 Y34.165 E10.46329
G1 X110.381 Y34.086 E10.46773
G1 X110.222 Y33.905 E10.47254
G1 X110.169 Y33.688 E10.477
G1 X110.225 Y33.463 E10.48163
G0 F6000 X109.793 Y33.474
G1 F1200 X109.868 Y33.276 E10.48585
G1 X109.987 Y33.103 E10.49004
G1 X110.334 Y32.863 E10.49846
G1 X110.547 Y32.811 E10.50284
G1 X110.761 Y32.812 E10.50711
G1 X110.963 Y32.862 E10.51126
G1 X111.155 Y32.963 E10.51559
G1 X111.308 Y33.099 E10.51968
G1 X111.433 Y33.28 E10.52407
G1 X111.508 Y33.478 E10.52829
G1 X111.534 Y33.688 E10.53251
G1 X111.508 Y33.901 E10.5368
G1 X111.431 Y34.101 E10.54107
G1 X111.311 Y34.275 E10.54529
G1 X111.152 Y34.415 E10.54952
G1 X110.96 Y34.515 E10.55384
G1 X110.756 Y34.566 E10.55803
G1 X110.541 Y34.565 E10.56233
G1 X110.335 Y34.514 E10.56656
G1 X110.151 Y34.417 E10.57071
G1 X109.989 Y34.273 E10.57504
G1 X109.869 Y34.099 E10.57925
G1 X109.791 Y33.894 E10.58363
G1 X109.766 Y33.688 E10.58777
G1 X109.793 Y33.474 E10.59208
G0 F6000 X109.401 Y33.379
G1 F1200 X109.513 Y33.087 E10.59832
G1 X109.688 Y32.834 E10.60446
G1 X109.919 Y32.63 E10.61061
G1 X110.197 Y32.485 E10.61686
G1 X110.496 Y32.411 E10.62301
G1 X110.81 Y32.412 E10.62928
G1 X111.108 Y32.486 E10.63541
G1 X111.383 Y32.631 E10.64161
G1 X111.613 Y32.835 E10.64774
G1 X111.79 Y33.091 E10.65396
G1 X111.899 Y33.381 E10.66014
G1 X111.936 Y33.689 E10.66633
G1 X111.899 Y33.998 E10.67254
G1 X111.787 Y34.288 E10.67874
G1 X111.611 Y34.544 E10.68494
G1 X111.383 Y34.745 E10.69101
G1 X111.102 Y34.892 E10.69734
G1 X110.803 Y34.966 E10.70348
G1 X110.492 Y34.965 E10.70969
G1 X110.192 Y34.891 E10.71586
G1 X109.921 Y34.748 E10.72197
G1 X109.688 Y34.541 E10.72819
G1 X109.511 Y34.284 E10.73442
G1 X109.4 Y33.993 E10.74063
G1 X109.364 Y33.687 E10.74678
G1 X109.401 Y33.379 E10.75297
G0 F6000 X109.01 Y33.279
G1 F1200 X109.156 Y32.899 E10.7611
G1 X109.385 Y32.568 E10.76913
G1 X109.692 Y32.297 E10.7773
G1 X110.053 Y32.109 E10.78542
G1 X110.45 Y32.011 E10.79358
G1 X110.859 Y32.012 E10.80175
G1 X111.251 Y32.11 E10.80981
G1 X111.613 Y32.3 E10.81797
G1 X111.913 Y32.566 E10.82597
G1 X112.146 Y32.904 E10.83416
G1 X112.291 Y33.285 E10.8423
G1 X112.339 Y33.689 E10.85042
G1 X112.29 Y34.097 E10.85862
G1 X112.145 Y34.474 E10.86668
G1 X111.912 Y34.811 E10.87485
G1 X111.61 Y35.077 E10.88289
G1 X111.245 Y35.268 E10.89111
G1 X110.85 Y35.366 E10.89923
G1 X110.44 Y35.365 E10.90741
G1 X110.053 Y35.269 E10.91537
G1 X109.692 Y35.079 E10.92351
G1 X109.383 Y34.805 E10.93175
G1 X109.155 Y34.473 E10.93979
G1 X109.009 Y34.09 E10.94797
G1 X108.961 Y33.685 E10.95611
