;FLAVOR:Marlin
;TIME:4782
;Filament used: 2.45356m
;Layer height: 0.2
;MINX:53.772
;MINY:29.363
;MINZ:0.2
;MAXX:102.949
;MAXY:86.124
;MAXZ:29
;Generated with Cura_SteamEngine 4.12.1
M140 S65
M105
M190 S65
M104 S200
M105
M109 S200
M82 ;absolute extrusion mode
; Ender 3 Custom Start G-code
G92 E0 ; Reset Extruder
G28 ; Home all axes
G1 Z2.0 F3000 ; Move Z Axis up little to prevent scratching of Heat Bed
G1 X0.1 Y20 Z0.3 F5000.0 ; Move to start position
G1 X0.1 Y200.0 Z0.3 F1500.0 E15 ; Draw the first line
G1 X0.4 Y200.0 Z0.3 F5000.0 ; Move to side a little
G1 X0.4 Y20 Z0.3 F1500.0 E30 ; Draw the second line
G92 E0 ; Reset Extruder
G1 Z2.0 F3000 ; Move Z Axis up little to prevent scratching of Heat Bed
G1 X5 Y20 Z0.3 F5000.0 ; Move over to prevent blob squish
G92 E0
G92 E0
G1 F1500 E-6.5
;LAYER_COUNT:144
;LAYER:0
M107
G1 F300 Z0.4
G0 F6000 X63.243 Y32.801 Z0.4
;TYPE:SKIRT
G1 F300 Z0.2
G1 F1500 E0
G1 F1200 X63.711 Y31.991 E0.03111
G1 X63.738 Y31.953 E0.03266
G1 X64.136 Y31.462 E0.05369
G1 X64.513 Y31.094 E0.07121
G1 X64.844 Y30.803 E0.08587
G1 X65.573 Y30.271 E0.11588
G1 X65.603 Y30.253 E0.11705
G1 X66.164 Y29.962 E0.13807
G1 X66.49 Y29.832 E0.14974
G1 X66.965 Y29.662 E0.16652
G1 X67.767 Y29.449 E0.19412
G1 X67.806 Y29.442 E0.19544
G1 X68.747 Y29.363 E0.22685
G1 X69.351 Y29.37 E0.24694
G1 X70.184 Y29.45 E0.27477
G1 X70.736 Y29.55 E0.29343
G1 X71.547 Y29.718 E0.32097
G1 X71.714 Y29.755 E0.32666
G1 X72.478 Y29.942 E0.35282
G1 X72.647 Y29.987 E0.35864
G1 X73.494 Y30.226 E0.38791
G1 X73.686 Y30.284 E0.39458
G1 X74.56 Y30.569 E0.42516
G1 X74.811 Y30.659 E0.43403
G1 X75.72 Y31.01 E0.46644
G1 X76.001 Y31.128 E0.47657
G1 X76.87 Y31.526 E0.50836
G1 X77.263 Y31.727 E0.52305
G1 X78.132 Y32.222 E0.55631
G1 X78.653 Y32.564 E0.57704
G1 X79.528 Y33.219 E0.61339
G1 X80.122 Y33.742 E0.63971
G1 X80.94 Y34.586 E0.67881
G1 X81.505 Y35.285 E0.7087
G1 X82.304 Y36.48 E0.75651
G1 X82.702 Y37.234 E0.78487
G1 X83.286 Y38.613 E0.83468
G1 X83.557 Y39.453 E0.86404
G1 X83.951 Y41.183 E0.92305
G1 X84.065 Y41.955 E0.949
G1 X84.209 Y44.08 E1.01984
G1 X84.22 Y44.418 E1.03109
G1 X84.22 Y49.333 E1.19457
G1 X84.459 Y49.188 E1.20386
G1 X85.224 Y48.839 E1.23183
G1 X85.693 Y48.671 E1.2484
G1 X86.473 Y48.461 E1.27527
G1 X86.511 Y48.454 E1.27655
G1 X87.139 Y48.379 E1.29759
G1 X87.467 Y48.371 E1.3085
G1 X88.071 Y48.377 E1.32859
G1 X88.923 Y48.459 E1.35706
G1 X89.596 Y48.584 E1.37983
G1 X90.273 Y48.725 E1.40283
G1 X90.443 Y48.763 E1.40862
G1 X91.207 Y48.95 E1.43478
G1 X91.376 Y48.995 E1.4406
G1 X92.223 Y49.234 E1.46987
G1 X92.415 Y49.292 E1.47654
G1 X93.289 Y49.577 E1.50712
G1 X93.54 Y49.667 E1.51598
G1 X94.449 Y50.018 E1.54839
G1 X94.73 Y50.136 E1.55853
G1 X95.599 Y50.534 E1.59032
G1 X95.992 Y50.735 E1.605
G1 X96.861 Y51.23 E1.63826
G1 X97.382 Y51.572 E1.65899
G1 X98.257 Y52.227 E1.69535
G1 X98.851 Y52.75 E1.72167
G1 X99.669 Y53.594 E1.76076
G1 X100.234 Y54.293 E1.79066
G1 X101.033 Y55.488 E1.83847
G1 X101.431 Y56.242 E1.86683
G1 X102.015 Y57.621 E1.91663
G1 X102.286 Y58.461 E1.94599
G1 X102.68 Y60.191 E2.005
G1 X102.794 Y60.963 E2.03096
G1 X102.938 Y63.087 E2.10177
G1 X102.949 Y63.425 E2.11301
G1 X102.949 Y71.47 E2.38059
G1 X102.907 Y72.117 E2.40216
G1 X102.821 Y72.604 E2.4186
G1 X102.718 Y73.056 E2.43402
G1 X102.539 Y73.662 E2.45504
G1 X102.362 Y74.085 E2.47029
G1 X102.344 Y74.123 E2.47169
G1 X102.038 Y74.676 E2.49271
G1 X101.712 Y75.128 E2.51125
G1 X101.432 Y75.474 E2.52605
G1 X100.82 Y76.107 E2.55534
G1 X100.79 Y76.133 E2.55666
G1 X100.287 Y76.516 E2.57768
G1 X99.724 Y76.841 E2.59931
G1 X99.324 Y77.038 E2.61414
G1 X98.597 Y77.327 E2.64016
G1 X98.568 Y77.336 E2.64117
G1 X97.651 Y77.529 E2.67233
G1 X97.387 Y77.559 E2.68117
G1 X96.822 Y77.591 E2.69999
G1 X78.768 Y77.59 E3.30047
G1 X78.128 Y77.549 E3.3218
G1 X78.097 Y77.545 E3.32284
G1 X77.263 Y77.364 E3.35123
G1 X76.67 Y77.181 E3.37187
G1 X76.565 Y77.141 E3.3756
G1 X76.611 Y77.219 E3.37862
G1 X76.897 Y77.783 E3.39965
G1 X77.116 Y78.399 E3.42139
G1 X77.129 Y78.445 E3.42298
G1 X77.262 Y79.063 E3.44401
G1 X77.314 Y79.625 E3.46278
G1 X77.328 Y80.013 E3.47569
G1 X77.311 Y80.645 E3.49672
G1 X77.234 Y81.174 E3.5145
G1 X77.224 Y81.224 E3.5162
G1 X77.061 Y81.834 E3.5372
G1 X76.867 Y82.325 E3.55476
G1 X76.703 Y82.683 E3.56785
G1 X76.248 Y83.476 E3.59826
G1 X76.222 Y83.513 E3.59977
G1 X75.827 Y84.006 E3.62078
G1 X75.429 Y84.396 E3.63931
G1 X75.094 Y84.69 E3.65414
G1 X74.594 Y85.076 E3.67515
G1 X74.215 Y85.308 E3.68992
G1 X73.438 Y85.661 E3.71831
G1 X72.968 Y85.828 E3.7349
G1 X72.223 Y86.03 E3.76057
G1 X72.186 Y86.037 E3.76183
G1 X71.559 Y86.115 E3.78284
G1 X71.207 Y86.124 E3.79455
G1 X70.601 Y86.118 E3.81471
G1 X69.757 Y86.037 E3.84291
G1 X69.073 Y85.911 E3.86604
G1 X68.392 Y85.768 E3.88919
G1 X68.231 Y85.732 E3.89467
G1 X67.467 Y85.545 E3.92083
G1 X67.306 Y85.502 E3.92638
G1 X66.457 Y85.264 E3.9557
G1 X66.25 Y85.202 E3.96289
G1 X65.377 Y84.916 E3.99344
G1 X65.14 Y84.831 E4.00182
G1 X64.237 Y84.484 E4.03399
G1 X63.934 Y84.356 E4.04493
G1 X63.055 Y83.95 E4.07714
G1 X62.682 Y83.758 E4.09109
G1 X61.816 Y83.266 E4.12422
G1 X61.296 Y82.926 E4.14488
G1 X60.437 Y82.285 E4.18053
G1 X60.184 Y82.084 E4.19128
G1 X59.824 Y81.747 E4.20768
G1 X59.002 Y80.899 E4.24696
G1 X58.436 Y80.199 E4.2769
G1 X57.699 Y79.097 E4.32099
G1 X57.605 Y78.951 E4.32677
G1 X57.24 Y78.25 E4.35306
G1 X56.656 Y76.87 E4.4029
G1 X56.386 Y76.03 E4.43224
G1 X55.993 Y74.303 E4.49115
G1 X55.879 Y73.532 E4.51707
G1 X55.735 Y71.408 E4.58788
G1 X55.724 Y71.07 E4.59913
G1 X55.724 Y63.025 E4.86671
G1 X55.747 Y62.55 E4.88252
G1 X55.85 Y61.894 E4.90461
G1 X55.953 Y61.441 E4.92006
G1 X56.132 Y60.835 E4.94108
G1 X56.333 Y60.363 E4.95814
G1 X56.351 Y60.326 E4.95951
G1 X56.663 Y59.776 E4.98054
G1 X56.961 Y59.366 E4.9974
G1 X57.242 Y59.019 E5.01225
G1 X57.853 Y58.388 E5.04146
G1 X58.076 Y58.215 E5.05085
G1 X57.932 Y58.17 E5.05587
G1 X57.341 Y57.944 E5.07691
G1 X56.682 Y57.581 E5.10194
G1 X56.633 Y57.549 E5.10388
G1 X56.127 Y57.171 E5.12489
G1 X55.593 Y56.642 E5.14989
G1 X55.189 Y56.177 E5.17038
G1 X54.805 Y55.675 E5.1914
G1 X54.512 Y55.175 E5.21067
G1 X54.49 Y55.132 E5.21228
G1 X54.238 Y54.553 E5.23328
G1 X54.111 Y54.147 E5.24743
G1 X53.938 Y53.5 E5.26971
G1 X53.813 Y52.88 E5.29074
G1 X53.774 Y52.446 E5.30524
G1 X53.772 Y52.404 E5.30664
G1 X53.782 Y51.772 E5.32766
G1 X53.829 Y51.374 E5.34099
G1 X53.943 Y50.663 E5.36494
G1 X54.082 Y50.047 E5.38594
G1 X54.224 Y49.633 E5.4005
G1 X54.242 Y49.587 E5.40214
G1 X54.509 Y49.014 E5.42317
G1 X54.79 Y48.559 E5.44095
G1 X55.241 Y47.909 E5.46727
G1 X55.633 Y47.413 E5.48829
G1 X55.966 Y47.077 E5.50403
G1 X56.003 Y47.043 E5.5057
G1 X56.494 Y46.646 E5.5267
G1 X56.913 Y46.38 E5.54321
G1 X57.758 Y45.899 E5.57555
G1 X58.574 Y45.527 E5.60537
G1 X58.611 Y45.514 E5.60668
G1 X59.219 Y45.342 E5.62769
G1 X59.547 Y45.283 E5.63878
G1 X60.886 Y45.088 E5.68378
G1 X61.64 Y45.036 E5.70892
G1 X62.39 Y45.041 E5.73387
G1 X63.552 Y45.045 E5.77252
G1 X64.958 Y45.039 E5.81928
G1 X66.359 Y45.012 E5.86589
G1 X66.591 Y45.002 E5.87361
G1 X66.616 Y43.999 E5.90698
G1 X66.614 Y42.746 E5.94866
G1 X66.596 Y41.782 E5.98072
G1 X66.555 Y41.137 E6.00222
G1 X66.224 Y40.981 E6.01439
G1 X65.498 Y40.56 E6.0423
G1 X65.032 Y40.235 E6.0612
G1 X64.537 Y39.841 E6.08224
G1 X64.254 Y39.564 E6.09541
G1 X64.221 Y39.529 E6.09701
G1 X63.817 Y39.043 E6.11803
G1 X63.535 Y38.61 E6.13522
G1 X63.319 Y38.238 E6.14953
G1 X63.037 Y37.672 E6.17056
G1 X62.871 Y37.218 E6.18664
G1 X62.856 Y37.17 E6.18831
G1 X62.706 Y36.556 E6.20933
G1 X62.631 Y35.86 E6.23262
G1 X62.617 Y35.473 E6.2455
G1 X62.634 Y34.841 E6.26652
G1 X62.711 Y34.311 E6.28434
G1 X62.721 Y34.261 E6.28603
G1 X62.884 Y33.651 E6.30703
G1 X63.08 Y33.156 E6.32474
G1 X63.243 Y32.801 E6.33773
G0 F6000 X63.607 Y32.968
G1 F1200 X64.037 Y32.223 E6.36634
G1 X64.064 Y32.185 E6.36789
G1 X64.447 Y31.715 E6.38806
G1 X64.777 Y31.394 E6.40337
G1 X65.108 Y31.103 E6.41803
G1 X65.778 Y30.614 E6.44562
G1 X65.808 Y30.596 E6.44678
G1 X66.625 Y30.209 E6.47685
G1 X67.1 Y30.039 E6.49363
G1 X67.837 Y29.842 E6.519
G1 X67.876 Y29.835 E6.52032
G1 X68.742 Y29.763 E6.54922
G1 X69.346 Y29.77 E6.56931
G1 X70.113 Y29.844 E6.59494
G1 X70.785 Y29.967 E6.61766
G1 X71.465 Y30.109 E6.64077
G1 X71.619 Y30.144 E6.64602
G1 X72.383 Y30.331 E6.67218
G1 X72.538 Y30.372 E6.67752
G1 X73.385 Y30.611 E6.70679
G1 X73.562 Y30.665 E6.71294
G1 X74.436 Y30.95 E6.74352
G1 X74.667 Y31.032 E6.75167
G1 X75.576 Y31.383 E6.78408
G1 X75.834 Y31.492 E6.79339
G1 X76.703 Y31.89 E6.82519
G1 X77.065 Y32.075 E6.83871
G1 X77.934 Y32.57 E6.87197
G1 X78.414 Y32.884 E6.89105
G1 X79.289 Y33.539 E6.9274
G1 X79.835 Y34.021 E6.95162
G1 X80.653 Y34.865 E6.99072
G1 X81.173 Y35.507 E7.0182
G1 X81.912 Y36.611 E7.06238
G1 X81.967 Y36.697 E7.06578
G1 X82.334 Y37.39 E7.09186
G1 X82.918 Y38.769 E7.14167
G1 X83.167 Y39.542 E7.16868
G1 X83.561 Y41.272 E7.22769
G1 X83.665 Y41.982 E7.25156
G1 X83.809 Y44.107 E7.3224
G1 X83.82 Y44.418 E7.33275
G1 X83.82 Y50.128 E7.52266
G1 X83.85 Y50.102 E7.52399
G1 X84.331 Y49.733 E7.54415
G1 X84.655 Y49.537 E7.55674
G1 X85.359 Y49.215 E7.58249
G1 X85.828 Y49.047 E7.59906
G1 X86.546 Y48.854 E7.62379
G1 X86.584 Y48.847 E7.62507
G1 X87.463 Y48.771 E7.65442
G1 X88.067 Y48.777 E7.67451
G1 X88.851 Y48.853 E7.70071
G1 X89.515 Y48.976 E7.72317
G1 X90.192 Y49.117 E7.74617
G1 X90.348 Y49.152 E7.75149
G1 X91.112 Y49.339 E7.77765
G1 X91.267 Y49.38 E7.78298
G1 X92.114 Y49.619 E7.81225
G1 X92.291 Y49.673 E7.81841
G1 X93.165 Y49.958 E7.84898
G1 X93.396 Y50.04 E7.85713
G1 X94.305 Y50.391 E7.88954
G1 X94.563 Y50.5 E7.89886
G1 X95.432 Y50.898 E7.93065
G1 X95.794 Y51.083 E7.94417
G1 X96.663 Y51.578 E7.97743
G1 X97.143 Y51.892 E7.99651
G1 X98.018 Y52.547 E8.03286
G1 X98.564 Y53.029 E8.05709
G1 X99.382 Y53.873 E8.09618
G1 X99.902 Y54.515 E8.12366
G1 X100.641 Y55.619 E8.16785
G1 X100.696 Y55.705 E8.17124
G1 X101.063 Y56.398 E8.19732
G1 X101.647 Y57.777 E8.24713
G1 X101.896 Y58.55 E8.27414
G1 X102.29 Y60.28 E8.33316
G1 X102.394 Y60.99 E8.35702
G1 X102.538 Y63.114 E8.42783
G1 X102.549 Y63.425 E8.43818
G1 X102.549 Y71.47 E8.70576
G1 X102.51 Y72.065 E8.72559
G1 X102.431 Y72.515 E8.74079
G1 X102.328 Y72.967 E8.75621
G1 X102.155 Y73.548 E8.77637
G1 X102 Y73.914 E8.78959
G1 X101.982 Y73.952 E8.79099
G1 X101.687 Y74.482 E8.81116
G1 X101.401 Y74.877 E8.82738
G1 X101.121 Y75.223 E8.84219
G1 X100.558 Y75.805 E8.86912
G1 X100.528 Y75.831 E8.87044
G1 X100.044 Y76.197 E8.89062
G1 X99.547 Y76.482 E8.90968
G1 X99.147 Y76.679 E8.92451
G1 X98.478 Y76.945 E8.94845
G1 X98.449 Y76.954 E8.94946
G1 X97.605 Y77.132 E8.97815
G1 X97.341 Y77.162 E8.98699
G1 X96.822 Y77.191 E9.00428
G1 X78.768 Y77.19 E9.60475
G1 X78.179 Y77.152 E9.62439
G1 X78.148 Y77.148 E9.62543
G1 X77.381 Y76.981 E9.65153
G1 X76.788 Y76.798 E9.67217
G1 X76.221 Y76.582 E9.69236
G1 X75.629 Y76.254 E9.71487
G1 X75.58 Y76.222 E9.71681
G1 X75.095 Y75.858 E9.73698
G1 X74.613 Y75.377 E9.75963
G1 X74.209 Y74.909 E9.78019
G1 X73.844 Y74.425 E9.80035
G1 X73.596 Y73.998 E9.81678
G1 X73.574 Y73.955 E9.81838
G1 X73.334 Y73.398 E9.83856
G1 X73.225 Y73.049 E9.85072
G1 X73.053 Y72.406 E9.87286
G1 X72.936 Y71.811 E9.89303
G1 X72.928 Y71.728 E9.8958
G1 X72.93 Y72.717 E9.92869
G1 X72.949 Y73.742 E9.96279
G1 X72.999 Y74.505 E9.98822
G1 X73.015 Y74.614 E9.99189
G1 X73.111 Y74.661 E9.99544
G1 X73.513 Y74.849 E10.0102
G1 X74.172 Y75.226 E10.03545
G1 X74.659 Y75.561 E10.05511
G1 X75.135 Y75.937 E10.07529
G1 X75.447 Y76.247 E10.08992
G1 X75.479 Y76.282 E10.09149
G1 X75.858 Y76.756 E10.11168
G1 X76.046 Y77.049 E10.12326
G1 X76.266 Y77.422 E10.13766
G1 X76.539 Y77.963 E10.15782
G1 X76.731 Y78.508 E10.17704
G1 X76.744 Y78.554 E10.17863
G1 X76.87 Y79.147 E10.19879
G1 X76.914 Y79.639 E10.21522
G1 X76.928 Y80.027 E10.22813
G1 X76.91 Y80.633 E10.2483
G1 X76.842 Y81.095 E10.26383
G1 X76.832 Y81.145 E10.26552
G1 X76.674 Y81.731 E10.28571
G1 X76.503 Y82.159 E10.30104
G1 X76.339 Y82.517 E10.31414
G1 X75.921 Y83.246 E10.34209
G1 X75.895 Y83.283 E10.34359
G1 X75.514 Y83.755 E10.36377
G1 X75.165 Y84.095 E10.37997
G1 X74.83 Y84.389 E10.3948
G1 X74.349 Y84.758 E10.41496
G1 X74.019 Y84.959 E10.42781
G1 X73.304 Y85.285 E10.45395
G1 X72.834 Y85.452 E10.47054
G1 X72.149 Y85.637 E10.49414
G1 X72.112 Y85.644 E10.49539
G1 X71.211 Y85.724 E10.52547
G1 X70.605 Y85.718 E10.54563
G1 X69.828 Y85.644 E10.57159
G1 X69.278 Y85.544 E10.59018
G1 X68.475 Y85.377 E10.61746
G1 X68.326 Y85.343 E10.62255
G1 X67.562 Y85.156 E10.64871
G1 X67.414 Y85.117 E10.6538
G1 X66.565 Y84.879 E10.68312
G1 X66.375 Y84.821 E10.68973
G1 X65.502 Y84.535 E10.72029
G1 X65.284 Y84.458 E10.72798
G1 X64.381 Y84.111 E10.76015
G1 X64.102 Y83.993 E10.77023
G1 X63.223 Y83.587 E10.80243
G1 X62.88 Y83.411 E10.81525
G1 X62.014 Y82.919 E10.84838
G1 X61.535 Y82.606 E10.86741
G1 X60.676 Y81.965 E10.90306
G1 X60.443 Y81.779 E10.91297
G1 X60.111 Y81.469 E10.92808
G1 X59.289 Y80.621 E10.96736
G1 X58.768 Y79.976 E10.99494
G1 X58.031 Y78.874 E11.03903
G1 X57.944 Y78.739 E11.04438
G1 X57.609 Y78.094 E11.06855
G1 X57.025 Y76.714 E11.11839
G1 X56.776 Y75.942 E11.14537
G1 X56.383 Y74.215 E11.20428
G1 X56.279 Y73.505 E11.22814
G1 X56.135 Y71.381 E11.29895
G1 X56.124 Y71.07 E11.3093
G1 X56.124 Y63.025 E11.57688
G1 X56.145 Y62.587 E11.59146
G1 X56.24 Y61.983 E11.6118
G1 X56.343 Y61.53 E11.62725
G1 X56.517 Y60.949 E11.64742
G1 X56.693 Y60.538 E11.66229
G1 X56.711 Y60.501 E11.66366
G1 X57.011 Y59.974 E11.68383
G1 X57.272 Y59.618 E11.69851
G1 X57.553 Y59.271 E11.71336
G1 X58.115 Y58.69 E11.74025
G1 X58.145 Y58.664 E11.74157
G1 X58.629 Y58.298 E11.76175
G1 X59.046 Y58.059 E11.77774
G1 X58.643 Y57.972 E11.79145
G1 X58.051 Y57.788 E11.81207
G1 X57.485 Y57.57 E11.83224
G1 X56.901 Y57.246 E11.85446
G1 X56.852 Y57.214 E11.8564
G1 X56.367 Y56.85 E11.87657
G1 X55.895 Y56.38 E11.89873
G1 X55.491 Y55.915 E11.91921
G1 X55.124 Y55.432 E11.93939
G1 X54.868 Y54.993 E11.95629
G1 X54.846 Y54.95 E11.9579
G1 X54.606 Y54.393 E11.97807
G1 X54.497 Y54.043 E11.99026
G1 X54.324 Y53.396 E12.01254
G1 X54.206 Y52.801 E12.03272
G1 X54.173 Y52.427 E12.0452
G1 X54.171 Y52.385 E12.0466
G1 X54.182 Y51.779 E12.06676
G1 X54.224 Y51.438 E12.07819
G1 X54.338 Y50.727 E12.10214
G1 X54.473 Y50.136 E12.1223
G1 X54.596 Y49.779 E12.13486
G1 X54.614 Y49.733 E12.1365
G1 X54.872 Y49.184 E12.15668
G1 X55.119 Y48.787 E12.17223
G1 X55.57 Y48.137 E12.19854
G1 X55.947 Y47.662 E12.21871
G1 X56.237 Y47.372 E12.23235
G1 X56.274 Y47.338 E12.23402
G1 X56.746 Y46.958 E12.25418
G1 X57.11 Y46.727 E12.26852
G1 X57.955 Y46.246 E12.30086
G1 X58.706 Y45.904 E12.3283
G1 X58.743 Y45.891 E12.32961
G1 X59.605 Y45.679 E12.35913
G1 X60.944 Y45.484 E12.40414
G1 X61.638 Y45.436 E12.42728
G1 X62.388 Y45.441 E12.45222
G1 X63.552 Y45.445 E12.49094
G1 X64.967 Y45.439 E12.538
G1 X66.385 Y45.412 E12.58517
G1 X66.967 Y45.386 E12.60455
G1 X66.986 Y45.187 E12.6112
G1 X67.016 Y43.97 E12.65169
G1 X67.014 Y42.745 E12.69243
G1 X66.996 Y41.75 E12.72553
G1 X66.946 Y40.983 E12.75109
G1 X66.93 Y40.873 E12.75479
G1 X66.395 Y40.619 E12.77449
G1 X65.727 Y40.232 E12.80017
G1 X65.261 Y39.907 E12.81906
G1 X64.787 Y39.528 E12.83925
G1 X64.545 Y39.29 E12.85054
G1 X64.512 Y39.255 E12.85214
G1 X64.126 Y38.787 E12.87231
G1 X63.881 Y38.409 E12.8873
G1 X63.665 Y38.037 E12.9016
G1 X63.396 Y37.494 E12.92176
G1 X63.252 Y37.099 E12.93574
G1 X63.237 Y37.051 E12.93741
G1 X63.095 Y36.462 E12.95757
G1 X63.031 Y35.845 E12.9782
G1 X63.017 Y35.458 E12.99108
G1 X63.035 Y34.852 E13.01124
G1 X63.103 Y34.39 E13.02677
G1 X63.113 Y34.34 E13.02847
G1 X63.271 Y33.754 E13.04866
G1 X63.444 Y33.323 E13.0641
G1 X63.607 Y32.968 E13.0771
G0 F6000 X63.97 Y33.134
G1 F1200 X64.363 Y32.454 E13.10322
G1 X64.39 Y32.416 E13.10477
G1 X64.758 Y31.968 E13.12405
G1 X65.041 Y31.695 E13.13713
G1 X65.372 Y31.404 E13.15179
G1 X65.984 Y30.957 E13.177
G1 X66.014 Y30.939 E13.17816
G1 X66.76 Y30.586 E13.20561
G1 X67.235 Y30.416 E13.22239
G1 X67.908 Y30.236 E13.24556
G1 X67.947 Y30.229 E13.24688
G1 X68.738 Y30.163 E13.27328
G1 X69.342 Y30.17 E13.29337
G1 X70.042 Y30.237 E13.31676
G1 X70.594 Y30.337 E13.33541
G1 X71.384 Y30.501 E13.36225
G1 X71.524 Y30.532 E13.36702
G1 X72.288 Y30.719 E13.39318
G1 X72.43 Y30.757 E13.39807
G1 X73.277 Y30.996 E13.42734
G1 X73.438 Y31.045 E13.43294
