;FLAVOR:Marlin
;TIME:2722
;Filament used: 1.94816m
;Layer height: 0.15
;Generated with Cura_SteamEngine master
M190 S50
M104 S207
M109 S207
G21 ;metric values
G90 ;absolute positioning
M82 ;set extruder to absolute mode
M107 ;start with the fan off
G28 X0 Y0 ;move X/Y to min endstops
G28 Z0 ;move Z to min endstops
G1 Z15.0 F9000 ;move the platform down 15mm
G92 E0 ;zero the extruded length
G1 F200 E3 ;extrude 3mm of feed stock
G92 E0 ;zero the extruded length again
G1 F9000
;Put printing message on LCD screen
M117 Printing...
;LAYER_COUNT:137
;LAYER:0
M107
G0 F2700 X78.945 Y64.198 Z0.3
;TYPE:SKIRT
G1 F1350 X79.307 Y63.806 E0.02662
G1 X81.321 Y61.908 E0.16469
G1 X81.729 Y61.573 E0.19102
G1 X83.985 Y59.973 E0.32901
G1 X84.432 Y59.701 E0.35512
G1 X86.889 Y58.425 E0.49324
G1 X87.373 Y58.214 E0.51958
G1 X89.981 Y57.292 E0.65759
G1 X90.491 Y57.151 E0.68399
G1 X93.231 Y56.594 E0.82348
G1 X93.759 Y56.525 E0.85005
G1 X96.545 Y56.357 E0.98929
G1 X97.075 Y56.362 E1.01574
G1 X99.859 Y56.583 E1.15507
G1 X100.363 Y56.657 E1.18048
G1 X102.846 Y57.195 E1.30723
G1 X103.328 Y57.334 E1.33226
G1 X105.955 Y58.28 E1.47156
G1 X106.443 Y58.495 E1.49817
G1 X108.91 Y59.798 E1.63736
G1 X109.36 Y60.077 E1.66377
G1 X111.624 Y61.712 E1.8031
G1 X112.031 Y62.052 E1.82956
G1 X114.045 Y63.986 E1.96886
G1 X114.402 Y64.38 E1.99539
G1 X116.127 Y66.577 E2.13475
G1 X116.424 Y67.015 E2.16115
G1 X117.828 Y69.432 E2.3006
G1 X118.062 Y69.91 E2.32715
G1 X119.113 Y72.496 E2.46642
G1 X119.278 Y73 E2.49287
G1 X119.959 Y75.708 E2.63218
G1 X120.052 Y76.231 E2.65869
G1 X120.349 Y79.01 E2.79812
G1 X120.369 Y79.538 E2.82448
G1 X120.278 Y82.329 E2.9638
G1 X120.218 Y82.887 E2.9918
G1 X119.671 Y85.885 E3.14384
G1 X119.533 Y86.42 E3.1714
G1 X118.639 Y89.065 E3.3107
G1 X118.435 Y89.553 E3.33708
G1 X117.182 Y92.049 E3.47642
G1 X116.91 Y92.507 E3.503
G1 X115.32 Y94.804 E3.64237
G1 X115.009 Y95.195 E3.66729
G1 X113.304 Y97.073 E3.79384
G1 X112.937 Y97.427 E3.81928
G1 X110.8 Y99.224 E3.95858
G1 X110.369 Y99.538 E3.98519
G1 X108.001 Y101.019 E4.12453
G1 X107.535 Y101.267 E4.15086
G1 X104.983 Y102.406 E4.29029
G1 X104.48 Y102.589 E4.31699
G1 X101.795 Y103.358 E4.45633
G1 X101.278 Y103.468 E4.48271
G1 X98.509 Y103.857 E4.62221
G1 X97.983 Y103.894 E4.64851
G1 X95.193 Y103.896 E4.78771
G1 X94.662 Y103.859 E4.81426
G1 X91.892 Y103.47 E4.95382
G1 X91.342 Y103.351 E4.98189
G1 X88.446 Y102.494 E5.13257
G1 X87.939 Y102.304 E5.15958
G1 X85.425 Y101.15 E5.29759
G1 X84.965 Y100.899 E5.32373
G1 X82.631 Y99.409 E5.46188
G1 X82.205 Y99.093 E5.48834
G1 X80.083 Y97.277 E5.62768
G1 X79.704 Y96.903 E5.65425
G1 X77.857 Y94.808 E5.79359
G1 X77.536 Y94.388 E5.81996
G1 X75.998 Y92.058 E5.95924
G1 X75.736 Y91.594 E5.98583
G1 X74.538 Y89.07 E6.12522
G1 X74.345 Y88.578 E6.15158
G1 X73.51 Y85.915 E6.29082
G1 X73.387 Y85.398 E6.31733
G1 X72.931 Y82.639 E6.45685
G1 X72.881 Y82.108 E6.48346
G1 X72.816 Y79.318 E6.62269
G1 X72.84 Y78.791 E6.64901
G1 X73.162 Y76.017 E6.78833
G1 X73.257 Y75.507 E6.81421
G1 X73.935 Y72.875 E6.94981
G1 X74.1 Y72.38 E6.97584
G1 X75.134 Y69.862 E7.11164
G1 X75.364 Y69.395 E7.13762
G1 X76.754 Y67.005 E7.27555
G1 X77.071 Y66.542 E7.30355
G1 X78.945 Y64.198 E7.45327
G0 F2700 X79.257 Y64.448
G1 F1350 X79.581 Y64.097 E7.4771
G1 X81.595 Y62.199 E7.61517
G1 X81.96 Y61.9 E7.63871
G1 X84.216 Y60.3 E7.77669
G1 X84.616 Y60.056 E7.80007
G1 X87.073 Y58.78 E7.93819
G1 X87.507 Y58.591 E7.96181
G1 X90.115 Y57.669 E8.09982
G1 X90.571 Y57.543 E8.12342
G1 X93.311 Y56.986 E8.26291
G1 X93.783 Y56.924 E8.28666
G1 X96.569 Y56.756 E8.42591
G1 X97.043 Y56.761 E8.44956
G1 X99.827 Y56.982 E8.58889
G1 X100.278 Y57.048 E8.61163
G1 X102.761 Y57.586 E8.73838
G1 X103.193 Y57.71 E8.76081
G1 X105.82 Y58.656 E8.90011
G1 X106.256 Y58.849 E8.92389
G1 X108.723 Y60.152 E9.06309
G1 X109.126 Y60.402 E9.08675
G1 X111.39 Y62.037 E9.22607
G1 X111.754 Y62.341 E9.24973
G1 X113.768 Y64.275 E9.38904
G1 X114.087 Y64.627 E9.41274
G1 X115.812 Y66.824 E9.5521
G1 X116.078 Y67.216 E9.57573
G1 X117.482 Y69.633 E9.71518
G1 X117.692 Y70.061 E9.73897
G1 X118.743 Y72.647 E9.87823
G1 X118.89 Y73.098 E9.9019
G1 X119.571 Y75.806 E10.04121
G1 X119.655 Y76.274 E10.06493
G1 X119.952 Y79.053 E10.20436
G1 X119.969 Y79.525 E10.22793
G1 X119.878 Y82.316 E10.36724
G1 X119.825 Y82.815 E10.39228
G1 X119.278 Y85.813 E10.54432
G1 X119.154 Y86.292 E10.569
G1 X118.26 Y88.937 E10.7083
G1 X118.078 Y89.373 E10.73187
G1 X116.825 Y91.869 E10.8712
G1 X116.582 Y92.279 E10.89498
G1 X114.992 Y94.576 E11.03436
G1 X114.713 Y94.926 E11.05669
G1 X113.008 Y96.804 E11.18323
G1 X112.679 Y97.121 E11.20603
G1 X110.542 Y98.918 E11.34533
G1 X110.157 Y99.199 E11.36911
G1 X107.789 Y100.68 E11.50845
G1 X107.372 Y100.902 E11.53202
G1 X104.82 Y102.041 E11.67144
G1 X104.37 Y102.205 E11.69534
G1 X101.685 Y102.974 E11.83468
G1 X101.222 Y103.072 E11.85829
G1 X98.453 Y103.461 E11.99779
G1 X97.982 Y103.494 E12.02135
G1 X95.192 Y103.496 E12.16054
G1 X94.717 Y103.463 E12.1843
G1 X91.947 Y103.074 E12.32385
G1 X91.455 Y102.967 E12.34897
G1 X88.559 Y102.11 E12.49965
G1 X88.106 Y101.94 E12.52378
G1 X85.592 Y100.786 E12.66179
G1 X85.18 Y100.562 E12.68519
G1 X82.846 Y99.072 E12.82334
G1 X82.465 Y98.789 E12.84701
G1 X80.343 Y96.973 E12.98636
G1 X80.004 Y96.638 E13.01013
G1 X78.157 Y94.543 E13.14947
G1 X77.869 Y94.168 E13.17306
G1 X76.331 Y91.838 E13.31235
G1 X76.097 Y91.423 E13.33612
G1 X74.899 Y88.899 E13.47551
G1 X74.727 Y88.458 E13.49912
G1 X73.892 Y85.795 E13.63836
G1 X73.782 Y85.332 E13.6621
G1 X73.326 Y82.573 E13.80161
G1 X73.281 Y82.098 E13.82542
G1 X73.216 Y79.308 E13.96465
G1 X73.238 Y78.837 E13.98817
G1 X73.56 Y76.063 E14.1275
G1 X73.644 Y75.607 E14.15063
G1 X74.322 Y72.975 E14.28623
G1 X74.47 Y72.531 E14.30958
G1 X75.504 Y70.013 E14.44538
G1 X75.71 Y69.596 E14.46858
G1 X77.1 Y67.206 E14.60652
G1 X77.383 Y66.792 E14.63154
G1 X79.257 Y64.448 E14.78126
G0 F2700 X79.57 Y64.698
G1 F1350 X79.855 Y64.388 E14.80227
G1 X81.869 Y62.49 E14.94034
G1 X82.192 Y62.226 E14.96115
G1 X84.448 Y60.626 E15.09914
G1 X84.8 Y60.411 E15.11971
G1 X87.257 Y59.135 E15.25784
G1 X87.64 Y58.969 E15.27866
G1 X90.248 Y58.047 E15.41667
G1 X90.65 Y57.935 E15.43749
G1 X93.39 Y57.378 E15.57698
G1 X93.807 Y57.323 E15.59797
G1 X96.593 Y57.155 E15.73722
G1 X97.011 Y57.159 E15.75807
G1 X99.795 Y57.38 E15.8974
G1 X100.193 Y57.439 E15.91748
G1 X102.676 Y57.977 E16.04423
G1 X103.057 Y58.086 E16.064
G1 X105.684 Y59.032 E16.2033
G1 X106.069 Y59.202 E16.2243
G1 X108.536 Y60.505 E16.36349
G1 X108.891 Y60.726 E16.38435
G1 X111.155 Y62.361 E16.52368
G1 X111.477 Y62.629 E16.54458
G1 X113.491 Y64.563 E16.68388
G1 X113.773 Y64.874 E16.70483
G1 X115.498 Y67.071 E16.84418
G1 X115.732 Y67.417 E16.86502
G1 X117.136 Y69.834 E17.00448
G1 X117.321 Y70.211 E17.02543
G1 X118.372 Y72.797 E17.16469
G1 X118.502 Y73.195 E17.18558
G1 X119.183 Y75.903 E17.32489
G1 X119.257 Y76.316 E17.34582
G1 X119.554 Y79.095 E17.48526
G1 X119.569 Y79.512 E17.50607
G1 X119.478 Y82.303 E17.64539
G1 X119.431 Y82.743 E17.66747
G1 X118.884 Y85.741 E17.81951
G1 X118.775 Y86.164 E17.8413
G1 X117.881 Y88.809 E17.98059
G1 X117.72 Y89.194 E18.00141
G1 X116.467 Y91.69 E18.14075
G1 X116.253 Y92.051 E18.16169
G1 X114.663 Y94.348 E18.30106
G1 X114.417 Y94.658 E18.3208
G1 X112.712 Y96.536 E18.44735
G1 X112.422 Y96.815 E18.46743
G1 X110.285 Y98.612 E18.60673
G1 X109.945 Y98.86 E18.62772
G1 X107.577 Y100.341 E18.76707
G1 X107.209 Y100.537 E18.78787
G1 X104.657 Y101.676 E18.92729
G1 X104.26 Y101.82 E18.94836
G1 X101.575 Y102.589 E19.0877
G1 X101.166 Y102.676 E19.10857
G1 X98.397 Y103.065 E19.24807
G1 X97.982 Y103.094 E19.26882
G1 X95.192 Y103.096 E19.40802
G1 X94.773 Y103.067 E19.42897
G1 X92.003 Y102.678 E19.56852
G1 X91.569 Y102.584 E19.59068
G1 X88.673 Y101.727 E19.74135
G1 X88.272 Y101.576 E19.76273
G1 X85.758 Y100.422 E19.90074
G1 X85.396 Y100.225 E19.9213
G1 X83.062 Y98.735 E20.05945
G1 X82.725 Y98.485 E20.08038
G1 X80.603 Y96.669 E20.21972
G1 X80.304 Y96.374 E20.24068
G1 X78.457 Y94.279 E20.38002
G1 X78.203 Y93.948 E20.40083
G1 X76.665 Y91.618 E20.54012
G1 X76.459 Y91.251 E20.56112
G1 X75.261 Y88.727 E20.7005
G1 X75.108 Y88.339 E20.72131
G1 X74.273 Y85.676 E20.86055
G1 X74.176 Y85.267 E20.88152
G1 X73.72 Y82.508 E21.02103
G1 X73.681 Y82.089 E21.04203
G1 X73.616 Y79.299 E21.18126
G1 X73.635 Y78.883 E21.20203
G1 X73.957 Y76.109 E21.34136
G1 X74.032 Y75.707 E21.36176
G1 X74.71 Y73.075 E21.49736
G1 X74.84 Y72.683 E21.51796
G1 X75.874 Y70.165 E21.65377
G1 X76.056 Y69.797 E21.67425
G1 X77.446 Y67.407 E21.81219
G1 X77.696 Y67.042 E21.83426
G1 X79.57 Y64.698 E21.98398
G0 F2700 X79.882 Y64.947
G1 F1350 X80.13 Y64.679 E22.0022
G1 X82.144 Y62.781 E22.14026
G1 X82.423 Y62.552 E22.15827
G1 X84.679 Y60.952 E22.29626
G1 X84.985 Y60.766 E22.31412
G1 X87.442 Y59.49 E22.45225
G1 X87.773 Y59.346 E22.47026
G1 X90.381 Y58.424 E22.60826
G1 X90.73 Y58.327 E22.62633
G1 X93.47 Y57.77 E22.76583
G1 X93.832 Y57.723 E22.78404
G1 X96.618 Y57.555 E22.92329
G1 X96.98 Y57.558 E22.94135
G1 X99.764 Y57.779 E23.08068
G1 X100.109 Y57.83 E23.09808
G1 X102.592 Y58.368 E23.22483
G1 X102.922 Y58.463 E23.24196
G1 X105.549 Y59.409 E23.38126
G1 X105.882 Y59.556 E23.39942
G1 X108.349 Y60.859 E23.53861
G1 X108.657 Y61.05 E23.55669
G1 X110.921 Y62.685 E23.69602
G1 X111.2 Y62.918 E23.71416
G1 X113.214 Y64.852 E23.85346
G1 X113.458 Y65.121 E23.87158
G1 X115.183 Y67.318 E24.01094
G1 X115.386 Y67.618 E24.02901
G1 X116.79 Y70.035 E24.16846
G1 X116.951 Y70.362 E24.18665
G1 X118.002 Y72.948 E24.32591
G1 X118.114 Y73.293 E24.34401
G1 X118.795 Y76.001 E24.48332
G1 X118.859 Y76.359 E24.50146
G1 X119.156 Y79.138 E24.64089
G1 X119.17 Y79.499 E24.65892
G1 X119.079 Y82.29 E24.79824
G1 X119.038 Y82.672 E24.8174
G1 X118.491 Y85.67 E24.96944
G1 X118.396 Y86.036 E24.98831
G1 X117.502 Y88.681 E25.1276
G1 X117.363 Y89.014 E25.1456
G1 X116.11 Y91.51 E25.28494
G1 X115.924 Y91.824 E25.30315
G1 X114.334 Y94.121 E25.44252
G1 X114.121 Y94.389 E25.4596
G1 X112.416 Y96.267 E25.58615
G1 X112.164 Y96.509 E25.60358
G1 X110.027 Y98.306 E25.74288
G1 X109.733 Y98.52 E25.76102
G1 X107.365 Y100.001 E25.90036
G1 X107.046 Y100.171 E25.9184
G1 X104.494 Y101.31 E26.05782
G1 X104.15 Y101.436 E26.0761
G1 X101.465 Y102.205 E26.21544
G1 X101.111 Y102.28 E26.23349
G1 X98.342 Y102.669 E26.373
G1 X97.982 Y102.694 E26.391
G1 X95.192 Y102.696 E26.53019
G1 X94.828 Y102.671 E26.5484
G1 X92.058 Y102.282 E26.68795
G1 X91.682 Y102.2 E26.70715
G1 X88.786 Y101.343 E26.85782
G1 X88.439 Y101.213 E26.87631
G1 X85.925 Y100.059 E27.01432
G1 X85.611 Y99.888 E27.03216
G1 X83.277 Y98.398 E27.1703
G1 X82.985 Y98.181 E27.18845
G1 X80.863 Y96.365 E27.3278
G1 X80.604 Y96.109 E27.34596
G1 X78.757 Y94.014 E27.4853
G1 X78.537 Y93.727 E27.50335
G1 X76.999 Y91.397 E27.64263
G1 X76.82 Y91.08 E27.66079
G1 X75.622 Y88.556 E27.80018
G1 X75.49 Y88.219 E27.81824
G1 X74.655 Y85.556 E27.95747
G1 X74.571 Y85.202 E27.97562
G1 X74.115 Y82.443 E28.11514
G1 X74.081 Y82.08 E28.13333
G1 X74.016 Y79.29 E28.27256
G1 X74.032 Y78.929 E28.29059
G1 X74.354 Y76.155 E28.42991
G1 X74.419 Y75.806 E28.44762
G1 X75.097 Y73.174 E28.58322
G1 X75.21 Y72.835 E28.60105
G1 X76.244 Y70.317 E28.73685
G1 X76.401 Y69.998 E28.75459
G1 X77.791 Y67.608 E28.89253
G1 X78.008 Y67.291 E28.91169
G1 X79.882 Y64.947 E29.06142
G0 F2700 X80.195 Y65.197
G1 F1350 X80.404 Y64.97 E29.07681
G1 X82.418 Y63.072 E29.21488
G1 X82.654 Y62.878 E29.23012
G1 X84.91 Y61.278 E29.3681
G1 X85.169 Y61.121 E29.38321
G1 X87.626 Y59.845 E29.52134
G1 X87.907 Y59.723 E29.53662
G1 X90.515 Y58.801 E29.67463
G1 X90.81 Y58.719 E29.6899
G1 X93.55 Y58.162 E29.8294
G1 X93.856 Y58.122 E29.84479
G1 X96.642 Y57.954 E29.98404
G1 X96.948 Y57.957 E29.99931
G1 X99.732 Y58.178 E30.13864
G1 X100.024 Y58.221 E30.15336
G1 X102.507 Y58.759 E30.28012
G1 X102.786 Y58.839 E30.2946
G1 X105.413 Y59.785 E30.4339
G1 X105.695 Y59.91 E30.44929
G1 X108.162 Y61.213 E30.58848
G1 X108.423 Y61.374 E30.60378
G1 X110.687 Y63.009 E30.7431
G1 X110.923 Y63.206 E30.75844
G1 X112.937 Y65.14 E30.89775
G1 X113.143 Y65.368 E30.91308
G1 X114.868 Y67.565 E31.05243
G1 X115.04 Y67.819 E31.06774
G1 X116.444 Y70.236 E31.20719
G1 X116.58 Y70.513 E31.22259
G1 X117.631 Y73.099 E31.36185
G1 X117.727 Y73.39 E31.37714
G1 X118.408 Y76.098 E31.51645
G1 X118.462 Y76.401 E31.5318
G1 X118.759 Y79.18 E31.67124
G1 X118.77 Y79.486 E31.68651
G1 X118.679 Y82.277 E31.82583
G1 X118.644 Y82.6 E31.84204
G1 X118.097 Y85.598 E31.99408
G1 X118.017 Y85.907 E32.01
G1 X117.123 Y88.552 E32.1493
G1 X117.005 Y88.835 E32.16459
G1 X115.752 Y91.331 E32.30393
G1 X115.595 Y91.596 E32.3193
G1 X114.005 Y93.893 E32.45867
G1 X113.825 Y94.12 E32.47312
G1 X112.12 Y95.998 E32.59967
G1 X111.907 Y96.203 E32.61442
G1 X109.77 Y98 E32.75372
G1 X109.521 Y98.181 E32.76908
G1 X107.153 Y99.662 E32.90842
G1 X106.883 Y99.806 E32.92369
G1 X104.331 Y100.945 E33.06311
G1 X104.04 Y101.051 E33.07856
G1 X101.355 Y101.82 E33.2179
G1 X101.055 Y101.884 E33.23321
G1 X98.286 Y102.273 E33.37271
G1 X97.982 Y102.294 E33.38791
G1 X95.192 Y102.296 E33.52711
G1 X94.884 Y102.275 E33.54251
G1 X92.114 Y101.886 E33.68206
G1 X91.796 Y101.817 E33.6983
G1 X88.9 Y100.96 E33.84897
G1 X88.606 Y100.849 E33.86465
G1 X86.092 Y99.695 E34.00266
G1 X85.826 Y99.55 E34.01777
G1 X83.492 Y98.06 E34.15592
G1 X83.246 Y97.877 E34.17122
G1 X81.124 Y96.061 E34.31056
G1 X80.904 Y95.845 E34.32594
G1 X79.057 Y93.75 E34.46528
G1 X78.871 Y93.507 E34.48055
G1 X77.333 Y91.177 E34.61983
G1 X77.182 Y90.908 E34.63522
G1 X75.984 Y88.384 E34.77461
G1 X75.872 Y88.099 E34.78989
G1 X75.037 Y85.436 E34.92912
G1 X74.965 Y85.137 E34.94447
G1 X74.509 Y82.378 E35.08398
G1 X74.481 Y82.07 E35.09941
G1 X74.416 Y79.28 E35.23864
G1 X74.43 Y78.975 E35.25387
G1 X74.752 Y76.201 E35.3932
G1 X74.807 Y75.906 E35.40817
G1 X75.485 Y73.274 E35.54377
G1 X75.58 Y72.987 E35.55885
G1 X76.614 Y70.469 E35.69465
G1 X76.747 Y70.199 E35.70967
G1 X78.137 Y67.809 E35.84761
G1 X78.321 Y67.541 E35.86382
G1 X80.195 Y65.197 E36.01355
G0 F2700 X80.507 Y65.447
G1 F1350 X80.678 Y65.261 E36.02615
G1 X82.692 Y63.363 E36.16422
G1 X82.886 Y63.205 E36.1767
G1 X85.142 Y61.605 E36.31469
G1 X85.353 Y61.476 E36.32703
G1 X87.81 Y60.2 E36.46515
G1 X88.04 Y60.1 E36.47766
G1 X90.648 Y59.178 E36.61567
G1 X90.889 Y59.111 E36.62815
G1 X93.629 Y58.554 E36.76764
G1 X93.88 Y58.521 E36.78027
G1 X96.666 Y58.353 E36.91952
G1 X96.916 Y58.356 E36.93199
G1 X99.7 Y58.577 E37.07132
G1 X99.939 Y58.612 E37.08337
G1 X102.422 Y59.15 E37.21013
G1 X102.651 Y59.215 E37.222
G1 X105.278 Y60.161 E37.3613
G1 X105.509 Y60.263 E37.3739
G1 X107.976 Y61.566 E37.51309
G1 X108.189 Y61.699 E37.52562
G1 X110.453 Y63.334 E37.66495
G1 X110.646 Y63.495 E37.67749
G1 X112.66 Y65.429 E37.81679
G1 X112.829 Y65.615 E37.82933
G1 X114.554 Y67.812 E37.96869
G1 X114.694 Y68.02 E37.9812
G1 X116.098 Y70.437 E38.12065
G1 X116.21 Y70.663 E38.13323
G1 X117.261 Y73.249 E38.2725
G1 X117.339 Y73.488 E38.28504
G1 X118.02 Y76.196 E38.42435
G1 X118.064 Y76.444 E38.43691
G1 X118.361 Y79.223 E38.57635
G1 X118.37 Y79.473 E38.58883
G1 X118.279 Y82.264 E38.72815
G1 X118.251 Y82.528 E38.74139
G1 X117.704 Y85.526 E38.89343
G1 X117.638 Y85.779 E38.90648
G1 X116.744 Y88.424 E39.04577
G1 X116.648 Y88.656 E39.0583
G1 X115.395 Y91.152 E39.19763
G1 X115.266 Y91.368 E39.21018
G1 X113.676 Y93.665 E39.34956
G1 X113.529 Y93.851 E39.36139
G1 X111.824 Y95.729 E39.48793
G1 X111.649 Y95.897 E39.50004
G1 X109.512 Y97.694 E39.63934
G1 X109.308 Y97.842 E39.65191
G1 X106.94 Y99.323 E39.79125
G1 X106.72 Y99.441 E39.80371
G1 X104.168 Y100.58 E39.94313
G1 X103.93 Y100.666 E39.95576
G1 X101.245 Y101.435 E40.0951
G1 X100.999 Y101.487 E40.10764
G1 X98.23 Y101.876 E40.24715
G1 X97.981 Y101.894 E40.2596
G1 X95.191 Y101.896 E40.39879
G1 X94.94 Y101.879 E40.41135
G1 X92.17 Y101.49 E40.5509
G1 X91.909 Y101.433 E40.56423
G1 X89.013 Y100.576 E40.7149
G1 X88.773 Y100.486 E40.72769
G1 X86.259 Y99.332 E40.8657
G1 X86.041 Y99.213 E40.87809
G1 X83.707 Y97.723 E41.01624
G1 X83.506 Y97.574 E41.02872
G1 X81.384 Y95.758 E41.16806
G1 X81.204 Y95.58 E41.18069
G1 X79.357 Y93.485 E41.32003
G1 X79.205 Y93.287 E41.33248
G1 X77.667 Y90.957 E41.47177
G1 X77.543 Y90.737 E41.48437
G1 X76.345 Y88.213 E41.62376
G1 X76.253 Y87.98 E41.63625
