;FLAVOR:Marlin
;TIME:6388
;Filament used: 3.99074m
;Layer height: 0.2
;MINX:84.001
;MINY:84.001
;MINZ:0.2
;MAXX:150.999
;MAXY:150.999
;MAXZ:70
;Generated with Cura_SteamEngine 5.2.1
M140 S60
M105
M190 S60
M104 S205
M105
M109 S205
M82 ;absolute extrusion mode
; Ender 3 Custom Start G-code
G92 E0 ; Reset Extruder
G28 ; Home all axes
G1 Z2.0 F3000 ; Move Z Axis up little to prevent scratching of Heat Bed
G1 X0.1 Y20 Z0.3 F5000.0 ; Move to start position
G1 X0.1 Y200.0 Z0.3 F1500.0 E15 ; Draw the first line
G1 X0.4 Y200.0 Z0.3 F5000.0 ; Move to side a little
G1 X0.4 Y20 Z0.3 F1500.0 E30 ; Draw the second line
G92 E0 ; Reset Extruder
G1 Z2.0 F3000 ; Move Z Axis up little to prevent scratching of Heat Bed
G1 X5 Y20 Z0.3 F5000.0 ; Move over to prevent blob squish
G92 E0
G92 E0
G1 F2700 E-5
;LAYER_COUNT:350
;LAYER:0
M107
G0 F6000 X87.199 Y87.265 Z0.2
;TYPE:SKIRT
G1 F2700 E0
G1 F1200 X87.887 Y86.628 E0.03119
G1 X88.627 Y86.052 E0.06237
G1 X89.413 Y85.54 E0.09357
G1 X90.24 Y85.098 E0.12476
G1 X91.102 Y84.728 E0.15596
G1 X91.992 Y84.432 E0.18716
G1 X92.904 Y84.214 E0.21835
G1 X93.831 Y84.073 E0.24953
G1 X94.702 Y84.014 E0.27857
G1 X95.331 Y84.001 E0.29949
G1 X111.849 Y84.002 E0.84888
G1 X112.551 Y84.012 E0.87224
G1 X113.487 Y84.065 E0.90342
G1 X114.415 Y84.198 E0.9346
G1 X115.329 Y84.41 E0.9658
G1 X116.222 Y84.698 E0.99701
G1 X117.086 Y85.062 E1.0282
G1 X117.917 Y85.498 E1.05941
G1 X118.707 Y86.003 E1.09059
G1 X119.451 Y86.573 E1.12177
G1 X120.144 Y87.205 E1.15296
G1 X120.781 Y87.894 E1.18417
G1 X121.507 Y88.85 E1.2241
G1 X121.794 Y89.274 E1.24113
G1 X123.28 Y91.404 E1.32751
G1 X124.779 Y93.428 E1.41128
G1 X126.325 Y95.397 E1.49454
G1 X127.943 Y97.341 E1.57866
G1 X129.613 Y99.236 E1.66267
G1 X131.326 Y101.073 E1.74622
G1 X133.084 Y102.853 E1.82943
G1 X134.914 Y104.606 E1.91371
G1 X136.786 Y106.299 E1.99766
G1 X138.678 Y107.915 E2.08042
G1 X140.661 Y109.515 E2.16517
G1 X142.648 Y111.026 E2.24819
G1 X144.692 Y112.493 E2.33187
G1 X145.416 Y112.982 E2.36093
G1 X146.281 Y113.584 E2.39598
G1 X147.027 Y114.153 E2.42719
G1 X147.722 Y114.783 E2.45839
G1 X148.36 Y115.471 E2.48959
G1 X148.937 Y116.21 E2.52078
G1 X149.45 Y116.995 E2.55197
G1 X149.893 Y117.821 E2.58314
G1 X150.265 Y118.682 E2.61434
G1 X150.562 Y119.572 E2.64555
G1 X150.782 Y120.484 E2.67675
G1 X150.924 Y121.411 E2.70794
G1 X150.984 Y122.268 E2.73651
G1 X150.999 Y122.931 E2.75857
G1 X150.998 Y139.399 E3.3063
G1 X150.989 Y140.126 E3.33048
G1 X150.938 Y141.063 E3.36169
G1 X150.806 Y141.991 E3.39287
G1 X150.597 Y142.905 E3.42405
G1 X150.31 Y143.798 E3.45525
G1 X149.948 Y144.664 E3.48647
G1 X149.514 Y145.495 E3.51765
G1 X149.01 Y146.286 E3.54885
G1 X148.441 Y147.031 E3.58002
G1 X147.81 Y147.726 E3.61125
G1 X147.123 Y148.364 E3.64243
G1 X146.384 Y148.941 E3.67361
G1 X145.598 Y149.453 E3.70481
G1 X144.772 Y149.896 E3.73599
G1 X143.91 Y150.268 E3.76721
G1 X143.021 Y150.564 E3.79838
G1 X142.109 Y150.784 E3.82958
G1 X141.182 Y150.925 E3.86077
G1 X140.298 Y150.986 E3.89024
G1 X139.669 Y150.999 E3.91117
G1 X95.566 Y150.998 E5.37804
G1 X94.868 Y150.989 E5.40125
G1 X93.932 Y150.937 E5.43243
G1 X93.003 Y150.805 E5.46364
G1 X92.089 Y150.595 E5.49483
G1 X91.196 Y150.308 E5.52603
G1 X90.331 Y149.945 E5.55723
G1 X89.5 Y149.511 E5.58841
G1 X88.709 Y149.007 E5.61961
G1 X87.964 Y148.437 E5.65081
G1 X87.27 Y147.806 E5.68201
G1 X86.633 Y147.119 E5.71317
G1 X86.056 Y146.379 E5.74438
G1 X85.544 Y145.593 E5.77558
G1 X85.101 Y144.766 E5.80678
G1 X84.73 Y143.905 E5.83796
G1 X84.434 Y143.015 E5.86916
G1 X84.215 Y142.103 E5.90035
G1 X84.074 Y141.176 E5.93154
G1 X84.014 Y140.287 E5.96118
G1 X84.001 Y139.657 E5.98214
G1 X84.002 Y95.526 E7.44994
G1 X84.011 Y94.861 E7.47206
G1 X84.064 Y93.925 E7.50324
G1 X84.196 Y92.996 E7.53445
G1 X84.407 Y92.082 E7.56565
G1 X84.695 Y91.19 E7.59682
G1 X85.058 Y90.325 E7.62802
G1 X85.493 Y89.494 E7.65922
G1 X85.997 Y88.704 E7.69039
G1 X86.567 Y87.959 E7.72159
G1 X87.199 Y87.265 E7.75281
G0 F6000 X87.59 Y87.44
G1 F1200 X88.275 Y86.824 E7.78345
G1 X89.011 Y86.271 E7.81407
G1 X89.792 Y85.783 E7.8447
G1 X90.612 Y85.365 E7.87531
G1 X91.466 Y85.02 E7.90594
G1 X92.346 Y84.75 E7.93656
G1 X93.246 Y84.558 E7.96717
G1 X94.16 Y84.444 E7.9978
G1 X94.713 Y84.414 E8.01622
G1 X95.331 Y84.401 E8.03678
G1 X111.692 Y84.401 E8.58095
G1 X112.545 Y84.412 E8.60932
G1 X113.464 Y84.465 E8.63994
G1 X114.375 Y84.598 E8.67056
G1 X115.271 Y84.809 E8.70118
G1 X116.146 Y85.097 E8.73182
G1 X116.992 Y85.46 E8.76244
G1 X117.803 Y85.895 E8.79305
G1 X118.574 Y86.399 E8.82368
G1 X119.298 Y86.967 E8.85429
G1 X119.97 Y87.597 E8.88493
G1 X120.584 Y88.282 E8.91552
G1 X121.175 Y89.074 E8.94839
G1 X121.446 Y89.475 E8.96449
G1 X122.947 Y91.625 E9.0517
G1 X124.476 Y93.69 E9.13716
G1 X126.018 Y95.654 E9.22021
G1 X127.634 Y97.595 E9.30421
G1 X129.321 Y99.51 E9.3891
G1 X131.031 Y101.345 E9.47252
G1 X132.805 Y103.14 E9.55646
G1 X134.652 Y104.909 E9.64152
G1 X136.486 Y106.568 E9.72378
G1 X138.452 Y108.247 E9.80977
G1 X140.413 Y109.83 E9.89359
G1 X142.396 Y111.337 E9.97643
G1 X144.48 Y112.834 E10.06177
G1 X145.325 Y113.405 E10.09569
G1 X146.052 Y113.912 E10.12517
G1 X146.784 Y114.471 E10.1558
G1 X147.464 Y115.092 E10.18643
G1 X148.088 Y115.769 E10.21706
G1 X148.651 Y116.497 E10.24767
G1 X149.149 Y117.272 E10.27831
G1 X149.577 Y118.087 E10.30892
G1 X149.933 Y118.936 E10.33954
G1 X150.214 Y119.813 E10.37017
G1 X150.418 Y120.71 E10.40077
G1 X150.543 Y121.622 E10.43139
G1 X150.584 Y122.28 E10.45331
G1 X150.599 Y122.931 E10.47497
G1 X150.598 Y139.394 E11.02253
G1 X150.589 Y140.121 E11.04671
G1 X150.538 Y141.04 E11.07733
G1 X150.407 Y141.952 E11.10797
G1 X150.197 Y142.848 E11.13858
G1 X149.911 Y143.723 E11.1692
G1 X149.55 Y144.57 E11.19982
G1 X149.116 Y145.382 E11.23045
G1 X148.614 Y146.154 E11.26107
G1 X148.046 Y146.879 E11.29171
G1 X147.418 Y147.552 E11.32232
G1 X146.734 Y148.168 E11.35294
G1 X145.999 Y148.722 E11.38355
G1 X145.219 Y149.211 E11.41417
G1 X144.399 Y149.63 E11.4448
G1 X143.546 Y149.976 E11.47541
G1 X142.666 Y150.247 E11.50604
G1 X141.766 Y150.44 E11.53665
G1 X140.852 Y150.555 E11.56729
G1 X140.287 Y150.586 E11.58611
G1 X139.669 Y150.599 E11.60667
G1 X95.571 Y150.598 E13.07338
G1 X94.873 Y150.589 E13.0966
G1 X93.954 Y150.537 E13.12721
G1 X93.043 Y150.406 E13.15782
G1 X92.147 Y150.196 E13.18843
G1 X91.272 Y149.909 E13.21906
G1 X90.425 Y149.547 E13.2497
G1 X89.613 Y149.113 E13.28032
G1 X88.842 Y148.611 E13.31092
G1 X88.117 Y148.043 E13.34155
G1 X87.444 Y147.414 E13.37219
G1 X86.829 Y146.73 E13.40278
G1 X86.275 Y145.995 E13.4334
G1 X85.787 Y145.214 E13.46403
G1 X85.368 Y144.394 E13.49465
G1 X85.022 Y143.541 E13.52527
G1 X84.752 Y142.661 E13.55588
G1 X84.559 Y141.76 E13.58653
G1 X84.445 Y140.847 E13.61713
G1 X84.414 Y140.276 E13.63615
G1 X84.401 Y139.657 E13.65675
G1 X84.402 Y95.532 E15.12435
G1 X84.411 Y94.867 E15.14647
G1 X84.463 Y93.947 E15.17712
G1 X84.595 Y93.036 E15.20773
G1 X84.806 Y92.14 E15.23835
G1 X85.093 Y91.265 E15.26898
G1 X85.456 Y90.419 E15.2996
G1 X85.89 Y89.607 E15.33022
G1 X86.393 Y88.836 E15.36084
G1 X86.962 Y88.112 E15.39147
G1 X87.59 Y87.44 E15.42206
G0 F6000 X87.982 Y87.618
G1 F1200 X88.663 Y87.025 E15.45209
G1 X89.395 Y86.495 E15.48215
G1 X90.17 Y86.032 E15.51218
G1 X90.983 Y85.639 E15.54221
G1 X91.828 Y85.319 E15.57226
G1 X92.697 Y85.076 E15.60227
G1 X93.585 Y84.91 E15.63232
G1 X94.724 Y84.814 E15.67034
G1 X95.331 Y84.801 E15.69053
G1 X111.692 Y84.801 E16.2347
G1 X112.539 Y84.812 E16.26287
G1 X113.441 Y84.865 E16.29293
G1 X114.334 Y84.997 E16.32295
G1 X115.212 Y85.208 E16.35299
G1 X116.068 Y85.496 E16.38302
G1 X116.896 Y85.858 E16.41308
G1 X117.688 Y86.292 E16.44312
G1 X118.438 Y86.795 E16.47315
G1 X119.141 Y87.361 E16.50317
G1 X119.791 Y87.988 E16.53321
G1 X120.383 Y88.67 E16.56325
G1 X120.844 Y89.298 E16.58916
G1 X121.13 Y89.721 E16.60614
G1 X122.641 Y91.887 E16.69398
G1 X124.126 Y93.89 E16.77691
G1 X125.713 Y95.912 E16.8624
G1 X127.328 Y97.852 E16.94636
G1 X129.012 Y99.763 E17.03108
G1 X130.771 Y101.651 E17.1169
G1 X132.509 Y103.41 E17.19915
G1 X134.371 Y105.193 E17.28489
G1 X136.241 Y106.885 E17.36877
G1 X138.203 Y108.561 E17.4546
G1 X140.148 Y110.131 E17.53773
G1 X142.183 Y111.678 E17.62275
G1 X144.229 Y113.146 E17.70651
G1 X144.968 Y113.645 E17.73617
G1 X145.824 Y114.241 E17.77086
G1 X146.541 Y114.789 E17.80087
G1 X147.207 Y115.4 E17.83093
G1 X147.816 Y116.066 E17.86095
G1 X148.364 Y116.784 E17.89099
G1 X148.846 Y117.548 E17.92104
G1 X149.259 Y118.351 E17.95107
G1 X149.599 Y119.188 E17.98112
G1 X149.864 Y120.051 E18.01114
G1 X150.051 Y120.935 E18.0412
G1 X150.159 Y121.831 E18.07121
G1 X150.184 Y122.292 E18.08657
G1 X150.199 Y122.931 E18.10783
G1 X150.198 Y139.389 E18.65522
G1 X150.189 Y140.116 E18.67941
G1 X150.138 Y141.018 E18.70945
G1 X150.007 Y141.912 E18.73951
G1 X149.798 Y142.79 E18.76953
G1 X149.512 Y143.647 E18.79957
G1 X149.151 Y144.475 E18.82962
G1 X148.719 Y145.267 E18.85962
G1 X148.218 Y146.019 E18.88968
G1 X147.652 Y146.723 E18.91972
G1 X147.027 Y147.374 E18.94974
G1 X146.346 Y147.968 E18.97979
G1 X145.615 Y148.499 E19.00984
G1 X144.841 Y148.963 E19.03986
G1 X144.028 Y149.357 E19.06991
G1 X143.184 Y149.677 E19.09993
G1 X142.314 Y149.922 E19.12999
G1 X141.427 Y150.088 E19.16
G1 X140.276 Y150.186 E19.19843
G1 X139.669 Y150.199 E19.21862
G1 X95.576 Y150.198 E20.68516
G1 X94.878 Y150.189 E20.70838
G1 X93.977 Y150.138 E20.73839
G1 X93.083 Y150.006 E20.76845
G1 X92.205 Y149.797 E20.79847
G1 X91.348 Y149.51 E20.82853
G1 X90.521 Y149.149 E20.85854
G1 X89.728 Y148.716 E20.88859
G1 X88.977 Y148.215 E20.91862
G1 X88.273 Y147.649 E20.94866
G1 X87.622 Y147.023 E20.9787
G1 X87.029 Y146.342 E21.00873
G1 X86.499 Y145.611 E21.03876
G1 X86.035 Y144.836 E21.06881
G1 X85.641 Y144.023 E21.09886
G1 X85.321 Y143.179 E21.12888
G1 X85.077 Y142.309 E21.15893
G1 X84.911 Y141.421 E21.18898
G1 X84.814 Y140.266 E21.22753
G1 X84.801 Y139.657 E21.24779
G1 X84.802 Y95.537 E22.71522
G1 X84.811 Y94.872 E22.73734
G1 X84.863 Y93.97 E22.7674
G1 X84.995 Y93.077 E22.79742
G1 X85.205 Y92.199 E22.82745
G1 X85.492 Y91.342 E22.85751
G1 X85.854 Y90.515 E22.88753
G1 X86.287 Y89.723 E22.91755
G1 X86.789 Y88.972 E22.9476
G1 X87.356 Y88.268 E22.97766
G1 X87.982 Y87.618 E23.00768
G1 F2700 E18.00768
;MESH:esquinero.stl
G0 F6000 X95.421 Y94.336
G0 X95.601 Y139.399
;TYPE:WALL-INNER
G1 F2700 E23.00768
G1 F1200 X139.399 Y139.399 E24.46441
G1 X139.399 Y123.202 E25.00312
G1 X116.126 Y123.201 E25.77718
G1 X115.775 Y123.188 E25.78887
G1 X115.445 Y123.158 E25.79989
G1 X115.037 Y123.096 E25.81361
G1 X114.418 Y122.926 E25.83496
G1 X113.847 Y122.667 E25.85582
G1 X113.503 Y122.46 E25.86917
G1 X113.11 Y122.165 E25.88551
G1 X112.794 Y121.831 E25.90081
G1 X112.526 Y121.474 E25.91565
G1 X112.246 Y120.999 E25.93399
G1 X112.023 Y120.408 E25.955
G1 X111.901 Y119.953 E25.97067
G1 X111.826 Y119.459 E25.98729
G1 X111.799 Y118.812 E26.00883
G1 X111.799 Y95.601 E26.78083
G1 X95.601 Y95.601 E27.31958
G1 X95.601 Y139.399 E28.7763
G0 F6000 X95.201 Y139.799
;TYPE:WALL-OUTER
G1 F1200 X139.799 Y139.799 E30.25964
G1 X139.799 Y122.802 E30.82496
G1 X116.14 Y122.801 E31.61186
G1 X115.811 Y122.79 E31.62281
G1 X115.505 Y122.762 E31.63303
G1 X115.074 Y122.695 E31.64754
G1 X114.554 Y122.55 E31.66549
G1 X114.051 Y122.323 E31.68385
G1 X113.742 Y122.139 E31.69581
G1 X113.374 Y121.865 E31.71107
G1 X113.087 Y121.558 E31.72505
G1 X112.836 Y121.219 E31.73908
G1 X112.607 Y120.827 E31.75418
G1 X112.414 Y120.317 E31.77231
G1 X112.297 Y119.897 E31.78681
G1 X112.22 Y119.376 E31.80433
G1 X112.199 Y118.798 E31.82357
G1 X112.199 Y95.201 E32.60841
G1 X95.201 Y95.201 E33.17376
G1 X95.201 Y139.799 E34.6571
G0 F6000 X95.471 Y139.529
G0 X95.701 Y139.039
G0 X95.961 Y139.039
;TYPE:SKIN
G1 F1200 X139.039 Y139.039 E36.08988
G1 X139.039 Y123.563 E36.60461
G1 X116.14 Y123.562 E37.36624
G1 X115.787 Y123.55 E37.37798
G1 X115.438 Y123.519 E37.38964
G1 X114.87 Y123.428 E37.40877
G1 X114.308 Y123.269 E37.4282
G1 X113.744 Y123.02 E37.4487
G1 X113.288 Y122.75 E37.46633
G1 X112.877 Y122.444 E37.48337
G1 X112.516 Y122.062 E37.50085
G1 X112.191 Y121.621 E37.51907
G1 X111.923 Y121.164 E37.53669
G1 X111.67 Y120.488 E37.5607
G1 X111.551 Y120.048 E37.57586
G1 X111.461 Y119.425 E37.5968
G1 X111.439 Y118.828 E37.61667
G1 X111.439 Y95.961 E38.37723
G1 X95.961 Y95.961 E38.89203
G1 X95.961 Y103.7 E39.14943
G1 X95.961 Y139.039 E40.32481
G0 F6000 X96.411 Y138.838
G1 F1200 X96.16 Y138.587 E40.33661
G0 F6000 X96.16 Y138.021
G1 F1200 X96.977 Y138.838 E40.37504
G0 F6000 X97.543 Y138.838
G1 F1200 X96.16 Y137.455 E40.44009
G0 F6000 X96.16 Y136.89
G1 F1200 X98.108 Y138.838 E40.53172
G0 F6000 X98.674 Y138.838
G1 F1200 X96.16 Y136.324 E40.64997
G0 F6000 X96.16 Y135.758
G1 F1200 X99.24 Y138.838 E40.79485
G0 F6000 X99.806 Y138.838
G1 F1200 X96.16 Y135.193 E40.96632
G0 F6000 X96.16 Y134.627
G1 F1200 X100.371 Y138.838 E41.16439
G0 F6000 X100.937 Y138.838
G1 F1200 X96.16 Y134.061 E41.38909
G0 F6000 X96.16 Y133.496
G1 F1200 X101.503 Y138.838 E41.64038
G0 F6000 X102.068 Y138.838
G1 F1200 X96.16 Y132.93 E41.91828
G0 F6000 X96.16 Y132.364
G1 F1200 X102.634 Y138.838 E42.22279
G0 F6000 X103.2 Y138.838
G1 F1200 X96.16 Y131.799 E42.55391
G0 F6000 X96.16 Y131.233
G1 F1200 X103.765 Y138.838 E42.91163
G0 F6000 X104.331 Y138.838
G1 F1200 X96.16 Y130.667 E43.29596
G0 F6000 X96.16 Y130.101
G1 F1200 X104.897 Y138.838 E43.70693
G0 F6000 X105.462 Y138.838
G1 F1200 X96.16 Y129.536 E44.14446
G0 F6000 X96.16 Y128.97
G1 F1200 X106.028 Y138.838 E44.60862
G0 F6000 X106.594 Y138.838
G1 F1200 X96.16 Y128.404 E45.09941
G0 F6000 X96.16 Y127.839
G1 F1200 X107.159 Y138.838 E45.61677
G0 F6000 X107.725 Y138.838
G1 F1200 X96.16 Y127.273 E46.16075
G0 F6000 X96.16 Y126.707
G1 F1200 X108.291 Y138.838 E46.73135
G0 F6000 X108.856 Y138.838
G1 F1200 X96.16 Y126.142 E47.32854
G0 F6000 X96.16 Y125.576
G1 F1200 X109.422 Y138.838 E47.95234
G0 F6000 X109.988 Y138.838
G1 F1200 X96.16 Y125.01 E48.60277
G0 F6000 X96.16 Y124.445
G1 F1200 X110.554 Y138.838 E49.27979
G0 F6000 X111.119 Y138.838
G1 F1200 X96.16 Y123.879 E49.98342
G0 F6000 X96.16 Y123.313
G1 F1200 X111.685 Y138.838 E50.71367
G0 F6000 X112.251 Y138.838
G1 F1200 X96.16 Y122.748 E51.47051
G0 F6000 X96.16 Y122.182
G1 F1200 X112.816 Y138.838 E52.25396
G0 F6000 X113.382 Y138.838
G1 F1200 X96.16 Y121.616 E53.06403
G0 F6000 X96.16 Y121.051
G1 F1200 X113.948 Y138.838 E53.9007
G0 F6000 X114.513 Y138.838
G1 F1200 X96.16 Y120.485 E54.76397
G0 F6000 X96.16 Y119.919
G1 F1200 X115.079 Y138.838 E55.65386
G0 F6000 X115.645 Y138.838
G1 F1200 X96.16 Y119.353 E56.57038
G0 F6000 X96.16 Y118.788
G1 F1200 X116.21 Y138.838 E57.51347
G0 F6000 X116.776 Y138.838
G1 F1200 X96.16 Y118.222 E58.48318
G0 F6000 X96.16 Y117.656
G1 F1200 X117.342 Y138.838 E59.47952
G0 F6000 X117.907 Y138.838
G1 F1200 X96.16 Y117.091 E60.50243
G0 F6000 X96.16 Y116.525
G1 F1200 X118.473 Y138.838 E61.55196
G0 F6000 X119.039 Y138.838
G1 F1200 X96.16 Y115.959 E62.62812
G0 F6000 X96.16 Y115.394
G1 F1200 X119.604 Y138.838 E63.73086
G0 F6000 X120.17 Y138.838
G1 F1200 X96.16 Y114.828 E64.86021
G0 F6000 X96.16 Y114.262
G1 F1200 X120.736 Y138.838 E66.01619
G0 F6000 X121.302 Y138.838
G1 F1200 X96.16 Y113.697 E67.19877
G0 F6000 X96.16 Y113.131
G1 F1200 X121.867 Y138.838 E68.40795
G0 F6000 X122.433 Y138.838
G1 F1200 X96.16 Y112.565 E69.64375
G0 F6000 X96.16 Y112
G1 F1200 X122.999 Y138.838 E70.90615
G0 F6000 X123.564 Y138.838
G1 F1200 X96.16 Y111.434 E72.19515
G0 F6000 X96.16 Y110.868
G1 F1200 X124.13 Y138.838 E73.51077
G0 F6000 X124.696 Y138.838
G1 F1200 X96.16 Y110.303 E74.853
G0 F6000 X96.16 Y109.737
G1 F1200 X125.261 Y138.838 E76.22182
G0 F6000 X125.827 Y138.838
G1 F1200 X96.16 Y109.171 E77.61726
G0 F6000 X96.16 Y108.605
G1 F1200 X126.393 Y138.838 E79.03933
G0 F6000 X126.958 Y138.838
G1 F1200 X96.16 Y108.04 E80.48797
G0 F6000 X96.16 Y107.474
G1 F1200 X127.524 Y138.838 E81.96324
G0 F6000 X128.09 Y138.838
G1 F1200 X96.16 Y106.908 E83.46513
G0 F6000 X96.16 Y106.343
G1 F1200 X128.655 Y138.838 E84.9936
G0 F6000 X129.221 Y138.838
G1 F1200 X113.477 Y123.094 E85.73414
G0 F6000 X113.709 Y122.702
G0 X114.588 Y123.08
G0 X114.466 Y123.517
G1 F1200 X129.787 Y138.838 E86.4548
G0 F6000 X130.353 Y138.838
G1 F1200 X115.199 Y123.684 E87.1676
