;FLAVOR:Marlin
;TIME:7108
;Filament used: 5.35055m
;Layer height: 0.2
;MINX:70.202
;MINY:9.5
;MINZ:0.2
;MAXX:164.799
;MAXY:72.49
;MAXZ:70
;Generated with Cura_SteamEngine 5.3.0
M140 S60
M105
M190 S60
M104 S205
M105
M109 S205
M82 ;absolute extrusion mode
; Ender 3 Custom Start G-code
G92 E0 ; Reset Extruder
G28 ; Home all axes
G1 Z2.0 F3000 ; Move Z Axis up little to prevent scratching of Heat Bed
G1 X0.1 Y20 Z0.3 F5000.0 ; Move to start position
G1 X0.1 Y200.0 Z0.3 F1500.0 E15 ; Draw the first line
G1 X0.4 Y200.0 Z0.3 F5000.0 ; Move to side a little
G1 X0.4 Y20 Z0.3 F1500.0 E30 ; Draw the second line
G92 E0 ; Reset Extruder
G1 Z2.0 F3000 ; Move Z Axis up little to prevent scratching of Heat Bed
G1 X5 Y20 Z0.3 F5000.0 ; Move over to prevent blob squish
G92 E0
G92 E0
G1 F2700 E-5
;LAYER_COUNT:350
;LAYER:0
M107
G0 F6000 X101.4 Y9.5 Z0.2
;TYPE:SKIRT
G1 F2700 E0
G1 F1200 X100.983 Y9.955 E0.02053
G1 X100.435 Y10.673 E0.05057
G1 X99.929 Y11.4 E0.08003
G1 X99.344 Y12.265 E0.11476
G1 X97.871 Y14.317 E0.19877
G1 X96.322 Y16.353 E0.28386
G1 X94.747 Y18.304 E0.36726
G1 X93.08 Y20.254 E0.45259
G1 X91.383 Y22.131 E0.53675
G1 X89.601 Y23.99 E0.6224
G1 X87.826 Y25.744 E0.7054
G1 X85.958 Y27.485 E0.79033
G1 X84.052 Y29.163 E0.87479
G1 X82.103 Y30.785 E0.95912
G1 X80.086 Y32.368 E1.0444
G1 X78.06 Y33.868 E1.12825
G1 X75.913 Y35.366 E1.21532
G1 X75.488 Y35.654 E1.23239
G1 X74.87 Y36.108 E1.2579
G1 X74.188 Y36.7 E1.28794
G1 X73.561 Y37.35 E1.31797
G1 X72.994 Y38.053 E1.34801
G1 X72.492 Y38.804 E1.37806
G1 X72.058 Y39.596 E1.4081
G1 X71.696 Y40.423 E1.43812
G1 X71.408 Y41.279 E1.46816
G1 X71.197 Y42.157 E1.49819
G1 X71.065 Y43.051 E1.52825
G1 X71.012 Y43.952 E1.55827
G1 X71.002 Y44.656 E1.58169
G1 X71.002 Y61.125 E2.12945
G1 X71.016 Y61.766 E2.15077
G1 X71.111 Y62.896 E2.18849
G1 X71.276 Y63.784 E2.21853
G1 X71.519 Y64.654 E2.24858
G1 X71.837 Y65.499 E2.2786
G1 X72.23 Y66.312 E2.30864
G1 X72.692 Y67.088 E2.33868
G1 X73.222 Y67.819 E2.36871
G1 X73.814 Y68.501 E2.39874
G1 X74.464 Y69.128 E2.42878
G1 X75.167 Y69.695 E2.45882
G1 X75.918 Y70.197 E2.48887
G1 X76.709 Y70.631 E2.51888
G1 X77.537 Y70.994 E2.54894
G1 X78.393 Y71.282 E2.57898
G1 X79.271 Y71.493 E2.60902
G1 X80.164 Y71.625 E2.63904
G1 X81.066 Y71.678 E2.66909
G1 X81.763 Y71.688 E2.69228
G1 X153.469 Y71.69 E5.07723
G1 X154.076 Y71.677 E5.09742
G1 X155.227 Y71.579 E5.13584
G1 X156.114 Y71.413 E5.16586
G1 X156.984 Y71.168 E5.19592
G1 X157.828 Y70.848 E5.22594
G1 X158.641 Y70.454 E5.25599
G1 X159.415 Y69.99 E5.286
G1 X160.146 Y69.459 E5.31606
G1 X160.827 Y68.865 E5.34611
G1 X161.452 Y68.214 E5.37613
G1 X162.018 Y67.51 E5.40617
G1 X162.519 Y66.758 E5.43623
G1 X162.951 Y65.966 E5.46623
G1 X163.312 Y65.138 E5.49627
G1 X163.598 Y64.281 E5.52632
G1 X163.807 Y63.403 E5.55634
G1 X163.938 Y62.509 E5.58639
G1 X163.989 Y61.607 E5.61644
G1 X163.998 Y60.88 E5.64062
G1 X163.999 Y44.434 E6.18762
G1 X163.984 Y43.795 E6.20888
G1 X163.96 Y43.327 E6.22447
G1 X163.852 Y42.431 E6.25448
G1 X163.665 Y41.547 E6.28454
G1 X163.401 Y40.684 E6.31455
G1 X163.061 Y39.847 E6.3446
G1 X162.648 Y39.043 E6.37466
G1 X162.167 Y38.279 E6.40469
G1 X161.619 Y37.561 E6.43473
G1 X161.01 Y36.894 E6.46477
G1 X160.345 Y36.284 E6.49479
G1 X159.628 Y35.735 E6.52482
G1 X158.804 Y35.161 E6.55822
G1 X158.071 Y34.666 E6.58764
G1 X155.981 Y33.166 E6.6732
G1 X153.968 Y31.635 E6.75732
G1 X152.006 Y30.053 E6.84115
G1 X150.055 Y28.387 E6.92648
G1 X148.16 Y26.673 E7.01146
G1 X146.332 Y24.924 E7.09561
G1 X144.581 Y23.152 E7.17847
G1 X142.822 Y21.264 E7.26429
G1 X141.13 Y19.345 E7.34938
G1 X139.518 Y17.409 E7.43318
G1 X137.954 Y15.418 E7.51738
G1 X136.426 Y13.355 E7.60277
G1 X134.967 Y11.265 E7.68755
G1 X134.645 Y10.789 E7.70666
G1 X134.183 Y10.16 E7.73262
G1 X133.61 Y9.5 E7.76169
G1 F2700 E2.76169
G0 F6000 X100.859 Y9.5
G1 F2700 E7.76169
G1 F1200 X100.665 Y9.712 E7.77125
G1 X100.117 Y10.43 E7.80129
G1 X99.601 Y11.171 E7.83132
G1 X99.019 Y12.032 E7.86589
G1 X97.546 Y14.084 E7.9499
G1 X96.011 Y16.102 E8.03423
G1 X94.443 Y18.044 E8.11725
G1 X92.783 Y19.986 E8.20222
G1 X91.094 Y21.854 E8.28598
G1 X89.32 Y23.705 E8.37125
G1 X87.553 Y25.451 E8.45388
G1 X85.685 Y27.192 E8.53881
G1 X83.796 Y28.856 E8.62254
G1 X81.856 Y30.47 E8.70647
G1 X79.839 Y32.053 E8.79175
G1 X77.831 Y33.54 E8.87486
G1 X75.684 Y35.038 E8.96193
G1 X75.264 Y35.323 E8.97881
G1 X74.633 Y35.786 E9.00484
G1 X73.9 Y36.422 E9.03712
G1 X73.273 Y37.072 E9.06716
G1 X72.661 Y37.831 E9.09959
G1 X72.159 Y38.582 E9.12963
G1 X71.707 Y39.404 E9.16083
G1 X71.317 Y40.295 E9.19318
G1 X71.029 Y41.151 E9.22322
G1 X70.801 Y42.099 E9.25565
G1 X70.669 Y42.993 E9.28571
G1 X70.612 Y43.946 E9.31746
G1 X70.602 Y44.65 E9.34088
G1 X70.602 Y61.134 E9.88914
G1 X70.617 Y61.8 E9.91129
G1 X70.712 Y62.93 E9.94901
G1 X70.883 Y63.857 E9.98036
G1 X71.134 Y64.762 E10.0116
G1 X71.463 Y65.64 E10.04278
G1 X71.886 Y66.517 E10.07517
G1 X72.348 Y67.293 E10.10521
G1 X72.898 Y68.054 E10.13644
G1 X73.536 Y68.789 E10.16881
G1 X74.186 Y69.416 E10.19885
G1 X74.945 Y70.028 E10.23127
G1 X75.696 Y70.53 E10.26132
G1 X76.517 Y70.982 E10.29249
G1 X77.409 Y71.373 E10.32488
G1 X78.265 Y71.661 E10.35492
G1 X79.213 Y71.889 E10.38735
G1 X80.106 Y72.021 E10.41738
G1 X81.043 Y72.077 E10.4486
G1 X81.757 Y72.088 E10.47235
G1 X153.469 Y72.09 E12.8575
G1 X154.11 Y72.076 E12.87882
G1 X155.261 Y71.978 E12.91724
G1 X156.188 Y71.806 E12.9486
G1 X157.126 Y71.542 E12.98101
G1 X157.97 Y71.222 E13.01103
G1 X158.847 Y70.797 E13.04345
G1 X159.65 Y70.314 E13.07462
G1 X160.381 Y69.783 E13.10467
G1 X161.116 Y69.142 E13.1371
G1 X161.764 Y68.465 E13.16827
G1 X162.33 Y67.761 E13.19832
G1 X162.852 Y66.98 E13.22956
G1 X163.318 Y66.126 E13.26192
G1 X163.679 Y65.298 E13.29196
G1 X163.987 Y64.374 E13.32436
G1 X164.203 Y63.461 E13.35556
G1 X164.334 Y62.567 E13.38561
G1 X164.388 Y61.63 E13.41683
G1 X164.398 Y60.885 E13.44161
G1 X164.399 Y44.434 E13.98877
G1 X164.384 Y43.786 E14.01033
G1 X164.357 Y43.279 E14.02722
G1 X164.249 Y42.383 E14.05723
G1 X164.048 Y41.43 E14.08963
G1 X163.784 Y40.567 E14.11965
G1 X163.432 Y39.696 E14.15089
G1 X162.987 Y38.83 E14.18327
G1 X162.506 Y38.066 E14.2133
G1 X161.937 Y37.318 E14.24456
G1 X161.305 Y36.624 E14.27578
G1 X160.588 Y35.966 E14.30815
G1 X159.871 Y35.417 E14.33818
G1 X159.033 Y34.833 E14.37216
G1 X158.304 Y34.341 E14.40141
G1 X156.214 Y32.841 E14.48697
G1 X154.21 Y31.317 E14.57071
G1 X152.266 Y29.749 E14.65378
G1 X150.315 Y28.083 E14.73911
G1 X148.437 Y26.384 E14.82334
G1 X146.609 Y24.635 E14.90749
G1 X144.874 Y22.879 E14.98959
G1 X143.115 Y20.991 E15.07542
G1 X141.43 Y19.08 E15.16015
G1 X139.833 Y17.162 E15.24317
G1 X138.269 Y15.171 E15.32738
G1 X136.754 Y13.126 E15.41202
G1 X135.295 Y11.036 E15.4968
G1 X134.976 Y10.565 E15.51572
G1 X134.505 Y9.923 E15.5422
G1 X134.139 Y9.5 E15.56081
G1 F2700 E10.56081
G0 F6000 X100.323 Y9.5
G1 F2700 E15.56081
G1 F1200 X99.799 Y10.187 E15.58955
G1 X99.273 Y10.942 E15.62015
G1 X98.694 Y11.799 E15.65455
G1 X97.221 Y13.851 E15.73856
G1 X95.7 Y15.851 E15.82213
G1 X94.139 Y17.784 E15.90477
G1 X92.486 Y19.718 E15.98939
G1 X90.805 Y21.577 E16.07275
G1 X89.039 Y23.42 E16.15765
G1 X87.28 Y25.158 E16.2399
G1 X85.412 Y26.899 E16.32483
G1 X83.54 Y28.549 E16.40782
G1 X81.609 Y30.155 E16.49136
G1 X79.592 Y31.738 E16.57664
G1 X77.602 Y33.212 E16.659
G1 X75.459 Y34.707 E16.74591
G1 X75.039 Y34.992 E16.76279
G1 X74.396 Y35.464 E16.78932
G1 X73.612 Y36.144 E16.82384
G1 X72.985 Y36.794 E16.85388
G1 X72.328 Y37.609 E16.8887
G1 X71.808 Y38.389 E16.91988
G1 X71.356 Y39.211 E16.95108
G1 X70.938 Y40.167 E16.98578
G1 X70.64 Y41.057 E17.017
G1 X70.412 Y42.005 E17.04943
G1 X70.273 Y42.935 E17.0807
G1 X70.213 Y43.922 E17.11359
G1 X70.202 Y44.644 E17.13761
G1 X70.202 Y61.143 E17.68637
G1 X70.218 Y61.834 E17.70935
G1 X70.313 Y62.964 E17.74707
G1 X70.49 Y63.93 E17.77973
G1 X70.759 Y64.902 E17.81328
G1 X71.088 Y65.78 E17.84446
G1 X71.542 Y66.722 E17.87924
G1 X72.004 Y67.498 E17.90928
G1 X72.596 Y68.316 E17.94287
G1 X73.258 Y69.077 E17.97641
G1 X73.908 Y69.704 E18.00645
G1 X74.723 Y70.361 E18.04127
G1 X75.474 Y70.863 E18.07131
G1 X76.356 Y71.348 E18.10479
G1 X77.281 Y71.752 E18.13836
G1 X78.171 Y72.05 E18.16958
G1 X79.119 Y72.278 E18.20201
G1 X80.048 Y72.417 E18.23325
G1 X81.019 Y72.476 E18.26561
G1 X81.751 Y72.488 E18.28996
G1 X153.469 Y72.49 E20.67531
G1 X154.144 Y72.475 E20.69777
G1 X155.295 Y72.377 E20.73619
G1 X156.296 Y72.191 E20.77005
G1 X157.268 Y71.916 E20.80365
G1 X158.112 Y71.596 E20.83367
G1 X159.053 Y71.14 E20.86845
G1 X159.885 Y70.638 E20.90077
G1 X160.616 Y70.107 E20.93082
G1 X161.405 Y69.419 E20.96564
G1 X162.076 Y68.716 E20.99796
G1 X162.642 Y68.012 E21.028
G1 X163.185 Y67.202 E21.06044
G1 X163.685 Y66.286 E21.09515
G1 X164.046 Y65.458 E21.12519
G1 X164.376 Y64.466 E21.15996
G1 X164.599 Y63.519 E21.19232
G1 X164.73 Y62.625 E21.22237
G1 X164.787 Y61.653 E21.25476
G1 X164.798 Y60.89 E21.28014
G1 X164.799 Y44.434 E21.82747
G1 X164.784 Y43.777 E21.84932
G1 X164.754 Y43.231 E21.86751
G1 X164.646 Y42.335 E21.89753
G1 X164.431 Y41.313 E21.93226
G1 X164.167 Y40.45 E21.96228
G1 X163.803 Y39.546 E21.99469
G1 X163.326 Y38.617 E22.02943
G1 X162.845 Y37.853 E22.05945
G1 X162.233 Y37.049 E22.09306
G1 X161.601 Y36.355 E22.12428
G1 X160.831 Y35.648 E22.15905
G1 X160.114 Y35.099 E22.18908
G1 X159.262 Y34.505 E22.22363
G1 X158.528 Y34.009 E22.25309
G1 X156.447 Y32.516 E22.33828
G1 X154.452 Y30.999 E22.42164
G1 X152.526 Y29.445 E22.50395
G1 X150.575 Y27.779 E22.58928
G1 X148.714 Y26.095 E22.67275
G1 X146.886 Y24.346 E22.7569
G1 X145.167 Y22.606 E22.83825
G1 X143.408 Y20.718 E22.92408
G1 X141.73 Y18.815 E23.00846
G1 X140.148 Y16.915 E23.0907
G1 X138.584 Y14.924 E23.1749
G1 X137.082 Y12.897 E23.25881
G1 X135.623 Y10.807 E23.34359
G1 X135.299 Y10.328 E23.36282
G1 X134.828 Y9.686 E23.38931
G1 X134.667 Y9.5 E23.39749
G1 F2700 E18.39749
;MESH:Tres_lados.stl
G0 F6000 X134.661 Y43.423
G0 X153.199 Y60.89
;TYPE:WALL-INNER
G1 F2700 E23.39749
G1 F1200 X153.199 Y44.691 E23.93627
G1 X129.653 Y44.689 E24.71941
G1 X129.012 Y44.614 E24.74088
G1 X128.609 Y44.529 E24.75458
G1 X128.264 Y44.425 E24.76656
G1 X127.755 Y44.214 E24.78489
G1 X127.462 Y44.052 E24.79602
G1 X126.956 Y43.702 E24.81649
G1 X126.514 Y43.239 E24.83778
G1 X126.228 Y42.811 E24.8549
G1 X126.004 Y42.382 E24.871
G1 X125.83 Y41.924 E24.88729
G1 X125.734 Y41.578 E24.89923
G1 X125.652 Y41.125 E24.91455
G1 X125.618 Y40.814 E24.92495
G1 X125.599 Y40.31 E24.94173
G1 X125.599 Y17.091 E25.71399
G1 X109.401 Y17.091 E26.25274
G1 X109.401 Y40.359 E27.02664
G1 X109.391 Y40.684 E27.03745
G1 X109.357 Y41.05 E27.04968
G1 X109.295 Y41.472 E27.06386
G1 X109.17 Y41.922 E27.0794
G1 X108.954 Y42.488 E27.09955
G1 X108.681 Y42.959 E27.11765
G1 X108.385 Y43.356 E27.13412
G1 X108.032 Y43.696 E27.15043
G1 X107.632 Y44.003 E27.1672
G1 X107.219 Y44.226 E27.18281
G1 X106.796 Y44.404 E27.19807
G1 X106.314 Y44.549 E27.21481
G1 X105.827 Y44.641 E27.2313
G1 X105.426 Y44.678 E27.24469
G1 X105.005 Y44.692 E27.2587
G1 X81.801 Y44.691 E28.03047
G1 X81.802 Y60.889 E28.56922
G1 X153.199 Y60.89 E30.94389
G0 F6000 X153.599 Y61.29
;TYPE:WALL-OUTER
G1 F1200 X153.599 Y44.291 E31.50928
G1 X129.653 Y44.289 E32.30573
G1 X129.094 Y44.222 E32.32445
G1 X128.674 Y44.133 E32.33873
G1 X128.382 Y44.043 E32.34889
G1 X127.949 Y43.864 E32.36448
G1 X127.656 Y43.702 E32.37561
G1 X127.217 Y43.395 E32.39343
G1 X126.817 Y42.973 E32.41277
G1 X126.564 Y42.593 E32.42795
G1 X126.362 Y42.202 E32.44259
G1 X126.207 Y41.788 E32.4573
G1 X126.124 Y41.49 E32.46758
G1 X126.048 Y41.071 E32.48175
G1 X126.017 Y40.784 E32.49135
G1 X125.999 Y40.295 E32.50762
G1 X125.999 Y16.691 E33.2927
G1 X109.001 Y16.691 E33.85805
G1 X109.001 Y40.346 E34.64482
G1 X108.991 Y40.672 E34.65567
G1 X108.961 Y40.992 E34.66636
G1 X108.898 Y41.414 E34.68055
G1 X108.779 Y41.83 E34.69494
G1 X108.584 Y42.334 E34.71291
G1 X108.348 Y42.738 E34.72848
G1 X108.084 Y43.092 E34.74316
G1 X107.787 Y43.38 E34.75692
G1 X107.428 Y43.658 E34.77203
G1 X107.031 Y43.873 E34.78704
G1 X106.623 Y44.041 E34.80172
G1 X106.181 Y44.17 E34.81703
G1 X105.79 Y44.243 E34.83026
G1 X105.389 Y44.28 E34.84366
G1 X104.993 Y44.292 E34.85683
G1 X81.401 Y44.291 E35.64151
G1 X81.402 Y61.289 E36.20686
G1 X153.599 Y61.29 E38.60814
G0 F6000 X153.329 Y61.02
G0 X152.838 Y60.789
G0 X152.839 Y60.53
;TYPE:SKIN
G1 F1200 X82.162 Y60.529 E40.95887
G1 X82.161 Y45.051 E41.47367
G1 X105.014 Y45.052 E42.23376
G1 X105.396 Y45.04 E42.24648
G1 X105.878 Y44.998 E42.26257
G1 X106.342 Y44.913 E42.27826
G1 X106.833 Y44.773 E42.29524
G1 X107.303 Y44.585 E42.31208
G1 X107.825 Y44.308 E42.33173
G1 X108.341 Y43.905 E42.35351
G1 X108.658 Y43.594 E42.36828
G1 X108.979 Y43.161 E42.3862
G1 X109.269 Y42.668 E42.40523
G1 X109.496 Y42.085 E42.42604
G1 X109.651 Y41.531 E42.44517
G1 X109.712 Y41.111 E42.45929
G1 X109.749 Y40.732 E42.47195
G1 X109.761 Y40.365 E42.48416
G1 X109.761 Y17.451 E43.24629
G1 X125.239 Y17.451 E43.76109
G1 X125.239 Y40.319 E44.52168
G1 X125.259 Y40.834 E44.53882
G1 X125.299 Y41.194 E44.55087
G1 X125.375 Y41.623 E44.56536
G1 X125.481 Y42.021 E44.57906
G1 X125.669 Y42.519 E44.59676
G1 X125.915 Y42.992 E44.6145
G1 X126.242 Y43.474 E44.63387
G1 X126.71 Y43.967 E44.65648
G1 X127.27 Y44.356 E44.67916
G1 X127.598 Y44.538 E44.69163
G1 X128.078 Y44.741 E44.70897
G1 X128.445 Y44.859 E44.72179
G1 X129.003 Y44.977 E44.74076
G1 X129.634 Y45.048 E44.76188
G1 X152.839 Y45.051 E45.53368
G1 X152.839 Y60.53 E46.04851
G1 F2700 E41.04851
G0 F6000 X152.838 Y60.789
G0 X153.027 Y44.863
G0 X129.489 Y44.512
G0 X128.288 Y44.264
G0 X127.517 Y43.898
G0 X127.056 Y43.574
G0 X126.638 Y43.134
G0 X126.147 Y42.308
G0 X125.891 Y41.538
G0 X125.786 Y40.526
G0 X125.499 Y18.123
G0 X125.038 Y18.123
G1 F2700 E46.04851
G1 F1200 X124.566 Y17.651 E46.07071
G0 F6000 X124 Y17.651
G1 F1200 X125.038 Y18.689 E46.11954
G0 F6000 X125.038 Y19.255
G1 F1200 X123.434 Y17.651 E46.19499
G0 F6000 X122.868 Y17.651
G1 F1200 X125.038 Y19.82 E46.29703
G0 F6000 X125.038 Y20.386
G1 F1200 X122.303 Y17.651 E46.42568
G0 F6000 X121.737 Y17.651
G1 F1200 X125.038 Y20.952 E46.58095
G0 F6000 X125.038 Y21.517
G1 F1200 X121.171 Y17.651 E46.76282
G0 F6000 X120.606 Y17.651
G1 F1200 X125.038 Y22.083 E46.97128
G0 F6000 X125.038 Y22.649
G1 F1200 X120.04 Y17.651 E47.20637
G0 F6000 X119.474 Y17.651
G1 F1200 X125.038 Y23.215 E47.46809
G0 F6000 X125.038 Y23.78
G1 F1200 X118.909 Y17.651 E47.75638
G0 F6000 X118.343 Y17.651
G1 F1200 X125.038 Y24.346 E48.07129
G0 F6000 X125.038 Y24.912
G1 F1200 X117.777 Y17.651 E48.41282
G0 F6000 X117.212 Y17.651
G1 F1200 X125.038 Y25.477 E48.78094
G0 F6000 X125.038 Y26.043
G1 F1200 X116.646 Y17.651 E49.17567
G0 F6000 X116.08 Y17.651
G1 F1200 X125.038 Y26.609 E49.59703
G0 F6000 X125.038 Y27.174
G1 F1200 X115.515 Y17.651 E50.04496
G0 F6000 X114.949 Y17.651
G1 F1200 X125.038 Y27.74 E50.51951
G0 F6000 X125.038 Y28.306
G1 F1200 X114.383 Y17.651 E51.02069
G0 F6000 X113.818 Y17.651
G1 F1200 X125.038 Y28.871 E51.54845
G0 F6000 X125.038 Y29.437
G1 F1200 X113.252 Y17.651 E52.10282
G0 F6000 X112.686 Y17.651
G1 F1200 X125.038 Y30.003 E52.68383
G0 F6000 X125.038 Y30.568
G1 F1200 X112.12 Y17.651 E53.29142
G0 F6000 X111.555 Y17.651
G1 F1200 X125.038 Y31.134 E53.92562
G0 F6000 X125.038 Y31.7
G1 F1200 X110.989 Y17.651 E54.58645
G0 F6000 X110.423 Y17.651
G1 F1200 X125.038 Y32.265 E55.27387
G0 F6000 X125.038 Y32.831
G1 F1200 X109.96 Y17.753 E55.98309
G0 F6000 X109.96 Y18.319
G1 F1200 X125.038 Y33.397 E56.69231
G0 F6000 X125.038 Y33.963
G1 F1200 X109.96 Y18.884 E57.40156
G0 F6000 X109.96 Y19.45
G1 F1200 X125.038 Y34.528 E58.11078
G0 F6000 X125.038 Y35.094
G1 F1200 X109.96 Y20.016 E58.82
G0 F6000 X109.96 Y20.581
G1 F1200 X125.038 Y35.66 E59.52925
G0 F6000 X125.038 Y36.225
G1 F1200 X109.96 Y21.147 E60.23847
G0 F6000 X109.96 Y21.713
G1 F1200 X125.038 Y36.791 E60.9477
G0 F6000 X125.038 Y37.357
G1 F1200 X109.96 Y22.278 E61.65694
G0 F6000 X109.96 Y22.844
G1 F1200 X125.038 Y37.922 E62.36617
G0 F6000 X125.038 Y38.488
G1 F1200 X109.96 Y23.41 E63.07539
G0 F6000 X109.96 Y23.975
G1 F1200 X125.038 Y39.054 E63.78464
G0 F6000 X125.038 Y39.619
G1 F1200 X109.96 Y24.541 E64.49386
G0 F6000 X109.96 Y25.107
G1 F1200 X125.038 Y40.185 E65.20308
G0 F6000 X125.055 Y40.768
