;FLAVOR:Marlin
;TIME:7613
;Filament used: 6.85003m
;Layer height: 0.15
;MINX:62.2
;MINY:70.6
;MINZ:0.3
;MAXX:137.8
;MAXY:133.4
;MAXZ:60
;Generated with Cura_SteamEngine 4.4.0
M140 S60
M105
M190 S60
M104 S200
M105
M109 S200
M82 ;absolute extrusion mode
G28 ;Home
G1 Z15.0 F6000 ;Move the platform down 15mm
;Prime the extruder
G92 E0
G1 F200 E3
G92 E0
G92 E0
G92 E0
G1 F1500 E-6.5
;LAYER_COUNT:399
;LAYER:0
M107 P1
G0 F3600 X64.623 Y72.749 Z0.3
;TYPE:SKIRT
G1 F1500 E0
G1 F1800 X65.222 Y72.234 E0.03941
G1 X65.87 Y71.783 E0.0788
G1 X66.561 Y71.399 E0.11824
G1 X67.286 Y71.087 E0.15762
G1 X68.039 Y70.85 E0.197
G1 X68.813 Y70.691 E0.23642
G1 X69.598 Y70.61 E0.27579
G1 X70 Y70.6 E0.29586
G1 X130 Y70.6 E3.28927
G1 X130.789 Y70.64 E3.32868
G1 X131.569 Y70.759 E3.36805
G1 X132.334 Y70.957 E3.40747
G1 X133.074 Y71.231 E3.44684
G1 X133.783 Y71.579 E3.48624
G1 X134.454 Y71.997 E3.52568
G1 X135.078 Y72.48 E3.56505
G1 X135.651 Y73.023 E3.60443
G1 X136.166 Y73.622 E3.64385
G1 X136.617 Y74.27 E3.68323
G1 X137.001 Y74.961 E3.72267
G1 X137.313 Y75.686 E3.76205
G1 X137.55 Y76.439 E3.80143
G1 X137.709 Y77.213 E3.84086
G1 X137.79 Y77.998 E3.88023
G1 X137.8 Y78.4 E3.90029
G1 X137.8 Y81.6 E4.05994
G1 X137.76 Y82.389 E4.09935
G1 X137.641 Y83.169 E4.13872
G1 X137.443 Y83.934 E4.17814
G1 X137.169 Y84.674 E4.21751
G1 X137.014 Y84.99 E4.23507
G1 X137.313 Y85.686 E4.27286
G1 X137.55 Y86.439 E4.31224
G1 X137.709 Y87.213 E4.35167
G1 X137.79 Y87.998 E4.39104
G1 X137.8 Y88.4 E4.4111
G1 X137.8 Y91.6 E4.57075
G1 X137.76 Y92.389 E4.61016
G1 X137.641 Y93.169 E4.64953
G1 X137.443 Y93.934 E4.68895
G1 X137.169 Y94.674 E4.72832
G1 X137.014 Y94.99 E4.74588
G1 X137.313 Y95.686 E4.78367
G1 X137.55 Y96.439 E4.82306
G1 X137.709 Y97.213 E4.86248
G1 X137.79 Y97.998 E4.90185
G1 X137.8 Y98.4 E4.92191
G1 X137.8 Y101.6 E5.08156
G1 X137.76 Y102.389 E5.12097
G1 X137.641 Y103.169 E5.16034
G1 X137.443 Y103.934 E5.19976
G1 X137.169 Y104.674 E5.23913
G1 X136.821 Y105.383 E5.27853
G1 X136.433 Y106.006 E5.31515
G1 X136.617 Y106.27 E5.3312
G1 X137.001 Y106.961 E5.37064
G1 X137.313 Y107.686 E5.41002
G1 X137.55 Y108.439 E5.44941
G1 X137.709 Y109.213 E5.48883
G1 X137.79 Y109.998 E5.5282
G1 X137.8 Y110.4 E5.54826
G1 X137.8 Y113.6 E5.70791
G1 X137.76 Y114.389 E5.74732
G1 X137.641 Y115.169 E5.78669
G1 X137.443 Y115.934 E5.82611
G1 X137.169 Y116.674 E5.86548
G1 X136.821 Y117.383 E5.90488
G1 X136.433 Y118.006 E5.9415
G1 X136.617 Y118.27 E5.95755
G1 X137.001 Y118.961 E5.99699
G1 X137.313 Y119.686 E6.03637
G1 X137.55 Y120.439 E6.07576
G1 X137.709 Y121.213 E6.11518
G1 X137.79 Y121.998 E6.15455
G1 X137.8 Y122.4 E6.17461
G1 X137.8 Y125.6 E6.33426
G1 X137.76 Y126.389 E6.37367
G1 X137.641 Y127.169 E6.41304
G1 X137.443 Y127.934 E6.45246
G1 X137.169 Y128.674 E6.49183
G1 X136.821 Y129.383 E6.53123
G1 X136.403 Y130.054 E6.57067
G1 X135.92 Y130.678 E6.61004
G1 X135.377 Y131.251 E6.64943
G1 X134.778 Y131.766 E6.68884
G1 X134.13 Y132.217 E6.72822
G1 X133.439 Y132.601 E6.76766
G1 X132.714 Y132.913 E6.80704
G1 X131.961 Y133.15 E6.84643
G1 X131.187 Y133.309 E6.88585
G1 X130.402 Y133.39 E6.92522
G1 X130 Y133.4 E6.94528
G1 X70.151 Y133.4 E9.93116
G1 X69.738 Y133.389 E9.95177
G1 X69.587 Y133.381 E9.95932
G1 X68.802 Y133.299 E9.99869
G1 X68.029 Y133.139 E10.03808
G1 X67.276 Y132.901 E10.07747
G1 X66.551 Y132.588 E10.11687
G1 X65.861 Y132.203 E10.15629
G1 X65.214 Y131.751 E10.19567
G1 X64.616 Y131.235 E10.23507
G1 X64.073 Y130.662 E10.27446
G1 X63.59 Y130.037 E10.31387
G1 X63.174 Y129.366 E10.35325
G1 X62.827 Y128.656 E10.39268
G1 X62.554 Y127.915 E10.43208
G1 X62.357 Y127.151 E10.47144
G1 X62.239 Y126.37 E10.51085
G1 X62.2 Y125.592 E10.54971
G1 X62.2 Y122.4 E10.70896
G1 X62.24 Y121.611 E10.74837
G1 X62.359 Y120.831 E10.78774
G1 X62.557 Y120.066 E10.82716
G1 X62.831 Y119.326 E10.86653
G1 X63.179 Y118.617 E10.90593
G1 X63.565 Y117.997 E10.94237
G1 X63.174 Y117.366 E10.9794
G1 X62.827 Y116.656 E11.01883
G1 X62.554 Y115.915 E11.05823
G1 X62.357 Y115.151 E11.09759
G1 X62.239 Y114.37 E11.137
G1 X62.2 Y113.592 E11.17586
G1 X62.2 Y110.4 E11.33511
G1 X62.24 Y109.611 E11.37452
G1 X62.359 Y108.831 E11.41389
G1 X62.557 Y108.066 E11.45331
G1 X62.831 Y107.326 E11.49268
G1 X63.179 Y106.617 E11.53208
G1 X63.565 Y105.997 E11.56852
G1 X63.174 Y105.366 E11.60556
G1 X62.827 Y104.656 E11.64498
G1 X62.554 Y103.915 E11.68438
G1 X62.357 Y103.151 E11.72374
G1 X62.239 Y102.37 E11.76315
G1 X62.2 Y101.592 E11.80201
G1 X62.2 Y98.4 E11.96126
G1 X62.24 Y97.611 E12.00068
G1 X62.359 Y96.831 E12.04004
G1 X62.557 Y96.066 E12.07946
G1 X62.831 Y95.326 E12.11883
G1 X62.993 Y94.996 E12.13717
G1 X62.827 Y94.656 E12.15605
G1 X62.554 Y93.915 E12.19545
G1 X62.357 Y93.151 E12.23481
G1 X62.239 Y92.37 E12.27422
G1 X62.2 Y91.592 E12.31308
G1 X62.2 Y88.4 E12.47233
G1 X62.24 Y87.611 E12.51174
G1 X62.359 Y86.831 E12.55111
G1 X62.557 Y86.066 E12.59053
G1 X62.831 Y85.326 E12.6299
G1 X62.993 Y84.996 E12.64824
G1 X62.827 Y84.656 E12.66712
G1 X62.554 Y83.915 E12.70651
G1 X62.357 Y83.151 E12.74588
G1 X62.239 Y82.37 E12.78528
G1 X62.2 Y81.592 E12.82415
G1 X62.2 Y78.4 E12.9834
G1 X62.24 Y77.611 E13.02281
G1 X62.359 Y76.831 E13.06218
G1 X62.557 Y76.066 E13.1016
G1 X62.831 Y75.326 E13.14097
G1 X63.179 Y74.617 E13.18037
G1 X63.597 Y73.946 E13.21981
G1 X64.08 Y73.322 E13.25918
G1 X64.623 Y72.749 E13.29856
G0 F3600 X65.016 Y72.93
G1 F1800 X65.611 Y72.442 E13.33695
G1 X66.253 Y72.019 E13.37531
G1 X66.936 Y71.664 E13.41371
G1 X67.651 Y71.383 E13.45204
G1 X68.393 Y71.177 E13.49046
G1 X69.151 Y71.049 E13.52881
G1 X70 Y71 E13.57124
G1 X130 Y71 E16.56465
G1 X130.768 Y71.04 E16.60302
G1 X131.528 Y71.159 E16.6414
G1 X132.271 Y71.357 E16.67976
G1 X132.99 Y71.631 E16.71815
G1 X133.676 Y71.978 E16.7565
G1 X134.323 Y72.394 E16.79488
G1 X134.923 Y72.875 E16.83324
G1 X135.47 Y73.416 E16.87163
G1 X135.958 Y74.011 E16.91002
G1 X136.381 Y74.653 E16.94837
G1 X136.736 Y75.336 E16.98678
G1 X137.017 Y76.051 E17.0251
G1 X137.223 Y76.793 E17.06352
G1 X137.351 Y77.551 E17.10188
G1 X137.4 Y78.4 E17.1443
G1 X137.4 Y81.6 E17.30395
G1 X137.36 Y82.368 E17.34232
G1 X137.241 Y83.128 E17.3807
G1 X137.043 Y83.871 E17.41906
G1 X136.769 Y84.59 E17.45745
G1 X136.561 Y85 E17.48038
G1 X136.736 Y85.336 E17.49928
G1 X137.017 Y86.051 E17.53761
G1 X137.223 Y86.793 E17.57603
G1 X137.351 Y87.551 E17.61438
G1 X137.4 Y88.4 E17.65681
G1 X137.4 Y91.6 E17.81646
G1 X137.36 Y92.368 E17.85483
G1 X137.241 Y93.128 E17.8932
G1 X137.043 Y93.871 E17.93157
G1 X136.769 Y94.59 E17.96995
G1 X136.561 Y95 E17.99289
G1 X136.736 Y95.336 E18.01179
G1 X137.017 Y96.051 E18.05012
G1 X137.223 Y96.793 E18.08854
G1 X137.351 Y97.551 E18.12689
G1 X137.4 Y98.4 E18.16932
G1 X137.4 Y101.6 E18.32897
G1 X137.36 Y102.368 E18.36733
G1 X137.241 Y103.128 E18.40571
G1 X137.043 Y103.871 E18.44407
G1 X136.769 Y104.59 E18.48246
G1 X136.422 Y105.276 E18.52082
G1 X136.006 Y105.923 E18.55919
G1 X135.947 Y105.997 E18.56391
G1 X135.958 Y106.011 E18.5648
G1 X136.381 Y106.653 E18.60316
G1 X136.736 Y107.336 E18.64156
G1 X137.017 Y108.051 E18.67989
G1 X137.223 Y108.793 E18.71831
G1 X137.351 Y109.551 E18.75666
G1 X137.4 Y110.4 E18.79909
G1 X137.4 Y113.6 E18.95873
G1 X137.36 Y114.368 E18.9971
G1 X137.241 Y115.128 E19.03548
G1 X137.043 Y115.871 E19.07384
G1 X136.769 Y116.59 E19.11223
G1 X136.422 Y117.276 E19.15058
G1 X136.006 Y117.923 E19.18896
G1 X135.947 Y117.997 E19.19368
G1 X135.958 Y118.011 E19.19457
G1 X136.381 Y118.653 E19.23293
G1 X136.736 Y119.336 E19.27133
G1 X137.017 Y120.051 E19.30966
G1 X137.223 Y120.793 E19.34808
G1 X137.351 Y121.551 E19.38643
G1 X137.4 Y122.4 E19.42886
G1 X137.4 Y125.6 E19.5885
G1 X137.36 Y126.368 E19.62687
G1 X137.241 Y127.128 E19.66525
G1 X137.043 Y127.871 E19.70361
G1 X136.769 Y128.59 E19.742
G1 X136.422 Y129.276 E19.78035
G1 X136.006 Y129.923 E19.81873
G1 X135.525 Y130.523 E19.85709
G1 X134.984 Y131.07 E19.89548
G1 X134.389 Y131.558 E19.93387
G1 X133.747 Y131.981 E19.97223
G1 X133.064 Y132.336 E20.01063
G1 X132.349 Y132.617 E20.04896
G1 X131.607 Y132.823 E20.08738
G1 X130.849 Y132.951 E20.12573
G1 X130 Y133 E20.16815
G1 X70.151 Y133 E23.15403
G1 X69.759 Y132.99 E23.1736
G1 X69.608 Y132.982 E23.18114
G1 X68.844 Y132.901 E23.21947
G1 X68.091 Y132.742 E23.25787
G1 X67.359 Y132.505 E23.29625
G1 X66.656 Y132.193 E23.33462
G1 X65.989 Y131.811 E23.37297
G1 X65.365 Y131.361 E23.41135
G1 X64.791 Y130.848 E23.44976
G1 X64.274 Y130.279 E23.48812
G1 X63.818 Y129.66 E23.52647
G1 X63.429 Y128.996 E23.56487
G1 X63.112 Y128.296 E23.6032
G1 X62.868 Y127.566 E23.6416
G1 X62.702 Y126.815 E23.67998
G1 X62.614 Y126.051 E23.71834
G1 X62.6 Y125.592 E23.74125
G1 X62.6 Y122.4 E23.9005
G1 X62.64 Y121.632 E23.93887
G1 X62.759 Y120.872 E23.97725
G1 X62.957 Y120.129 E24.01561
G1 X63.231 Y119.41 E24.054
G1 X63.578 Y118.724 E24.09235
G1 X63.994 Y118.077 E24.13073
G1 X64.062 Y117.992 E24.13616
G1 X63.818 Y117.66 E24.15672
G1 X63.429 Y116.996 E24.19511
G1 X63.112 Y116.296 E24.23345
G1 X62.868 Y115.566 E24.27185
G1 X62.702 Y114.815 E24.31022
G1 X62.614 Y114.051 E24.34859
G1 X62.6 Y113.592 E24.3715
G1 X62.6 Y110.4 E24.53075
G1 X62.64 Y109.632 E24.56911
G1 X62.759 Y108.872 E24.60749
G1 X62.957 Y108.129 E24.64586
G1 X63.231 Y107.41 E24.68424
G1 X63.578 Y106.724 E24.7226
G1 X63.994 Y106.077 E24.76097
G1 X64.062 Y105.992 E24.7664
G1 X63.818 Y105.66 E24.78696
G1 X63.429 Y104.996 E24.82535
G1 X63.112 Y104.296 E24.86369
G1 X62.868 Y103.566 E24.90209
G1 X62.702 Y102.815 E24.94046
G1 X62.614 Y102.051 E24.97883
G1 X62.6 Y101.592 E25.00174
G1 X62.6 Y98.4 E25.16099
G1 X62.64 Y97.632 E25.19936
G1 X62.759 Y96.872 E25.23774
G1 X62.957 Y96.129 E25.2761
G1 X63.231 Y95.41 E25.31448
G1 X63.435 Y95.006 E25.33706
G1 X63.429 Y94.996 E25.33765
G1 X63.112 Y94.296 E25.37598
G1 X62.868 Y93.566 E25.41438
G1 X62.702 Y92.815 E25.45276
G1 X62.614 Y92.051 E25.49112
G1 X62.6 Y91.592 E25.51403
G1 X62.6 Y88.4 E25.67328
G1 X62.64 Y87.632 E25.71165
G1 X62.759 Y86.872 E25.75003
G1 X62.957 Y86.129 E25.78839
G1 X63.231 Y85.41 E25.82678
G1 X63.435 Y85.006 E25.84936
G1 X63.429 Y84.996 E25.84994
G1 X63.112 Y84.296 E25.88828
G1 X62.868 Y83.566 E25.92668
G1 X62.702 Y82.815 E25.96505
G1 X62.614 Y82.051 E26.00342
G1 X62.6 Y81.592 E26.02633
G1 X62.6 Y78.4 E26.18558
G1 X62.64 Y77.632 E26.22395
G1 X62.759 Y76.872 E26.26232
G1 X62.957 Y76.129 E26.30069
G1 X63.231 Y75.41 E26.33907
G1 X63.578 Y74.724 E26.37743
G1 X63.994 Y74.077 E26.4158
G1 X64.475 Y73.477 E26.45417
G1 X65.016 Y72.93 E26.49255
G0 F3600 X65.408 Y73.116
G1 F1800 X65.998 Y72.657 E26.52985
G1 X66.634 Y72.262 E26.5672
G1 X67.308 Y71.938 E26.60451
G1 X68.013 Y71.688 E26.64183
G1 X68.741 Y71.514 E26.67917
G1 X69.483 Y71.419 E26.71649
G1 X70 Y71.4 E26.7423
G1 X130 Y71.4 E29.73571
G1 X130.747 Y71.44 E29.77303
G1 X131.485 Y71.559 E29.81033
G1 X132.207 Y71.757 E29.84768
G1 X132.903 Y72.03 E29.88498
G1 X133.566 Y72.377 E29.92231
G1 X134.189 Y72.792 E29.95966
G1 X134.763 Y73.271 E29.99696
G1 X135.284 Y73.808 E30.03428
G1 X135.743 Y74.398 E30.07158
G1 X136.138 Y75.034 E30.10893
G1 X136.462 Y75.708 E30.14624
G1 X136.712 Y76.413 E30.18356
G1 X136.886 Y77.141 E30.2209
G1 X136.981 Y77.883 E30.25822
G1 X137 Y78.4 E30.28403
G1 X137 Y81.6 E30.44368
G1 X136.96 Y82.347 E30.481
G1 X136.841 Y83.085 E30.5183
G1 X136.643 Y83.807 E30.55565
G1 X136.37 Y84.503 E30.59295
G1 X136.113 Y84.994 E30.6206
G1 X136.138 Y85.034 E30.62295
G1 X136.462 Y85.708 E30.66026
G1 X136.712 Y86.413 E30.69758
G1 X136.886 Y87.141 E30.73492
G1 X136.981 Y87.883 E30.77224
G1 X137 Y88.4 E30.79805
G1 X137 Y91.6 E30.9577
G1 X136.96 Y92.347 E30.99502
G1 X136.841 Y93.085 E31.03232
G1 X136.643 Y93.807 E31.06967
G1 X136.37 Y94.503 E31.10697
G1 X136.113 Y94.994 E31.13461
G1 X136.138 Y95.034 E31.13697
G1 X136.462 Y95.708 E31.17428
G1 X136.712 Y96.413 E31.2116
G1 X136.886 Y97.141 E31.24894
G1 X136.981 Y97.883 E31.28626
G1 X137 Y98.4 E31.31207
G1 X137 Y101.6 E31.47172
G1 X136.96 Y102.347 E31.50904
G1 X136.841 Y103.085 E31.54633
G1 X136.643 Y103.807 E31.58369
G1 X136.37 Y104.503 E31.62098
G1 X136.023 Y105.166 E31.65832
G1 X135.608 Y105.789 E31.69566
G1 X135.433 Y105.999 E31.7093
G1 X135.743 Y106.398 E31.73451
G1 X136.138 Y107.034 E31.77186
G1 X136.462 Y107.708 E31.80917
G1 X136.712 Y108.413 E31.84649
G1 X136.886 Y109.141 E31.88383
G1 X136.981 Y109.883 E31.92115
G1 X137 Y110.4 E31.94696
G1 X137 Y113.6 E32.10661
G1 X136.96 Y114.347 E32.14393
G1 X136.841 Y115.085 E32.18123
G1 X136.643 Y115.807 E32.21858
G1 X136.37 Y116.503 E32.25588
G1 X136.023 Y117.166 E32.29321
G1 X135.608 Y117.789 E32.33056
G1 X135.433 Y117.999 E32.3442
G1 X135.743 Y118.398 E32.36941
G1 X136.138 Y119.034 E32.40676
G1 X136.462 Y119.708 E32.44407
G1 X136.712 Y120.413 E32.48139
G1 X136.886 Y121.141 E32.51873
G1 X136.981 Y121.883 E32.55605
G1 X137 Y122.4 E32.58186
G1 X137 Y125.6 E32.74151
G1 X136.96 Y126.347 E32.77883
G1 X136.841 Y127.085 E32.81612
G1 X136.643 Y127.807 E32.85347
G1 X136.37 Y128.503 E32.89077
G1 X136.023 Y129.166 E32.92811
G1 X135.608 Y129.789 E32.96545
G1 X135.129 Y130.363 E33.00275
G1 X134.592 Y130.884 E33.04008
G1 X134.002 Y131.343 E33.07737
G1 X133.366 Y131.738 E33.11473
G1 X132.692 Y132.062 E33.15204
G1 X131.987 Y132.312 E33.18935
G1 X131.259 Y132.486 E33.2267
G1 X130.517 Y132.581 E33.26402
G1 X130 Y132.6 E33.28983
G1 X70.151 Y132.6 E36.27571
G1 X69.781 Y132.59 E36.29417
G1 X69.63 Y132.582 E36.30172
G1 X68.886 Y132.503 E36.33904
G1 X68.155 Y132.344 E36.37637
G1 X67.445 Y132.109 E36.41368
G1 X66.764 Y131.799 E36.45101
G1 X66.12 Y131.418 E36.48834
G1 X65.52 Y130.971 E36.52567
G1 X64.972 Y130.462 E36.56298
G1 X64.481 Y129.898 E36.60029
G1 X64.053 Y129.284 E36.63763
G1 X63.693 Y128.629 E36.67492
G1 X63.405 Y127.938 E36.71227
G1 X63.192 Y127.221 E36.74958
G1 X63.057 Y126.485 E36.78691
G1 X63 Y125.592 E36.83156
G1 X63 Y122.4 E36.99081
G1 X63.04 Y121.653 E37.02813
G1 X63.159 Y120.915 E37.06542
G1 X63.357 Y120.193 E37.10277
G1 X63.63 Y119.497 E37.14007
G1 X63.977 Y118.834 E37.17741
G1 X64.392 Y118.211 E37.21475
G1 X64.569 Y117.999 E37.22853
G1 X64.481 Y117.898 E37.23521
G1 X64.053 Y117.284 E37.27255
G1 X63.693 Y116.629 E37.30984
G1 X63.405 Y115.938 E37.34719
G1 X63.192 Y115.221 E37.38451
G1 X63.057 Y114.485 E37.42184
G1 X63 Y113.592 E37.46648
G1 X63 Y110.4 E37.62573
G1 X63.04 Y109.653 E37.66305
G1 X63.159 Y108.915 E37.70035
G1 X63.357 Y108.193 E37.7377
G1 X63.63 Y107.497 E37.775
G1 X63.977 Y106.834 E37.81233
G1 X64.392 Y106.211 E37.84968
G1 X64.569 Y105.999 E37.86346
G1 X64.481 Y105.898 E37.87014
G1 X64.053 Y105.284 E37.90748
G1 X63.693 Y104.629 E37.94477
G1 X63.405 Y103.938 E37.98212
G1 X63.192 Y103.221 E38.01943
G1 X63.057 Y102.485 E38.05676
G1 X63 Y101.592 E38.10141
G1 X63 Y98.4 E38.26066
G1 X63.04 Y97.653 E38.29798
G1 X63.159 Y96.915 E38.33527
G1 X63.357 Y96.193 E38.37262
G1 X63.63 Y95.497 E38.40992
G1 X63.893 Y94.994 E38.43824
G1 X63.693 Y94.629 E38.459
G1 X63.405 Y93.938 E38.49635
G1 X63.192 Y93.221 E38.53367
G1 X63.057 Y92.485 E38.571
G1 X63 Y91.592 E38.61564
G1 X63 Y88.4 E38.77489
G1 X63.04 Y87.653 E38.81221
G1 X63.159 Y86.915 E38.84951
G1 X63.357 Y86.193 E38.88686
G1 X63.63 Y85.497 E38.92416
G1 X63.893 Y84.994 E38.95248
G1 X63.693 Y84.629 E38.97324
G1 X63.405 Y83.938 E39.01059
G1 X63.192 Y83.221 E39.04791
G1 X63.057 Y82.485 E39.08524
G1 X63 Y81.592 E39.12988
G1 X63 Y78.4 E39.28913
G1 X63.04 Y77.653 E39.32645
G1 X63.159 Y76.915 E39.36375
G1 X63.357 Y76.193 E39.4011
G1 X63.63 Y75.497 E39.4384
G1 X63.977 Y74.834 E39.47573
G1 X64.392 Y74.211 E39.51308
G1 X64.871 Y73.637 E39.55037
G1 X65.408 Y73.116 E39.5877
G0 F3600 X65.265 Y73.802
G1 F1800 X65.799 Y73.309 E39.62396
G1 X66.384 Y72.879 E39.66018
G1 X67.013 Y72.515 E39.69644
G1 X67.678 Y72.222 E39.73269
G1 X68.371 Y72.004 E39.76894
G1 X69.083 Y71.864 E39.80514
G1 X70 Y71.8 E39.851
G1 X130 Y71.8 E42.84441
G1 X130.725 Y71.84 E42.88064
G1 X131.442 Y71.959 E42.9169
G1 X132.141 Y72.157 E42.95315
G1 X132.814 Y72.43 E42.98938
G1 X133.453 Y72.775 E43.02561
G1 X134.05 Y73.189 E43.06185
G1 X134.598 Y73.665 E43.09807
G1 X135.091 Y74.199 E43.13433
G1 X135.521 Y74.784 E43.17055
G1 X135.885 Y75.413 E43.2068
G1 X136.178 Y76.078 E43.24306
G1 X136.396 Y76.771 E43.2793
G1 X136.536 Y77.483 E43.31551
G1 X136.6 Y78.4 E43.36137
G1 X136.6 Y81.6 E43.52101
G1 X136.56 Y82.325 E43.55724
