;FLAVOR:Marlin
;TIME:3900
;Filament used: 3.50577m
;Layer height: 0.15
;MINX:48.465
;MINY:48.465
;MINZ:0.3
;MAXX:151.29
;MAXY:151.288
;MAXZ:7
;Generated with Cura_SteamEngine 4.4.0
M140 S55
M105
M190 S55
M104 S207
M105
M109 S207
M82 ;absolute extrusion mode
G28 ;Home
G1 Z15.0 F6000 ;Move the platform down 15mm
;Prime the extruder
G92 E0
G1 F200 E3
G92 E0
G92 E0
G92 E0
G1 F1500 E-6.5
;LAYER_COUNT:41
;LAYER:0
M107 P1
G1 F600 Z1.3
G0 F3600 X80.065 Y80.065 Z1.3
;TYPE:SKIRT
G1 F600 Z0.3
G1 F1500 E0
G1 F1800 X80.065 Y86.276 E0.30987
G1 X86.276 Y80.065 E0.74809
G1 X80.065 Y80.065 E1.05796
G0 F3600 X79.665 Y79.665
G1 F1800 X79.665 Y87.24 E1.43587
G1 X87.24 Y79.665 E1.97033
G1 X79.665 Y79.665 E2.34825
G0 F3600 X79.265 Y79.265
G1 F1800 X79.265 Y88.206 E2.79432
G1 X88.206 Y79.265 E3.42515
G1 X79.265 Y79.265 E3.87122
G0 F3600 X78.865 Y78.865
G1 F1800 X78.865 Y89.172 E4.38544
G1 X89.172 Y78.865 E5.11265
G1 X78.865 Y78.865 E5.62687
G0 F3600 X78.465 Y78.465
G1 F1800 X78.465 Y90.138 E6.20924
G1 X90.138 Y78.465 E7.03283
G1 X78.465 Y78.465 E7.6152
G0 F3600 X78.065 Y78.065
G1 F1800 X78.065 Y91.104 E8.26572
G1 X91.104 Y78.065 E9.18569
G1 X78.065 Y78.065 E9.83621
G0 F3600 X77.665 Y77.665
G1 F1800 X77.665 Y92.07 E10.55488
G1 X92.07 Y77.665 E11.57123
G1 X77.665 Y77.665 E12.2899
G0 F3600 X77.265 Y77.265
G1 F1800 X77.265 Y93.034 E13.07662
G1 X93.034 Y77.265 E14.18921
G1 X77.265 Y77.265 E14.97592
G0 F3600 X76.865 Y76.865
G1 F1800 X76.865 Y94.02 E15.83179
G1 X77.012 Y93.853 E15.84289
G1 X93.853 Y77.012 E17.03111
G1 X94.021 Y76.865 E17.04225
G1 X76.865 Y76.865 E17.89817
G0 F3600 X76.465 Y76.465
G1 F1800 X76.465 Y95.33 E18.83935
G1 X76.689 Y94.903 E18.8634
G1 X77.026 Y94.432 E18.8923
G1 X77.295 Y94.136 E18.91225
G1 X94.136 Y77.295 E20.10047
G1 X94.573 Y76.915 E20.12937
G1 X95.058 Y76.598 E20.15827
G1 X95.34 Y76.465 E20.17383
G1 X76.465 Y76.465 E21.11551
G0 F3600 X76.065 Y76.065
G1 F1800 X76.065 Y127.694 E23.69129
G1 X76.025 Y128.244 E23.7188
G1 X75.906 Y128.782 E23.74629
G1 X75.773 Y129.156 E23.76609
G1 X75.743 Y129.228 E23.76998
G1 X75.494 Y129.719 E23.79745
G1 X75.178 Y130.17 E23.82492
G1 X74.922 Y130.453 E23.84396
G1 X59.199 Y146.177 E24.95334
G1 X58.782 Y146.537 E24.98082
G1 X58.318 Y146.834 E25.00831
G1 X57.815 Y147.06 E25.03582
G1 X57.285 Y147.21 E25.0633
G1 X56.739 Y147.283 E25.09078
G1 X56.188 Y147.276 E25.11828
G1 X55.644 Y147.19 E25.14575
G1 X55.049 Y146.997 E25.17696
G1 X54.802 Y146.894 E25.19031
G1 X54.311 Y146.646 E25.21776
G1 X53.86 Y146.329 E25.24526
G1 X53.46 Y145.95 E25.27275
G1 X53.118 Y145.518 E25.30024
G1 X52.843 Y145.04 E25.32775
G1 X52.64 Y144.528 E25.35523
G1 X52.513 Y143.992 E25.38271
G1 X52.465 Y143.387 E25.41299
G1 X52.465 Y82.469 E28.4522
G1 X52.505 Y81.919 E28.47971
G1 X52.624 Y81.381 E28.5072
G1 X52.757 Y81.007 E28.52701
G1 X52.787 Y80.935 E28.5309
G1 X53.036 Y80.444 E28.55836
G1 X53.352 Y79.993 E28.58584
G1 X53.608 Y79.71 E28.60488
G1 X79.71 Y53.608 E30.44651
G1 X80.127 Y53.248 E30.474
G1 X80.591 Y52.951 E30.50148
G1 X80.935 Y52.787 E30.52049
G1 X81.007 Y52.757 E30.52439
G1 X81.53 Y52.583 E30.55188
G1 X82.072 Y52.486 E30.57936
G1 X82.469 Y52.465 E30.59919
G1 X143.387 Y52.465 E33.6384
G1 X143.937 Y52.505 E33.66591
G1 X144.475 Y52.624 E33.6934
G1 X144.99 Y52.82 E33.72089
G1 X145.471 Y53.088 E33.74836
G1 X145.909 Y53.422 E33.77584
G1 X146.293 Y53.817 E33.80333
G1 X146.617 Y54.263 E33.83083
G1 X146.894 Y54.802 E33.86107
G1 X146.997 Y55.049 E33.87442
G1 X147.172 Y55.572 E33.90193
G1 X147.269 Y56.114 E33.9294
G1 X147.287 Y56.665 E33.95691
G1 X147.225 Y57.213 E33.98442
G1 X147.084 Y57.745 E34.01188
G1 X146.868 Y58.252 E34.03937
G1 X146.581 Y58.722 E34.06685
G1 X146.177 Y59.199 E34.09803
G1 X130.453 Y74.922 E35.20741
G1 X130.036 Y75.282 E35.23489
G1 X129.571 Y75.579 E35.26242
G1 X129.228 Y75.743 E35.28139
G1 X129.156 Y75.773 E35.28528
G1 X128.633 Y75.947 E35.31278
G1 X128.091 Y76.044 E35.34025
G1 X127.694 Y76.065 E35.36008
G1 X76.065 Y76.065 E37.93587
G0 F3600 X75.665 Y75.665
G1 F1800 X75.665 Y127.694 E40.5316
G1 X75.625 Y128.214 E40.55762
G1 X75.506 Y128.721 E40.5836
G1 X75.403 Y129.002 E40.59854
G1 X75.373 Y129.074 E40.60243
G1 X75.137 Y129.538 E40.6284
G1 X74.832 Y129.961 E40.65442
G1 X74.639 Y130.17 E40.66861
G1 X58.916 Y145.894 E41.77799
G1 X58.521 Y146.233 E41.80396
G1 X58.078 Y146.508 E41.82997
G1 X57.598 Y146.712 E41.85599
G1 X57.093 Y146.84 E41.88198
G1 X56.574 Y146.889 E41.90799
G1 X56.054 Y146.859 E41.93397
G1 X55.544 Y146.749 E41.96
G1 X55.203 Y146.628 E41.97806
G1 X54.956 Y146.525 E41.99141
G1 X54.492 Y146.288 E42.0174
G1 X54.07 Y145.983 E42.04338
G1 X53.699 Y145.617 E42.06938
G1 X53.388 Y145.199 E42.09537
G1 X53.145 Y144.738 E42.12137
G1 X52.975 Y144.245 E42.14739
G1 X52.883 Y143.732 E42.17339
G1 X52.865 Y143.387 E42.19062
G1 X52.865 Y82.469 E45.22984
G1 X52.905 Y81.949 E45.25586
G1 X53.024 Y81.442 E45.28184
G1 X53.127 Y81.161 E45.29677
G1 X53.157 Y81.089 E45.30066
G1 X53.393 Y80.625 E45.32663
G1 X53.698 Y80.202 E45.35265
G1 X53.891 Y79.993 E45.36684
G1 X79.993 Y53.891 E47.20848
G1 X80.389 Y53.552 E47.23449
G1 X80.831 Y53.277 E47.26046
G1 X81.089 Y53.157 E47.27465
G1 X81.161 Y53.127 E47.27854
G1 X81.656 Y52.964 E47.30454
G1 X82.17 Y52.878 E47.33054
G1 X82.469 Y52.865 E47.34548
G1 X143.387 Y52.865 E50.38469
G1 X143.907 Y52.905 E50.41071
G1 X144.414 Y53.024 E50.43669
G1 X144.897 Y53.219 E50.46267
G1 X145.345 Y53.485 E50.48867
G1 X145.747 Y53.817 E50.51468
G1 X146.093 Y54.207 E50.54069
G1 X146.376 Y54.645 E50.56671
G1 X146.525 Y54.956 E50.58391
G1 X146.628 Y55.203 E50.59726
G1 X146.791 Y55.698 E50.62326
G1 X146.877 Y56.212 E50.64926
G1 X146.883 Y56.734 E50.67531
G1 X146.809 Y57.249 E50.70126
G1 X146.657 Y57.748 E50.72729
G1 X146.431 Y58.218 E50.75331
G1 X146.136 Y58.647 E50.77928
G1 X145.894 Y58.916 E50.79733
G1 X130.17 Y74.639 E51.90671
G1 X129.774 Y74.978 E51.93272
G1 X129.332 Y75.253 E51.95869
G1 X129.074 Y75.373 E51.97289
G1 X129.002 Y75.403 E51.97678
G1 X128.507 Y75.566 E52.00278
G1 X127.993 Y75.652 E52.02878
G1 X127.694 Y75.665 E52.04371
G1 X75.665 Y75.665 E54.63945
G0 F3600 X75.265 Y75.265
G1 F1800 X75.265 Y127.694 E57.25514
G1 X75.225 Y128.182 E57.27957
G1 X75.034 Y128.848 E57.31413
G1 X75.004 Y128.92 E57.31803
G1 X74.78 Y129.355 E57.34244
G1 X74.356 Y129.887 E57.37638
G1 X58.633 Y145.611 E58.48575
G1 X58.26 Y145.928 E58.51018
G1 X57.84 Y146.18 E58.53461
G1 X57.385 Y146.36 E58.55902
G1 X56.907 Y146.464 E58.58343
G1 X56.418 Y146.489 E58.60786
G1 X55.932 Y146.433 E58.63226
G1 X55.357 Y146.259 E58.66224
G1 X55.11 Y146.156 E58.67559
G1 X54.675 Y145.931 E58.70002
G1 X54.283 Y145.639 E58.72441
G1 X53.943 Y145.287 E58.74882
G1 X53.665 Y144.884 E58.77325
G1 X53.456 Y144.441 E58.79769
G1 X53.322 Y143.97 E58.82212
G1 X53.265 Y143.387 E58.85134
G1 X53.265 Y82.469 E61.89055
G1 X53.305 Y81.981 E61.91498
G1 X53.496 Y81.315 E61.94955
G1 X53.526 Y81.243 E61.95344
G1 X53.75 Y80.808 E61.97785
G1 X54.174 Y80.276 E62.01179
G1 X80.276 Y54.174 E63.85343
G1 X80.649 Y53.857 E63.87785
G1 X81.243 Y53.526 E63.91177
G1 X81.315 Y53.496 E63.91566
G1 X81.781 Y53.345 E63.9401
G1 X82.469 Y53.265 E63.97466
G1 X143.387 Y53.265 E67.01387
G1 X143.875 Y53.305 E67.0383
G1 X144.35 Y53.424 E67.06273
G1 X144.799 Y53.618 E67.08713
G1 X145.211 Y53.883 E67.11157
G1 X145.574 Y54.211 E67.13598
G1 X145.879 Y54.594 E67.16041
G1 X146.156 Y55.11 E67.18962
G1 X146.259 Y55.357 E67.20298
G1 X146.41 Y55.823 E67.22741
G1 X146.483 Y56.307 E67.25183
G1 X146.476 Y56.796 E67.27623
G1 X146.39 Y57.278 E67.30066
G1 X146.227 Y57.74 E67.3251
G1 X145.991 Y58.169 E67.34953
G1 X145.611 Y58.633 E67.37945
G1 X129.887 Y74.356 E68.48883
G1 X129.514 Y74.673 E68.51325
G1 X128.92 Y75.004 E68.54718
G1 X128.848 Y75.034 E68.55107
G1 X128.382 Y75.185 E68.57551
G1 X127.694 Y75.265 E68.61006
G1 X75.265 Y75.265 E71.22575
G0 F3600 X74.865 Y74.865
G1 F1800 X74.865 Y127.694 E73.8614
G1 X74.825 Y128.148 E73.88414
G1 X74.665 Y128.694 E73.91253
G1 X74.635 Y128.766 E73.91642
G1 X74.424 Y129.17 E73.93916
G1 X74.074 Y129.604 E73.96697
G1 X58.351 Y145.328 E75.07635
G1 X58.001 Y145.621 E75.09912
G1 X57.606 Y145.848 E75.12185
G1 X57.178 Y146.003 E75.14456
G1 X56.729 Y146.081 E75.1673
G1 X56.273 Y146.079 E75.19005
G1 X55.825 Y145.998 E75.21276
G1 X55.511 Y145.89 E75.22933
G1 X55.264 Y145.787 E75.24268
G1 X54.861 Y145.575 E75.2654
G1 X54.5 Y145.296 E75.28816
G1 X54.194 Y144.959 E75.31087
G1 X53.951 Y144.573 E75.33363
G1 X53.78 Y144.151 E75.35634
G1 X53.685 Y143.706 E75.37905
G1 X53.665 Y143.387 E75.39499
G1 X53.665 Y82.469 E78.4342
G1 X53.705 Y82.015 E78.45694
G1 X53.865 Y81.469 E78.48533
G1 X53.895 Y81.397 E78.48922
G1 X54.106 Y80.993 E78.51196
G1 X54.457 Y80.559 E78.5398
G1 X80.559 Y54.457 E80.38144
G1 X80.908 Y54.164 E80.40418
G1 X81.397 Y53.895 E80.43202
G1 X81.469 Y53.865 E80.43591
G1 X81.903 Y53.727 E80.45863
G1 X82.469 Y53.665 E80.48704
G1 X143.387 Y53.665 E83.52625
G1 X143.841 Y53.705 E83.54899
G1 X144.281 Y53.823 E83.57171
G1 X144.693 Y54.017 E83.59443
G1 X145.066 Y54.28 E83.6172
G1 X145.387 Y54.603 E83.63992
G1 X145.646 Y54.978 E83.66266
G1 X145.787 Y55.264 E83.67857
G1 X145.89 Y55.511 E83.69192
G1 X146.028 Y55.946 E83.71469
G1 X146.087 Y56.397 E83.73738
G1 X146.068 Y56.852 E83.7601
G1 X145.969 Y57.297 E83.78284
G1 X145.793 Y57.718 E83.80561
G1 X145.548 Y58.101 E83.82829
G1 X145.328 Y58.351 E83.84491
G1 X129.604 Y74.074 E84.95428
G1 X129.255 Y74.366 E84.97699
G1 X128.766 Y74.635 E85.00483
G1 X128.694 Y74.665 E85.00872
G1 X128.26 Y74.803 E85.03144
G1 X127.694 Y74.865 E85.05985
G1 X74.865 Y74.865 E87.6955
G0 F3600 X74.465 Y74.465
G1 F1800 X74.465 Y127.694 E90.3511
G1 X74.425 Y128.111 E90.372
G1 X74.296 Y128.54 E90.39435
G1 X74.266 Y128.612 E90.39825
G1 X74.068 Y128.982 E90.41918
G1 X73.791 Y129.322 E90.44106
G1 X58.068 Y145.046 E91.55044
G1 X57.745 Y145.312 E91.57131
G1 X57.377 Y145.513 E91.59223
G1 X56.977 Y145.64 E91.61317
G1 X56.561 Y145.689 E91.63407
G1 X56.143 Y145.659 E91.65498
G1 X55.665 Y145.521 E91.6798
G1 X55.418 Y145.418 E91.69315
G1 X55.049 Y145.22 E91.71404
G1 X54.723 Y144.956 E91.73497
G1 X54.454 Y144.635 E91.75587
G1 X54.25 Y144.269 E91.77677
G1 X54.119 Y143.871 E91.79767
G1 X54.065 Y143.387 E91.82197
G1 X54.065 Y82.469 E94.86118
G1 X54.105 Y82.052 E94.88208
G1 X54.234 Y81.623 E94.90443
G1 X54.264 Y81.551 E94.90832
G1 X54.462 Y81.181 E94.92926
G1 X54.739 Y80.841 E94.95114
G1 X80.841 Y54.739 E96.79278
G1 X81.165 Y54.473 E96.81369
G1 X81.551 Y54.264 E96.83559
G1 X81.623 Y54.234 E96.83948
G1 X82.023 Y54.111 E96.86036
G1 X82.469 Y54.065 E96.88273
G1 X143.387 Y54.065 E99.92194
G1 X143.804 Y54.105 E99.94284
G1 X144.206 Y54.223 E99.96374
G1 X144.578 Y54.416 E99.98465
G1 X144.907 Y54.675 E100.00554
G1 X145.181 Y54.992 E100.02644
G1 X145.418 Y55.418 E100.05076
G1 X145.521 Y55.665 E100.06412
G1 X145.644 Y56.066 E100.08504
G1 X145.69 Y56.482 E100.10592
G1 X145.656 Y56.9 E100.12685
G1 X145.543 Y57.303 E100.14773
G1 X145.355 Y57.678 E100.16866
G1 X145.046 Y58.068 E100.19348
G1 X129.322 Y73.791 E101.30286
G1 X128.998 Y74.057 E101.32377
G1 X128.612 Y74.266 E101.34567
G1 X128.54 Y74.296 E101.34956
G1 X128.14 Y74.419 E101.37044
G1 X127.694 Y74.465 E101.39281
G1 X74.465 Y74.465 E104.04842
G0 F3600 X74.065 Y74.065
G1 F1800 X74.065 Y127.694 E106.72398
G1 X74.025 Y128.071 E106.74289
G1 X73.927 Y128.386 E106.75935
G1 X73.897 Y128.458 E106.76324
G1 X73.715 Y128.791 E106.78217
G1 X73.508 Y129.039 E106.79829
G1 X57.785 Y144.763 E107.90767
G1 X57.49 Y145.001 E107.92658
G1 X57.152 Y145.172 E107.94548
G1 X56.786 Y145.269 E107.96437
G1 X56.407 Y145.287 E107.9833
G1 X56.033 Y145.225 E108.00221
G1 X55.819 Y145.151 E108.01351
G1 X55.572 Y145.048 E108.02686
G1 X55.24 Y144.866 E108.04575
G1 X54.953 Y144.619 E108.06464
G1 X54.724 Y144.317 E108.08355
G1 X54.563 Y143.974 E108.10245
G1 X54.478 Y143.605 E108.12134
G1 X54.465 Y143.387 E108.13224
G1 X54.465 Y82.469 E111.17145
G1 X54.505 Y82.092 E111.19036
G1 X54.603 Y81.777 E111.20682
G1 X54.633 Y81.705 E111.21071
G1 X54.815 Y81.372 E111.22965
G1 X55.022 Y81.124 E111.24576
G1 X81.124 Y55.022 E113.0874
G1 X81.419 Y54.784 E113.10631
G1 X81.705 Y54.633 E113.12244
G1 X81.777 Y54.603 E113.12634
G1 X82.14 Y54.495 E113.14523
G1 X82.469 Y54.465 E113.16171
G1 X143.387 Y54.465 E116.20092
G1 X143.764 Y54.505 E116.21984
G1 X144.124 Y54.623 E116.23874
G1 X144.451 Y54.813 E116.25761
G1 X144.732 Y55.068 E116.27654
G1 X144.952 Y55.377 E116.29546
G1 X145.048 Y55.572 E116.30631
G1 X145.151 Y55.819 E116.31966
G1 X145.26 Y56.182 E116.33857
G1 X145.289 Y56.56 E116.35748
G1 X145.239 Y56.936 E116.3764
G1 X145.112 Y57.293 E116.39531
G1 X144.913 Y57.615 E116.41419
G1 X144.763 Y57.785 E116.4255
G1 X129.039 Y73.508 E117.53488
G1 X128.744 Y73.746 E117.55379
G1 X128.458 Y73.897 E117.56993
G1 X128.386 Y73.927 E117.57382
G1 X128.023 Y74.035 E117.59271
G1 X127.694 Y74.065 E117.6092
G1 X74.065 Y74.065 E120.28476
G0 F3600 X73.665 Y73.665
G1 F1800 X73.665 Y127.694 E122.98028
G1 X73.625 Y128.026 E122.99696
G1 X73.557 Y128.232 E123.00778
G1 X73.527 Y128.304 E123.01167
G1 X73.363 Y128.595 E123.02834
G1 X73.225 Y128.756 E123.03892
G1 X57.502 Y144.48 E124.14829
G1 X57.239 Y144.686 E124.16496
G1 X56.935 Y144.825 E124.18164
G1 X56.607 Y144.887 E124.19829
G1 X56.273 Y144.87 E124.21498
G1 X55.973 Y144.782 E124.23057
G1 X55.726 Y144.679 E124.24393
G1 X55.435 Y144.515 E124.26059
G1 X55.192 Y144.286 E124.27725
G1 X55.009 Y144.006 E124.29394
G1 X54.898 Y143.691 E124.3106
G1 X54.865 Y143.387 E124.32586
G1 X54.865 Y82.469 E127.36507
G1 X54.905 Y82.137 E127.38175
G1 X54.973 Y81.931 E127.39257
G1 X55.003 Y81.859 E127.39647
G1 X55.167 Y81.568 E127.41313
G1 X55.305 Y81.407 E127.42371
G1 X81.407 Y55.305 E129.26535
G1 X81.67 Y55.099 E129.28201
G1 X81.859 Y55.003 E129.29259
G1 X81.931 Y54.973 E129.29648
G1 X82.252 Y54.882 E129.31313
G1 X82.469 Y54.865 E129.32399
G1 X143.387 Y54.865 E132.3632
G1 X143.719 Y54.905 E132.37988
G1 X144.031 Y55.022 E132.3965
G1 X144.308 Y55.21 E132.41321
G1 X144.531 Y55.458 E132.42985
G1 X144.679 Y55.726 E132.44512
G1 X144.782 Y55.973 E132.45847
G1 X144.873 Y56.295 E132.47516
G1 X144.885 Y56.628 E132.49179
G1 X144.818 Y56.956 E132.50849
G1 X144.675 Y57.258 E132.52516
G1 X144.48 Y57.502 E132.54074
G1 X128.756 Y73.225 E133.65012
G1 X128.493 Y73.431 E133.66679
G1 X128.304 Y73.527 E133.67737
G1 X128.232 Y73.557 E133.68126
G1 X127.911 Y73.648 E133.6979
G1 X127.694 Y73.665 E133.70876
G1 X73.665 Y73.665 E136.40428
G0 F3600 X73.265 Y73.265
G1 F1800 X73.265 Y127.694 E139.11975
G1 X73.188 Y128.079 E139.13934
G1 X73.158 Y128.151 E139.14323
G1 X72.942 Y128.473 E139.16258
G1 X57.219 Y144.197 E140.27196
G1 X56.993 Y144.366 E140.28603
G1 X56.73 Y144.466 E140.30007
G1 X56.448 Y144.488 E140.31418
G1 X56.127 Y144.413 E140.33063
G1 X55.88 Y144.31 E140.34398
G1 X55.638 Y144.166 E140.35803
G1 X55.445 Y143.96 E140.37211
G1 X55.318 Y143.708 E140.38619
G1 X55.265 Y143.387 E140.40242
G1 X55.265 Y82.469 E143.44164
G1 X55.342 Y82.084 E143.46122
G1 X55.372 Y82.012 E143.46511
G1 X55.588 Y81.69 E143.48446
G1 X81.69 Y55.588 E145.3261
G1 X82.012 Y55.372 E145.34544
G1 X82.084 Y55.342 E145.34933
G1 X82.469 Y55.265 E145.36892
G1 X143.387 Y55.265 E148.40813
G1 X143.666 Y55.305 E148.42219
G1 X143.923 Y55.421 E148.43626
G1 X144.138 Y55.604 E148.45035
G1 X144.31 Y55.88 E148.46657
G1 X144.413 Y56.127 E148.47992
G1 X144.484 Y56.4 E148.494
G1 X144.475 Y56.682 E148.50807
G1 X144.389 Y56.951 E148.52216
G1 X144.197 Y57.219 E148.53861
G1 X128.473 Y72.942 E149.64799
G1 X128.151 Y73.158 E149.66733
G1 X128.079 Y73.188 E149.67122
G1 X127.694 Y73.265 E149.69081
G1 X73.265 Y73.265 E152.40628
G0 F3600 X72.865 Y72.865
G1 F1800 X72.865 Y127.694 E155.14171
G1 X72.819 Y127.925 E155.15347
G1 X72.789 Y127.997 E155.15736
G1 X72.659 Y128.19 E155.16897
G1 X56.936 Y143.914 E156.27834
G1 X56.757 Y144.038 E156.28921
G1 X56.544 Y144.089 E156.30013
G1 X56.281 Y144.044 E156.31345
G1 X56.034 Y143.941 E156.3268
G1 X55.851 Y143.822 E156.33769
G1 X55.723 Y143.645 E156.34859
G1 X55.665 Y143.387 E156.36178
G1 X55.665 Y82.469 E159.40099
G1 X55.711 Y82.238 E159.41274
G1 X55.741 Y82.166 E159.41663
G1 X55.871 Y81.973 E159.42824
G1 X81.973 Y55.871 E161.26988
G1 X82.166 Y55.741 E161.28149
G1 X82.238 Y55.711 E161.28538
G1 X82.469 Y55.665 E161.29713
