;FLAVOR:Marlin
;TIME:910
;Filament used: 0.610262m
;Layer height: 0.15
;Generated with Cura_SteamEngine master
M190 S60
M104 S207
M109 S207
G21 ;metric values
G90 ;absolute positioning
M82 ;set extruder to absolute mode
M107 ;start with the fan off
G28 X0 Y0 ;move X/Y to min endstops
G28 Z0 ;move Z to min endstops
G1 Z15.0 F9000 ;move the platform down 15mm
G92 E0 ;zero the extruded length
G1 F200 E3 ;extrude 3mm of feed stock
G92 E0 ;zero the extruded length again
G1 F9000
;Put printing message on LCD screen
M117 Printing...
;LAYER_COUNT:23
;LAYER:0
M107
G0 F2700 X87.06 Y85.104 Z0.3
;TYPE:SKIRT
G1 F1350 X87.4 Y84.779 E0.02347
G1 X88.058 Y84.229 E0.06625
G1 X88.722 Y83.789 E0.10599
G1 X89.96 Y83.153 E0.17543
G1 X90.695 Y82.872 E0.21469
G1 X91.717 Y82.605 E0.26739
G1 X92.29 Y82.504 E0.29641
G1 X93.023 Y82.435 E0.33314
G1 X93.506 Y82.422 E0.35725
G1 X97.869 Y82.599 E0.5751
G1 X103.38 Y82.595 E0.85005
G1 X107.193 Y82.423 E1.04047
G1 X107.645 Y82.431 E1.06302
G1 X108.82 Y82.526 E1.12184
G1 X109.46 Y82.636 E1.15423
G1 X110.215 Y82.838 E1.19323
G1 X110.785 Y83.043 E1.22345
G1 X111.754 Y83.487 E1.27662
G1 X112.286 Y83.788 E1.30712
G1 X112.963 Y84.251 E1.34804
G1 X113.369 Y84.574 E1.37392
G1 X113.895 Y85.058 E1.40958
G1 X114.304 Y85.503 E1.43974
G1 X119.04 Y91.621 E1.82573
G1 X122.591 Y95.701 E2.09558
G1 X128.277 Y101.465 E2.49952
G1 X128.555 Y101.782 E2.52056
G1 X128.892 Y102.215 E2.54793
G1 X129.212 Y102.703 E2.57705
G1 X129.652 Y103.51 E2.6229
G1 X129.906 Y104.094 E2.65467
G1 X130.271 Y105.188 E2.71221
G1 X130.43 Y105.894 E2.74832
G1 X130.555 Y106.926 E2.80018
G1 X130.577 Y107.535 E2.83058
G1 X130.327 Y112.64 E3.08558
G1 X130.323 Y118.129 E3.35942
G1 X130.57 Y123.625 E3.6339
G1 X130.532 Y124.333 E3.66927
G1 X130.366 Y125.414 E3.72383
G1 X130.177 Y126.136 E3.76107
G1 X129.758 Y127.249 E3.8204
G1 X129.414 Y127.933 E3.8586
G1 X128.799 Y128.886 E3.91518
G1 X128.475 Y129.314 E3.94197
G1 X128.246 Y129.551 E3.95841
G1 X127.115 Y130.619 E4.03602
G1 X126.698 Y130.958 E4.06283
G1 X126.396 Y131.146 E4.08057
G1 X125.519 Y131.635 E4.13067
G1 X124.906 Y131.906 E4.16411
G1 X123.813 Y132.271 E4.2216
G1 X123.105 Y132.43 E4.2578
G1 X122.072 Y132.555 E4.30971
G1 X121.494 Y132.578 E4.33857
G1 X117.131 Y132.401 E4.55642
G1 X111.62 Y132.405 E4.83137
G1 X107.807 Y132.577 E5.02179
G1 X107.537 Y132.579 E5.03526
G1 X100.372 Y132.364 E5.39289
G1 X93.319 Y132.572 E5.74492
G1 X92.667 Y132.532 E5.77751
G1 X91.586 Y132.366 E5.83207
G1 X90.864 Y132.177 E5.8693
G1 X89.751 Y131.758 E5.92864
G1 X89.066 Y131.413 E5.9669
G1 X88.112 Y130.797 E6.02355
G1 X87.628 Y130.423 E6.05407
G1 X87.105 Y129.942 E6.08952
G1 X86.78 Y129.601 E6.11302
G1 X86.229 Y128.942 E6.15588
G1 X85.789 Y128.278 E6.19562
G1 X85.152 Y127.038 E6.26517
G1 X84.871 Y126.301 E6.30452
G1 X84.605 Y125.281 E6.35711
G1 X84.491 Y124.51 E6.39599
G1 X84.436 Y123.07 E6.46789
G1 X84.438 Y122.74 E6.48435
G1 X84.673 Y118.355 E6.70343
G1 X84.677 Y112.88 E6.97658
G1 X84.433 Y107.142 E7.26311
G1 X84.439 Y106.735 E7.28342
G1 X84.556 Y105.09 E7.36569
G1 X84.714 Y99.64 E7.63771
G1 X84.562 Y94.134 E7.91251
G1 X84.425 Y91.857 E8.02632
G1 X84.431 Y91.35 E8.05161
G1 X84.526 Y90.179 E8.11023
G1 X84.636 Y89.54 E8.14257
G1 X84.838 Y88.785 E8.18157
G1 X85.043 Y88.217 E8.21169
G1 X85.487 Y87.247 E8.26492
G1 X85.792 Y86.708 E8.29581
G1 X86.258 Y86.029 E8.3369
G1 X86.577 Y85.629 E8.36242
G1 X87.06 Y85.104 E8.39801
G0 F2700 X87.354 Y85.374
G1 F1350 X87.657 Y85.086 E8.41887
G1 X88.315 Y84.536 E8.46166
G1 X88.905 Y84.145 E8.49697
G1 X90.143 Y83.509 E8.56641
G1 X90.796 Y83.259 E8.60129
G1 X91.818 Y82.992 E8.65399
G1 X92.327 Y82.902 E8.67978
G1 X93.06 Y82.833 E8.71651
G1 X93.49 Y82.822 E8.73797
G1 X97.853 Y82.999 E8.95582
G1 X103.375 Y82.995 E9.23131
G1 X107.211 Y82.822 E9.42289
G1 X107.613 Y82.829 E9.44294
G1 X108.788 Y82.924 E9.50176
G1 X109.357 Y83.023 E9.53057
G1 X110.112 Y83.225 E9.56956
G1 X110.618 Y83.407 E9.59639
G1 X111.587 Y83.851 E9.64957
G1 X112.06 Y84.119 E9.67669
G1 X112.737 Y84.582 E9.71761
G1 X113.098 Y84.868 E9.74059
G1 X113.624 Y85.352 E9.77625
G1 X113.987 Y85.748 E9.80305
G1 X118.713 Y91.853 E10.18823
G1 X122.311 Y95.987 E10.46165
G1 X127.992 Y101.746 E10.86523
G1 X128.239 Y102.028 E10.88394
G1 X128.576 Y102.461 E10.91131
G1 X128.861 Y102.894 E10.93717
G1 X129.301 Y103.701 E10.98303
G1 X129.527 Y104.22 E11.01127
G1 X129.892 Y105.314 E11.06881
G1 X130.033 Y105.942 E11.10092
G1 X130.158 Y106.974 E11.15278
G1 X130.177 Y107.516 E11.17984
G1 X129.927 Y112.62 E11.43478
G1 X129.923 Y118.125 E11.70943
G1 X130.171 Y123.643 E11.985
G1 X130.137 Y124.273 E12.01648
G1 X129.971 Y125.354 E12.07104
G1 X129.803 Y125.995 E12.1041
G1 X129.384 Y127.108 E12.16343
G1 X129.078 Y127.716 E12.19739
G1 X128.463 Y128.669 E12.25398
G1 X128.156 Y129.071 E12.27921
G1 X127.971 Y129.261 E12.29244
G1 X126.84 Y130.329 E12.37005
G1 X126.446 Y130.646 E12.39528
G1 X126.201 Y130.797 E12.40964
G1 X125.324 Y131.286 E12.45973
G1 X124.78 Y131.526 E12.4894
G1 X123.687 Y131.891 E12.54689
G1 X123.057 Y132.033 E12.57911
G1 X122.024 Y132.158 E12.63102
G1 X121.51 Y132.178 E12.65668
G1 X117.147 Y132.001 E12.87453
G1 X111.625 Y132.005 E13.15003
G1 X107.789 Y132.178 E13.3416
G1 X107.549 Y132.18 E13.35358
G1 X100.372 Y131.965 E13.7118
G1 X93.307 Y132.173 E14.06442
G1 X92.727 Y132.137 E14.09342
G1 X91.646 Y131.971 E14.14798
G1 X91.005 Y131.803 E14.18104
G1 X89.892 Y131.384 E14.24037
G1 X89.283 Y131.077 E14.2744
G1 X88.329 Y130.461 E14.33105
G1 X87.899 Y130.128 E14.35819
G1 X87.376 Y129.647 E14.39364
G1 X87.087 Y129.345 E14.41449
G1 X86.536 Y128.686 E14.45735
G1 X86.145 Y128.095 E14.4927
G1 X85.508 Y126.855 E14.56225
G1 X85.258 Y126.201 E14.59718
G1 X84.992 Y125.181 E14.64977
G1 X84.89 Y124.495 E14.68437
G1 X84.835 Y123.055 E14.75627
G1 X84.838 Y122.762 E14.77088
G1 X85.073 Y118.377 E14.98997
G1 X85.077 Y112.863 E15.26506
G1 X84.833 Y107.125 E15.55159
G1 X84.838 Y106.763 E15.56965
G1 X84.954 Y105.13 E15.65133
G1 X85.113 Y99.622 E15.92624
G1 X84.961 Y94.099 E16.20189
G1 X84.825 Y91.833 E16.31514
G1 X84.829 Y91.382 E16.33764
G1 X84.924 Y90.211 E16.39625
G1 X85.023 Y89.643 E16.42502
G1 X85.225 Y88.888 E16.46401
G1 X85.406 Y88.383 E16.49078
G1 X85.85 Y87.413 E16.544
G1 X86.122 Y86.934 E16.57148
G1 X86.588 Y86.255 E16.61256
G1 X86.871 Y85.899 E16.63525
G1 X87.354 Y85.374 E16.67084
G1 F1500 E10.17084
G0 F2700 X89.125 Y87.162
G0 X90.017 Y88.059
G0 X89.992 Y88.223
G0 X89.92 Y88.155
;TYPE:WALL-INNER
G1 F1500 E16.67084
G1 F1350 X90.177 Y87.9 E16.68891
G1 X90.421 Y87.689 E16.705
G1 X90.682 Y87.491 E16.72134
G1 X90.968 Y87.305 E16.73837
G1 X91.259 Y87.143 E16.75498
G1 X91.56 Y87.001 E16.77159
G1 X91.879 Y86.877 E16.78866
G1 X92.192 Y86.778 E16.80504
G1 X92.517 Y86.7 E16.82171
G1 X92.845 Y86.644 E16.83831
G1 X93.175 Y86.612 E16.85486
G1 X93.514 Y86.6 E16.87178
G1 X93.85 Y86.614 E16.88856
G1 X94.185 Y86.649 E16.90536
G1 X94.519 Y86.707 E16.92227
G1 X94.831 Y86.784 E16.93831
G1 X95.148 Y86.887 E16.95494
G1 X95.469 Y87.014 E16.97216
G1 X95.778 Y87.163 E16.98927
G1 X96.053 Y87.318 E17.00502
G1 X96.329 Y87.5 E17.02152
G1 X96.615 Y87.719 E17.03949
G1 X96.845 Y87.92 E17.05473
G1 X97.092 Y88.169 E17.07222
G1 X97.322 Y88.435 E17.08977
G1 X97.509 Y88.682 E17.10522
G1 X97.697 Y88.971 E17.12242
G1 X97.855 Y89.255 E17.13864
G1 X98.001 Y89.564 E17.15569
G1 X98.123 Y89.879 E17.17254
G1 X98.22 Y90.186 E17.1886
G1 X98.3 Y90.518 E17.20564
G1 X98.354 Y90.83 E17.22144
G1 X98.388 Y91.171 E17.23854
G1 X98.4 Y91.509 E17.25541
G1 X98.388 Y91.843 E17.27208
G1 X98.351 Y92.185 E17.28925
G1 X98.293 Y92.519 E17.30616
G1 X98.217 Y92.827 E17.32199
G1 X98.113 Y93.148 E17.33882
G1 X97.983 Y93.475 E17.35638
G1 X97.838 Y93.776 E17.37304
G1 X97.689 Y94.042 E17.38826
G1 X97.5 Y94.329 E17.4054
G1 X97.281 Y94.615 E17.42337
G1 X97.08 Y94.845 E17.43861
G1 X96.826 Y95.097 E17.45646
G1 X96.579 Y95.311 E17.47277
G1 X96.323 Y95.505 E17.48879
G1 X96.032 Y95.695 E17.50613
G1 X95.741 Y95.857 E17.52274
G1 X95.44 Y95.999 E17.53935
G1 X95.122 Y96.122 E17.55636
G1 X94.808 Y96.222 E17.5728
G1 X94.483 Y96.3 E17.58948
G1 X94.155 Y96.356 E17.60608
G1 X93.825 Y96.388 E17.62262
G1 X93.486 Y96.4 E17.63954
G1 X93.15 Y96.386 E17.65632
G1 X92.815 Y96.351 E17.67312
G1 X92.481 Y96.293 E17.69003
G1 X92.169 Y96.216 E17.70607
G1 X91.852 Y96.113 E17.7227
G1 X91.531 Y95.986 E17.73992
G1 X91.222 Y95.837 E17.75703
G1 X90.952 Y95.685 E17.77249
G1 X90.664 Y95.494 E17.78973
G1 X90.386 Y95.281 E17.80721
G1 X90.153 Y95.078 E17.82262
G1 X89.904 Y94.827 E17.84026
G1 X89.687 Y94.576 E17.85682
G1 X89.49 Y94.313 E17.87321
G1 X89.299 Y94.022 E17.89058
G1 X89.141 Y93.737 E17.90683
G1 X89 Y93.436 E17.92342
G1 X88.877 Y93.12 E17.94033
G1 X88.777 Y92.804 E17.95687
G1 X88.7 Y92.483 E17.97334
G1 X88.644 Y92.155 E17.98994
G1 X88.612 Y91.825 E18.00648
G1 X88.6 Y91.491 E18.02315
G1 X88.612 Y91.159 E18.03973
G1 X88.65 Y90.809 E18.05729
G1 X88.71 Y90.47 E18.07447
G1 X88.784 Y90.171 E18.08984
G1 X88.889 Y89.846 E18.10688
G1 X89.015 Y89.527 E18.12399
G1 X89.159 Y89.228 E18.14054
G1 X89.318 Y88.947 E18.15665
G1 X89.5 Y88.671 E18.17315
G1 X89.722 Y88.381 E18.19137
G1 X89.92 Y88.155 E18.20636
G0 F2700 X89.992 Y88.223
G0 X91.77 Y89.91
G0 X91.843 Y89.977
G1 F1350 X91.667 Y90.195 E18.22033
G1 X91.519 Y90.432 E18.23427
G1 X91.404 Y90.678 E18.24782
G1 X91.351 Y90.83 E18.25585
G1 X91.287 Y91.092 E18.26931
G1 X91.253 Y91.368 E18.28318
G1 X91.254 Y91.648 E18.29715
G1 X91.289 Y91.925 E18.31108
G1 X91.359 Y92.198 E18.32514
G1 X91.463 Y92.457 E18.33907
G1 X91.596 Y92.701 E18.35293
G1 X91.761 Y92.93 E18.36701
G1 X91.953 Y93.136 E18.38106
G1 X92.168 Y93.314 E18.39499
G1 X92.401 Y93.465 E18.40884
G1 X92.654 Y93.586 E18.42283
G1 X92.919 Y93.675 E18.43678
G1 X93.195 Y93.731 E18.45083
G1 X93.474 Y93.751 E18.46478
G1 X93.753 Y93.737 E18.47872
G1 X94.029 Y93.688 E18.4927
G1 X94.296 Y93.605 E18.50665
G1 X94.549 Y93.491 E18.5205
G1 X94.79 Y93.345 E18.53456
G1 X95.009 Y93.17 E18.54854
G1 X95.204 Y92.971 E18.56244
G1 X95.375 Y92.746 E18.57654
G1 X95.514 Y92.504 E18.59046
G1 X95.623 Y92.247 E18.60439
G1 X95.7 Y91.979 E18.6183
G1 X95.742 Y91.702 E18.63228
G1 X95.749 Y91.422 E18.64625
G1 X95.723 Y91.142 E18.66028
G1 X95.661 Y90.87 E18.6742
G1 X95.567 Y90.608 E18.68809
G1 X95.44 Y90.356 E18.70217
G1 X95.281 Y90.123 E18.71624
G1 X95.097 Y89.915 E18.7301
G1 X94.89 Y89.729 E18.74398
G1 X94.658 Y89.569 E18.75804
G1 X94.41 Y89.441 E18.77196
G1 X94.149 Y89.344 E18.78586
G1 X93.874 Y89.28 E18.79994
G1 X93.598 Y89.252 E18.81378
G1 X93.318 Y89.255 E18.82775
G1 X93.04 Y89.297 E18.84178
G1 X92.77 Y89.37 E18.85573
G1 X92.511 Y89.478 E18.86973
G1 X92.268 Y89.615 E18.88365
G1 X92.043 Y89.784 E18.89769
G1 X91.843 Y89.977 E18.91156
G0 F2700 X92.138 Y90.248
;TYPE:WALL-OUTER
G1 F1350 X91.993 Y90.427 E18.92305
G1 X91.871 Y90.623 E18.93457
G1 X91.775 Y90.829 E18.94591
G1 X91.735 Y90.944 E18.95198
G1 X91.681 Y91.164 E18.96328
G1 X91.653 Y91.392 E18.97474
G1 X91.654 Y91.622 E18.98622
G1 X91.683 Y91.85 E18.99768
G1 X91.74 Y92.073 E19.00917
G1 X91.826 Y92.287 E19.02067
G1 X91.935 Y92.488 E19.03208
G1 X92.07 Y92.675 E19.04359
G1 X92.228 Y92.844 E19.05513
G1 X92.405 Y92.991 E19.06661
G1 X92.597 Y93.115 E19.07801
G1 X92.805 Y93.215 E19.08953
G1 X93.023 Y93.288 E19.10099
G1 X93.249 Y93.334 E19.1125
G1 X93.478 Y93.35 E19.12395
G1 X93.708 Y93.339 E19.13544
G1 X93.934 Y93.299 E19.14689
G1 X94.154 Y93.23 E19.1584
G1 X94.363 Y93.136 E19.16983
G1 X94.561 Y93.016 E19.18138
G1 X94.74 Y92.873 E19.19281
G1 X94.901 Y92.709 E19.20428
G1 X95.041 Y92.525 E19.21581
G1 X95.155 Y92.326 E19.22725
G1 X95.245 Y92.114 E19.23874
G1 X95.308 Y91.893 E19.25021
G1 X95.343 Y91.666 E19.26167
G1 X95.349 Y91.436 E19.27314
G1 X95.327 Y91.206 E19.28467
G1 X95.276 Y90.982 E19.29613
G1 X95.199 Y90.766 E19.30757
G1 X95.095 Y90.56 E19.31909
G1 X94.965 Y90.369 E19.33061
G1 X94.813 Y90.197 E19.34207
G1 X94.642 Y90.044 E19.35351
G1 X94.452 Y89.913 E19.36503
G1 X94.248 Y89.808 E19.37647
G1 X94.033 Y89.728 E19.38792
G1 X93.808 Y89.675 E19.39945
G1 X93.58 Y89.652 E19.41088
G1 X93.35 Y89.655 E19.42236
G1 X93.122 Y89.689 E19.43386
G1 X92.9 Y89.749 E19.44533
G1 X92.687 Y89.838 E19.45685
G1 X92.487 Y89.951 E19.46831
G1 X92.303 Y90.089 E19.47978
G1 X92.138 Y90.248 E19.49122
G0 F2700 X92.012 Y90.403
G0 X91.625 Y90.09
G0 X89.799 Y88.444
G0 X89.404 Y88.138
G1 F1350 X89.633 Y87.876 E19.50858
G1 X89.9 Y87.611 E19.52735
G1 X90.169 Y87.378 E19.5451
G1 X90.451 Y87.165 E19.56273
G1 X90.763 Y86.962 E19.5813
G1 X91.078 Y86.786 E19.5993
G1 X91.406 Y86.632 E19.61738
G1 X91.734 Y86.504 E19.63495
G1 X92.092 Y86.391 E19.65368
G1 X92.434 Y86.309 E19.67122
G1 X92.793 Y86.247 E19.6894
G1 X93.154 Y86.212 E19.70749
G1 X93.516 Y86.2 E19.72556
G1 X93.878 Y86.214 E19.74364
G1 X94.238 Y86.252 E19.7617
G1 X94.597 Y86.315 E19.77988
G1 X94.95 Y86.402 E19.79802
G1 X95.284 Y86.51 E19.81553
G1 X95.629 Y86.647 E19.83405
G1 X95.958 Y86.805 E19.85226
G1 X96.262 Y86.977 E19.86969
G1 X96.564 Y87.176 E19.88773
G1 X96.862 Y87.404 E19.90645
G1 X97.124 Y87.633 E19.92381
G1 X97.389 Y87.9 E19.94258
G1 X97.625 Y88.173 E19.96058
G1 X97.835 Y88.451 E19.97796
G1 X98.04 Y88.766 E19.99671
G1 X98.216 Y89.082 E20.01476
G1 X98.37 Y89.41 E20.03284
G1 X98.496 Y89.734 E20.05018
G1 X98.609 Y90.092 E20.06891
G1 X98.691 Y90.432 E20.08636
G1 X98.752 Y90.788 E20.10438
G1 X98.788 Y91.148 E20.12243
G1 X98.8 Y91.51 E20.1405
G1 X98.787 Y91.871 E20.15852
G1 X98.748 Y92.238 E20.17694
G1 X98.685 Y92.597 E20.19512
G1 X98.598 Y92.95 E20.21326
G1 X98.49 Y93.284 E20.23077
G1 X98.353 Y93.629 E20.24929
G1 X98.196 Y93.955 E20.26734
G1 X98.023 Y94.262 E20.28492
G1 X97.824 Y94.564 E20.30297
G1 X97.596 Y94.862 E20.32169
G1 X97.367 Y95.124 E20.33905
G1 X97.103 Y95.386 E20.3576
G1 X96.831 Y95.622 E20.37557
G1 X96.549 Y95.835 E20.3932
G1 X96.237 Y96.038 E20.41177
G1 X95.922 Y96.214 E20.42977
G1 X95.594 Y96.368 E20.44785
G1 X95.266 Y96.496 E20.46542
G1 X94.908 Y96.609 E20.48415
G1 X94.566 Y96.691 E20.50169
G1 X94.207 Y96.753 E20.51987
G1 X93.846 Y96.788 E20.53796
G1 X93.484 Y96.8 E20.55603
G1 X93.122 Y96.786 E20.57411
G1 X92.762 Y96.748 E20.59217
G1 X92.403 Y96.685 E20.61035
G1 X92.05 Y96.598 E20.62849
G1 X91.716 Y96.49 E20.646
G1 X91.371 Y96.353 E20.66452
G1 X91.042 Y96.195 E20.68273
G1 X90.736 Y96.022 E20.70027
G1 X90.435 Y95.823 E20.71827
G1 X90.138 Y95.596 E20.73692
G1 X89.874 Y95.365 E20.75442
G1 X89.611 Y95.1 E20.77305
G1 X89.375 Y94.827 E20.79105
G1 X89.165 Y94.548 E20.80847
G1 X88.96 Y94.234 E20.82718
G1 X88.784 Y93.918 E20.84523
G1 X88.63 Y93.59 E20.8633
G1 X88.504 Y93.265 E20.88069
G1 X88.391 Y92.908 E20.89938
G1 X88.309 Y92.566 E20.91692
G1 X88.247 Y92.207 E20.9351
G1 X88.212 Y91.846 E20.95319
G1 X88.2 Y91.49 E20.97096
G1 X88.213 Y91.129 E20.98899
G1 X88.253 Y90.755 E21.00775
G1 X88.316 Y90.4 E21.02574
G1 X88.403 Y90.048 E21.04383
G1 X88.51 Y89.716 E21.06123
G1 X88.648 Y89.368 E21.07991
G1 X88.805 Y89.042 E21.09796
G1 X88.977 Y88.738 E21.11539
G1 X89.176 Y88.436 E21.13343
G1 X89.404 Y88.138 E21.15215
G0 F2700 X89.535 Y87.987
G0 X89.911 Y88.317
G0 X90.921 Y95.447
;TYPE:SKIN
G1 F1350 X89.549 Y94.074 E21.24899
G1 X89.479 Y94.004
G0 F2700 X89.021 Y92.981
G1 F1350 X92.016 Y95.976 E21.4603
G1 X92.086 Y96.046
G0 F2700 X92.764 Y96.158
G1 F1350 X88.839 Y92.233 E21.73723
G1 X88.769 Y92.163
G0 F2700 X88.784 Y91.612
G1 F1350 X93.386 Y96.214 E22.06193
G1 X93.456 Y96.284
G0 F2700 X93.932 Y96.195
G1 F1350 X88.802 Y91.065 E22.42388
G1 X88.732 Y90.995
G0 F2700 X88.874 Y90.571
G1 F1350 X94.428 Y96.125 E22.81574
G1 X94.498 Y96.195
G0 F2700 X94.877 Y96.008
G1 F1350 X92.639 Y93.77 E22.97364
G1 X92.569 Y93.7
G0 F2700 X93.356 Y93.922
G1 F1350 X95.295 Y95.861 E23.11045
G1 X95.365 Y95.931
G0 F2700 X95.682 Y95.682
G1 F1350 X93.894 Y93.894 E23.2366
G1 X93.824 Y93.824
G0 F2700 X94.344 Y93.778
G1 F1350 X96.039 Y95.474 E23.35623
G1 X96.109 Y95.544
G0 F2700 X96.372 Y95.241
G1 F1350 X94.726 Y93.594 E23.4724
G1 X94.656 Y93.524
G0 F2700 X95.057 Y93.36
G1 F1350 X96.681 Y94.984 E23.58698
G1 X96.751 Y95.054
G0 F2700 X96.964 Y94.702
G1 F1350 X95.345 Y93.082 E23.70125
G1 X95.275 Y93.012
G0 F2700 X95.578 Y92.75
G1 F1350 X97.222 Y94.394 E23.81724
G1 X97.292 Y94.464
G0 F2700 X97.458 Y94.064
G1 F1350 X95.764 Y92.37 E23.93676
G1 X95.694 Y92.3
