;FLAVOR:Marlin
;TIME:621
;Filament used: 0.437536m
;Layer height: 0.2
;Generated with Cura_SteamEngine 3.2.1
M104 S207
M109 S207
M82 ;absolute extrusion mode
G28 ;Home
G1 Z15.0 F6000 ;Move the platform down 15mm
;Prime the extruder
G92 E0
G1 F200 E3
G92 E0
;LAYER_COUNT:91
;LAYER:0
M107
G0 F2700 X51.284 Y43.533 Z0.2
;TYPE:WALL-INNER
G1 F1350 X52.52 Y43.907 E0.04295
G1 X53.667 Y44.522 E0.08624
G1 X54.663 Y45.337 E0.12904
G1 X55.478 Y46.333 E0.17185
G1 X56.093 Y47.48 E0.21513
G1 X56.467 Y48.716 E0.25808
G1 X56.593 Y50 E0.30099
G1 X56.467 Y51.284 E0.34391
G1 X56.093 Y52.52 E0.38686
G1 X55.478 Y53.667 E0.43014
G1 X54.663 Y54.663 E0.47295
G1 X53.667 Y55.478 E0.51575
G1 X52.52 Y56.093 E0.55904
G1 X51.284 Y56.467 E0.60199
G1 X50 Y56.593 E0.6449
G1 X48.716 Y56.467 E0.68781
G1 X47.48 Y56.093 E0.73076
G1 X46.333 Y55.478 E0.77405
G1 X45.337 Y54.663 E0.81685
G1 X44.522 Y53.667 E0.85966
G1 X43.907 Y52.52 E0.90294
G1 X43.533 Y51.284 E0.94589
G1 X43.407 Y50 E0.98881
G1 X43.533 Y48.716 E1.03172
G1 X43.907 Y47.48 E1.07467
G1 X44.522 Y46.333 E1.11795
G1 X45.337 Y45.337 E1.16076
G1 X46.333 Y44.522 E1.20356
G1 X47.48 Y43.907 E1.24685
G1 X48.716 Y43.533 E1.2898
G1 X50 Y43.407 E1.33271
G1 X51.284 Y43.533 E1.37562
G0 F2700 X51.364 Y43.139
G1 F1350 X52.675 Y43.536 E1.42118
G1 X53.889 Y44.186 E1.46698
G1 X54.947 Y45.053 E1.51248
G1 X55.814 Y46.111 E1.55797
G1 X56.464 Y47.325 E1.60377
G1 X56.861 Y48.636 E1.64933
G1 X56.995 Y50 E1.69492
G1 X56.861 Y51.364 E1.7405
G1 X56.464 Y52.675 E1.78606
G1 X55.814 Y53.889 E1.83187
G1 X54.947 Y54.947 E1.87736
G1 X53.889 Y55.814 E1.92286
G1 X52.675 Y56.464 E1.96866
G1 X51.364 Y56.861 E2.01422
G1 X50 Y56.995 E2.0598
G1 X48.636 Y56.861 E2.10539
G1 X47.325 Y56.464 E2.15095
G1 X46.111 Y55.814 E2.19675
G1 X45.053 Y54.947 E2.24224
G1 X44.186 Y53.889 E2.28774
G1 X43.536 Y52.675 E2.33354
G1 X43.139 Y51.364 E2.3791
G1 X43.005 Y50 E2.42468
G1 X43.139 Y48.636 E2.47027
G1 X43.536 Y47.325 E2.51583
G1 X44.186 Y46.111 E2.56163
G1 X45.053 Y45.053 E2.60713
G1 X46.111 Y44.186 E2.65262
G1 X47.325 Y43.536 E2.69842
G1 X48.636 Y43.139 E2.74398
G1 X50 Y43.005 E2.78957
G1 X51.364 Y43.139 E2.83515
G0 F2700 X51.444 Y42.745
G1 F1350 X52.83 Y43.165 E2.88332
G1 X54.108 Y43.849 E2.93153
G1 X55.231 Y44.769 E2.97982
G1 X56.151 Y45.892 E3.0281
G1 X56.835 Y47.17 E3.07631
G1 X57.255 Y48.556 E3.12448
G1 X57.397 Y50 E3.17274
G1 X57.255 Y51.444 E3.221
G1 X56.835 Y52.83 E3.26917
G1 X56.151 Y54.108 E3.31738
G1 X55.231 Y55.231 E3.36567
G1 X54.108 Y56.151 E3.41395
G1 X52.83 Y56.835 E3.46216
G1 X51.444 Y57.255 E3.51033
G1 X50 Y57.397 E3.55859
G1 X48.556 Y57.255 E3.60685
G1 X47.17 Y56.835 E3.65502
G1 X45.892 Y56.151 E3.70323
G1 X44.769 Y55.231 E3.75151
G1 X43.849 Y54.108 E3.7998
G1 X43.165 Y52.83 E3.84801
G1 X42.745 Y51.444 E3.89618
G1 X42.603 Y50 E3.94444
G1 X42.745 Y48.556 E3.9927
G1 X43.165 Y47.17 E4.04087
G1 X43.849 Y45.892 E4.08908
G1 X44.769 Y44.769 E4.13736
G1 X45.892 Y43.849 E4.18565
G1 X47.17 Y43.165 E4.23386
G1 X48.556 Y42.745 E4.28203
G1 X50 Y42.603 E4.33029
G1 X51.444 Y42.745 E4.37855
G0 F2700 X51.524 Y42.351
;TYPE:WALL-OUTER
G1 F1350 X52.985 Y42.794 E4.42933
G1 X54.33 Y43.513 E4.48005
G1 X55.515 Y44.485 E4.53103
G1 X56.487 Y45.67 E4.582
G1 X57.206 Y47.015 E4.63273
G1 X57.649 Y48.476 E4.68351
G1 X57.799 Y50 E4.73444
G1 X57.649 Y51.524 E4.78537
G1 X57.206 Y52.985 E4.83615
G1 X56.487 Y54.33 E4.88688
G1 X55.515 Y55.515 E4.93785
G1 X54.33 Y56.487 E4.98883
G1 X52.985 Y57.206 E5.03955
G1 X51.524 Y57.649 E5.09033
G1 X50 Y57.799 E5.14127
G1 X48.476 Y57.649 E5.1922
G1 X47.015 Y57.206 E5.24298
G1 X45.67 Y56.487 E5.2937
G1 X44.485 Y55.515 E5.34468
G1 X43.513 Y54.33 E5.39565
G1 X42.794 Y52.985 E5.44638
G1 X42.351 Y51.524 E5.49716
G1 X42.201 Y50 E5.54809
G1 X42.351 Y48.476 E5.59902
G1 X42.794 Y47.015 E5.6498
G1 X43.513 Y45.67 E5.70053
G1 X44.485 Y44.485 E5.7515
G1 X45.67 Y43.513 E5.80248
G1 X47.015 Y42.794 E5.85321
G1 X48.476 Y42.351 E5.90398
G1 X50 Y42.201 E5.95492
G1 X51.524 Y42.351 E6.00585
G0 F2700 X51.715 Y42.409
G0 X51.569 Y42.886
G0 X51.209 Y43.917
;TYPE:SKIN
G1 F1350 X52.37 Y44.269 E6.0462
G1 X53.448 Y44.846 E6.08687
G1 X54.386 Y45.614 E6.12719
G1 X55.154 Y46.552 E6.16751
G1 X55.731 Y47.63 E6.20818
G1 X56.083 Y48.791 E6.24853
G1 X56.201 Y50 E6.28893
G1 X56.083 Y51.209 E6.32933
G1 X55.731 Y52.37 E6.36968
G1 X55.154 Y53.448 E6.41035
G1 X54.386 Y54.386 E6.45067
G1 X53.448 Y55.154 E6.49099
G1 X52.37 Y55.731 E6.53166
G1 X51.209 Y56.083 E6.57201
G1 X50 Y56.201 E6.61242
G1 X48.791 Y56.083 E6.65282
G1 X47.63 Y55.731 E6.69317
G1 X46.552 Y55.154 E6.73384
G1 X45.614 Y54.386 E6.77416
G1 X44.846 Y53.448 E6.81448
G1 X44.269 Y52.37 E6.85515
G1 X43.917 Y51.209 E6.8955
G1 X43.799 Y50 E6.9359
G1 X43.917 Y48.791 E6.9763
G1 X44.269 Y47.63 E7.01665
G1 X44.846 Y46.552 E7.05732
G1 X45.614 Y45.614 E7.09764
G1 X46.552 Y44.846 E7.13796
G1 X47.63 Y44.269 E7.17863
G1 X48.791 Y43.917 E7.21898
G1 X50 Y43.799 E7.25938
G1 X51.209 Y43.917 E7.29979
G0 F2700 X54.391 Y45.906
G1 F1350 X54.093 Y45.608 E7.3138
G0 F2700 X52.417 Y44.497
G1 F1350 X55.502 Y47.582 E7.45891
G1 X55.572 Y47.652
G0 F2700 X55.787 Y48.433
G1 F1350 X51.566 Y44.212 E7.65746
G1 X51.496 Y44.142
G0 F2700 X50.85 Y44.062
G1 F1350 X55.937 Y49.149 E7.89673
G1 X56.007 Y49.219
G0 F2700 X55.997 Y49.775
G1 F1350 X50.224 Y44.001 E8.1683
G1 X50.154 Y43.931
G0 F2700 X49.669 Y44.012
G1 F1350 X55.987 Y50.33 E8.46548
G1 X56.057 Y50.4
G0 F2700 X55.937 Y50.846
G1 F1350 X49.153 Y44.061 E8.7846
G1 X49.083 Y43.991
G0 F2700 X48.667 Y44.141
G1 F1350 X55.857 Y51.332 E9.12282
G1 X55.927 Y51.402
G0 F2700 X55.726 Y51.766
G1 F1350 X48.233 Y44.273 E9.47527
G1 X48.163 Y44.203
G0 F2700 X47.798 Y44.404
G1 F1350 X55.595 Y52.201 E9.84201
G1 X55.665 Y52.271
G0 F2700 X55.413 Y52.584
G1 F1350 X47.415 Y44.586 E10.21822
G1 X47.345 Y44.516
G0 F2700 X47.047 Y44.784
G1 F1350 X55.215 Y52.953 E10.60244
G1 X55.285 Y53.023
G0 F2700 X55.018 Y53.321
G1 F1350 X46.678 Y44.981 E10.99473
G1 X46.608 Y44.911
G0 F2700 X46.364 Y45.232
G1 F1350 X54.767 Y53.636 E11.39
G1 X54.837 Y53.706
G0 F2700 X54.512 Y53.947
G1 F1350 X46.053 Y45.487 E11.78791
G1 X45.983 Y45.417
G0 F2700 X45.741 Y45.741
G1 F1350 X54.257 Y54.257 E12.18848
G1 X54.327 Y54.327
G0 F2700 X53.946 Y54.512
G1 F1350 X45.486 Y46.052 E12.58641
G1 X45.416 Y45.982
G0 F2700 X45.232 Y46.363
G1 F1350 X53.635 Y54.766 E12.98166
G1 X53.705 Y54.836
G0 F2700 X53.32 Y55.017
G1 F1350 X44.981 Y46.678 E13.3739
G1 X44.911 Y46.608
G0 F2700 X44.783 Y47.046
G1 F1350 X52.952 Y55.215 E13.75815
G1 X53.022 Y55.285
G0 F2700 X52.583 Y55.412
G1 F1350 X44.585 Y47.414 E14.13435
G1 X44.515 Y47.344
G0 F2700 X44.403 Y47.797
G1 F1350 X52.2 Y55.594 E14.50109
G1 X52.27 Y55.664
G0 F2700 X51.765 Y55.725
G1 F1350 X44.272 Y48.232 E14.85354
G1 X44.202 Y48.162
G0 F2700 X44.141 Y48.666
G1 F1350 X51.331 Y55.857 E15.19176
G1 X51.401 Y55.927
G0 F2700 X50.845 Y55.937
G1 F1350 X44.061 Y49.152 E15.51088
G1 X43.991 Y49.082
G0 F2700 X44.011 Y49.668
G1 F1350 X50.329 Y55.986 E15.80806
G1 X50.399 Y56.056
G0 F2700 X49.774 Y55.997
G1 F1350 X44.001 Y50.223 E16.07963
G1 X43.931 Y50.153
G0 F2700 X44.061 Y50.85
G1 F1350 X49.148 Y55.937 E16.31891
G1 X49.218 Y56.007
G0 F2700 X48.432 Y55.786
G1 F1350 X44.211 Y51.565 E16.51745
G1 X44.141 Y51.495
G0 F2700 X44.496 Y52.416
G1 F1350 X47.581 Y55.501 E16.66256
G1 X47.651 Y55.571
G0 F2700 X45.905 Y54.39
G1 F1350 X45.607 Y54.092 E16.67658
G0 F2700 X51.284 Y43.533
;TIME_ELAPSED:24.983764
;LAYER:1
M106 S76.5
G0 F4050 X51.284 Y43.533 Z0.4
;TYPE:WALL-INNER
G1 F1575 X52.52 Y43.907 E16.71953
G1 X53.667 Y44.522 E16.76281
G1 X54.663 Y45.337 E16.80562
G1 X55.478 Y46.333 E16.84842
G1 X56.093 Y47.48 E16.89171
G1 X56.467 Y48.716 E16.93466
G1 X56.593 Y50 E16.97757
G1 X56.467 Y51.284 E17.02048
G1 X56.093 Y52.52 E17.06343
G1 X55.478 Y53.667 E17.10672
G1 X54.663 Y54.663 E17.14952
G1 X53.667 Y55.478 E17.19233
G1 X52.52 Y56.093 E17.23561
G1 X51.284 Y56.467 E17.27856
G1 X50 Y56.593 E17.32148
G1 X48.716 Y56.467 E17.36439
G1 X47.48 Y56.093 E17.40734
G1 X46.333 Y55.478 E17.45062
G1 X45.337 Y54.663 E17.49343
G1 X44.522 Y53.667 E17.53623
G1 X43.907 Y52.52 E17.57952
G1 X43.533 Y51.284 E17.62247
G1 X43.407 Y50 E17.66538
G1 X43.533 Y48.716 E17.70829
G1 X43.907 Y47.48 E17.75124
G1 X44.522 Y46.333 E17.79453
G1 X45.337 Y45.337 E17.83733
G1 X46.333 Y44.522 E17.88014
G1 X47.48 Y43.907 E17.92343
G1 X48.716 Y43.533 E17.96638
G1 X50 Y43.407 E18.00929
G1 X51.284 Y43.533 E18.0522
G0 F4050 X51.364 Y43.139
G1 F1575 X52.675 Y43.536 E18.09776
G1 X53.889 Y44.186 E18.14356
G1 X54.947 Y45.053 E18.18905
G1 X55.814 Y46.111 E18.23455
G1 X56.464 Y47.325 E18.28035
G1 X56.861 Y48.636 E18.32591
G1 X56.995 Y50 E18.3715
G1 X56.861 Y51.364 E18.41708
G1 X56.464 Y52.675 E18.46264
G1 X55.814 Y53.889 E18.50844
G1 X54.947 Y54.947 E18.55394
G1 X53.889 Y55.814 E18.59943
G1 X52.675 Y56.464 E18.64523
G1 X51.364 Y56.861 E18.69079
G1 X50 Y56.995 E18.73638
G1 X48.636 Y56.861 E18.78196
G1 X47.325 Y56.464 E18.82752
G1 X46.111 Y55.814 E18.87332
G1 X45.053 Y54.947 E18.91882
G1 X44.186 Y53.889 E18.96431
G1 X43.536 Y52.675 E19.01012
G1 X43.139 Y51.364 E19.05567
G1 X43.005 Y50 E19.10126
G1 X43.139 Y48.636 E19.14685
G1 X43.536 Y47.325 E19.1924
G1 X44.186 Y46.111 E19.23821
G1 X45.053 Y45.053 E19.2837
G1 X46.111 Y44.186 E19.3292
G1 X47.325 Y43.536 E19.375
G1 X48.636 Y43.139 E19.42056
G1 X50 Y43.005 E19.46614
G1 X51.364 Y43.139 E19.51173
G0 F4050 X51.444 Y42.745
G1 F1575 X52.83 Y43.165 E19.5599
G1 X54.108 Y43.849 E19.60811
G1 X55.231 Y44.769 E19.65639
G1 X56.151 Y45.892 E19.70468
G1 X56.835 Y47.17 E19.75289
G1 X57.255 Y48.556 E19.80106
G1 X57.397 Y50 E19.84932
G1 X57.255 Y51.444 E19.89758
G1 X56.835 Y52.83 E19.94575
G1 X56.151 Y54.108 E19.99396
G1 X55.231 Y55.231 E20.04224
G1 X54.108 Y56.151 E20.09053
G1 X52.83 Y56.835 E20.13874
G1 X51.444 Y57.255 E20.18691
G1 X50 Y57.397 E20.23517
G1 X48.556 Y57.255 E20.28343
G1 X47.17 Y56.835 E20.33159
G1 X45.892 Y56.151 E20.37981
G1 X44.769 Y55.231 E20.42809
G1 X43.849 Y54.108 E20.47638
G1 X43.165 Y52.83 E20.52459
G1 X42.745 Y51.444 E20.57276
G1 X42.603 Y50 E20.62101
G1 X42.745 Y48.556 E20.66927
G1 X43.165 Y47.17 E20.71744
G1 X43.849 Y45.892 E20.76565
G1 X44.769 Y44.769 E20.81394
G1 X45.892 Y43.849 E20.86222
G1 X47.17 Y43.165 E20.91044
G1 X48.556 Y42.745 E20.9586
G1 X50 Y42.603 E21.00686
G1 X51.444 Y42.745 E21.05512
G0 F4050 X51.524 Y42.351
;TYPE:WALL-OUTER
G1 F1575 X52.985 Y42.794 E21.1059
G1 X54.33 Y43.513 E21.15663
G1 X55.515 Y44.485 E21.2076
G1 X56.487 Y45.67 E21.25858
G1 X57.206 Y47.015 E21.3093
G1 X57.649 Y48.476 E21.36008
G1 X57.799 Y50 E21.41102
G1 X57.649 Y51.524 E21.46195
G1 X57.206 Y52.985 E21.51273
G1 X56.487 Y54.33 E21.56345
G1 X55.515 Y55.515 E21.61443
G1 X54.33 Y56.487 E21.6654
G1 X52.985 Y57.206 E21.71613
G1 X51.524 Y57.649 E21.76691
G1 X50 Y57.799 E21.81784
G1 X48.476 Y57.649 E21.86877
G1 X47.015 Y57.206 E21.91955
G1 X45.67 Y56.487 E21.97028
G1 X44.485 Y55.515 E22.02125
G1 X43.513 Y54.33 E22.07223
G1 X42.794 Y52.985 E22.12296
G1 X42.351 Y51.524 E22.17373
G1 X42.201 Y50 E22.22467
G1 X42.351 Y48.476 E22.2756
G1 X42.794 Y47.015 E22.32638
G1 X43.513 Y45.67 E22.3771
G1 X44.485 Y44.485 E22.42808
G1 X45.67 Y43.513 E22.47906
G1 X47.015 Y42.794 E22.52978
G1 X48.476 Y42.351 E22.58056
G1 X50 Y42.201 E22.63149
G1 X51.524 Y42.351 E22.68243
G0 F4050 X51.715 Y42.409
G0 X51.569 Y42.886
G0 X51.209 Y43.917
;TYPE:SKIN
G1 F1575 X52.37 Y44.269 E22.72278
G1 X53.448 Y44.846 E22.76344
G1 X54.386 Y45.614 E22.80377
G1 X55.154 Y46.552 E22.84409
G1 X55.731 Y47.63 E22.88475
G1 X56.083 Y48.791 E22.9251
G1 X56.201 Y50 E22.96551
G1 X56.083 Y51.209 E23.00591
G1 X55.731 Y52.37 E23.04626
G1 X55.154 Y53.448 E23.08693
G1 X54.386 Y54.386 E23.12725
G1 X53.448 Y55.154 E23.16757
G1 X52.37 Y55.731 E23.20824
G1 X51.209 Y56.083 E23.24859
G1 X50 Y56.201 E23.28899
G1 X48.791 Y56.083 E23.32939
G1 X47.63 Y55.731 E23.36974
G1 X46.552 Y55.154 E23.41041
G1 X45.614 Y54.386 E23.45073
G1 X44.846 Y53.448 E23.49105
G1 X44.269 Y52.37 E23.53172
G1 X43.917 Y51.209 E23.57207
G1 X43.799 Y50 E23.61248
G1 X43.917 Y48.791 E23.65288
G1 X44.269 Y47.63 E23.69323
G1 X44.846 Y46.552 E23.7339
G1 X45.614 Y45.614 E23.77422
G1 X46.552 Y44.846 E23.81454
G1 X47.63 Y44.269 E23.85521
G1 X48.791 Y43.917 E23.89556
G1 X50 Y43.799 E23.93596
G1 X51.209 Y43.917 E23.97636
G0 F4050 X45.032 Y46.608
G1 F1575 X46.609 Y45.031 E24.05054
G1 X46.679 Y44.961
G0 F4050 X47.804 Y44.402
G1 F1575 X44.402 Y47.803 E24.21054
G1 X44.332 Y47.873
G0 F4050 X44.157 Y48.615
G1 F1575 X48.615 Y44.156 E24.42025
G1 X48.685 Y44.086
G0 F4050 X49.289 Y44.048
G1 F1575 X44.049 Y49.288 E24.66672
G1 X43.979 Y49.358
G0 F4050 X43.988 Y49.915
G1 F1575 X49.916 Y43.987 E24.94556
G1 X49.986 Y43.917
G0 F4050 X50.446 Y44.023
G1 F1575 X44.023 Y50.445 E25.24765
G1 X43.953 Y50.515
G0 F4050 X44.073 Y50.961
G1 F1575 X50.962 Y44.072 E25.57169
G1 X51.032 Y44.002
G0 F4050 X51.429 Y44.17
G1 F1575 X44.171 Y51.429 E25.91311
G1 X44.101 Y51.499
G0 F4050 X44.303 Y51.863
G1 F1575 X51.864 Y44.302 E26.26875
G1 X51.934 Y44.232
G0 F4050 X52.298 Y44.433
G1 F1575 X44.434 Y52.297 E26.63865
G1 X44.364 Y52.367
G0 F4050 X44.631 Y52.666
G1 F1575 X52.666 Y44.631 E27.01659
G1 X52.736 Y44.561
G0 F4050 X53.035 Y44.828
G1 F1575 X44.829 Y53.034 E27.40258
G1 X44.759 Y53.104
G0 F4050 X45.035 Y53.393
G1 F1575 X53.394 Y45.034 E27.79576
G1 X53.464 Y44.964
G0 F4050 X53.705 Y45.289
G1 F1575 X45.29 Y53.704 E28.19158
G1 X45.22 Y53.774
G0 F4050 X45.544 Y54.015
G1 F1575 X54.016 Y45.544 E28.59005
G1 X54.086 Y45.474
G0 F4050 X54.314 Y45.812
G1 F1575 X45.811 Y54.314 E28.98998
G1 X45.741 Y54.384
G0 F4050 X46.122 Y54.569
G1 F1575 X54.568 Y46.123 E29.38726
G1 X54.638 Y46.053
G0 F4050 X54.823 Y46.434
G1 F1575 X46.433 Y54.824 E29.7819
G1 X46.363 Y54.894
G0 F4050 X46.76 Y55.062
G1 F1575 X55.061 Y46.761 E30.17235
G1 X55.131 Y46.691
G0 F4050 X55.258 Y47.13
G1 F1575 X47.129 Y55.259 E30.55471
G1 X47.059 Y55.329
G0 F4050 X47.497 Y55.456
G1 F1575 X55.456 Y47.498 E30.92906
G1 X55.526 Y47.428
G0 F4050 X55.623 Y47.896
G1 F1575 X47.895 Y55.624 E31.29256
G1 X47.825 Y55.694
G0 F4050 X48.33 Y55.756
G1 F1575 X55.755 Y48.33 E31.64183
G1 X55.825 Y48.26
G0 F4050 X55.886 Y48.764
G1 F1575 X48.764 Y55.887 E31.97685
G1 X48.694 Y55.957
G0 F4050 X49.268 Y55.949
G1 F1575 X55.948 Y49.269 E32.29106
G1 X56.018 Y49.199
G0 F4050 X55.997 Y49.785
G1 F1575 X49.784 Y55.998 E32.5833
G1 X49.714 Y56.068
G0 F4050 X50.365 Y55.983
G1 F1575 X55.983 Y50.365 E32.84755
G1 X56.053 Y50.295
G0 F4050 X55.922 Y50.991
G1 F1575 X50.99 Y55.923 E33.07954
G1 X50.92 Y55.993
G0 F4050 X51.748 Y55.732
G1 F1575 X55.731 Y51.748 E33.26691
G1 X55.801 Y51.678
G0 F4050 X55.356 Y52.689
G1 F1575 X52.688 Y55.357 E33.3924
G1 X52.618 Y55.427
G0 F4050 X51.284 Y43.533
;TIME_ELAPSED:45.283330
;LAYER:2
G0 F5400 X51.284 Y43.533 Z0.6
;TYPE:WALL-INNER
G1 F1800 X52.52 Y43.907 E33.43535
G1 X53.667 Y44.522 E33.47864
G1 X54.663 Y45.337 E33.52144
G1 X55.478 Y46.333 E33.56425
G1 X56.093 Y47.48 E33.60754
G1 X56.467 Y48.716 E33.65049
G1 X56.593 Y50 E33.6934
G1 X56.467 Y51.284 E33.73631
G1 X56.093 Y52.52 E33.77926
G1 X55.478 Y53.667 E33.82255
G1 X54.663 Y54.663 E33.86535
G1 X53.667 Y55.478 E33.90815
G1 X52.52 Y56.093 E33.95144
G1 X51.284 Y56.467 E33.99439
G1 X50 Y56.593 E34.0373
G1 X48.716 Y56.467 E34.08021
G1 X47.48 Y56.093 E34.12316
G1 X46.333 Y55.478 E34.16645
G1 X45.337 Y54.663 E34.20926
G1 X44.522 Y53.667 E34.25206
G1 X43.907 Y52.52 E34.29535
G1 X43.533 Y51.284 E34.3383
G1 X43.407 Y50 E34.38121
G1 X43.533 Y48.716 E34.42412
G1 X43.907 Y47.48 E34.46707
G1 X44.522 Y46.333 E34.51036
G1 X45.337 Y45.337 E34.55316
G1 X46.333 Y44.522 E34.59597
G1 X47.48 Y43.907 E34.63925
G1 X48.716 Y43.533 E34.6822
G1 X50 Y43.407 E34.72511
G1 X51.284 Y43.533 E34.76803
G0 F5400 X51.364 Y43.139
G1 F1800 X52.675 Y43.536 E34.81359
G1 X53.889 Y44.186 E34.85939
G1 X54.947 Y45.053 E34.90488
G1 X55.814 Y46.111 E34.95038
G1 X56.464 Y47.325 E34.99618
G1 X56.861 Y48.636 E35.04174
G1 X56.995 Y50 E35.08732
G1 X56.861 Y51.364 E35.13291
G1 X56.464 Y52.675 E35.17847
G1 X55.814 Y53.889 E35.22427
G1 X54.947 Y54.947 E35.26976
G1 X53.889 Y55.814 E35.31526
G1 X52.675 Y56.464 E35.36106
G1 X51.364 Y56.861 E35.40662
G1 X50 Y56.995 E35.45221
G1 X48.636 Y56.861 E35.49779
G1 X47.325 Y56.464 E35.54335
G1 X46.111 Y55.814 E35.58915
