;FLAVOR:Marlin
;TIME:5711
;Filament used: 2.01414m
;Layer height: 0.1
;Generated with Cura_SteamEngine master
M190 S50
M104 S207
M109 S207
G21 ;metric values
G90 ;absolute positioning
M82 ;set extruder to absolute mode
M107 ;start with the fan off
G28 X0 Y0 ;move X/Y to min endstops
G28 Z0 ;move Z to min endstops
G1 Z15.0 F9000 ;move the platform down 15mm
G92 E0 ;zero the extruded length
G1 F200 E3 ;extrude 3mm of feed stock
G92 E0 ;zero the extruded length again
G1 F9000
;Put printing message on LCD screen
M117 Printing...
;LAYER_COUNT:214
;LAYER:0
M107
G0 F2700 X63.196 Y89.734 Z0.3
;TYPE:SKIRT
G1 F1350 X65.469 Y88.203 E0.13673
G1 X65.902 Y87.953 E0.16167
G1 X68.414 Y86.728 E0.3011
G1 X68.846 Y86.551 E0.32439
G1 X73.668 Y84.932 E0.57816
G1 X78.769 Y82.951 E0.85117
G1 X83.722 Y80.695 E1.1227
G1 X88.552 Y78.158 E1.39489
G1 X93.264 Y75.33 E1.66906
G1 X95.865 Y73.673 E1.82292
G1 X96.581 Y73.322 E1.8627
G1 X97.048 Y73.154 E1.88746
G1 X97.565 Y73.01 E1.91424
G1 X97.83 Y72.968 E1.92763
G1 X98.501 Y72.886 E1.96135
G1 X98.935 Y72.859 E1.98304
G1 X117.902 Y72.842 E2.92931
G1 X118.124 Y72.849 E2.94039
G1 X119.404 Y72.927 E3.00437
G1 X119.935 Y72.999 E3.03111
G1 X120.323 Y73.105 E3.05117
G1 X121.175 Y73.389 E3.09598
G1 X121.67 Y73.596 E3.12275
G1 X122.079 Y73.839 E3.14648
G1 X122.638 Y74.224 E3.18034
G1 X123.24 Y74.746 E3.2201
G1 X123.786 Y75.337 E3.26024
G1 X124.12 Y75.757 E3.28701
G1 X124.328 Y76.105 E3.30724
G1 X124.674 Y76.763 E3.34433
G1 X124.888 Y77.254 E3.37105
G1 X125.022 Y77.752 E3.39678
G1 X125.209 Y78.716 E3.44577
G1 X125.272 Y79.249 E3.47254
G1 X125.264 Y79.685 E3.4943
G1 X125.206 Y80.421 E3.53113
G1 X125.098 Y81.058 E3.56337
G1 X124.968 Y81.55 E3.58876
G1 X124.738 Y82.177 E3.62207
G1 X123.207 Y85.394 E3.79982
G1 X121.062 Y90.484 E4.07539
G1 X120.141 Y92.956 E4.207
G1 X118.445 Y98.18 E4.48102
G1 X117.052 Y103.472 E4.75403
G1 X115.914 Y109.12 E5.04147
G1 X115.802 Y109.541 E5.06321
G1 X115.37 Y110.845 E5.13174
G1 X115.164 Y111.34 E5.15849
G1 X114.972 Y111.674 E5.17771
G1 X114.338 Y112.65 E5.23577
G1 X114.013 Y113.077 E5.26255
G1 X113.801 Y113.296 E5.27775
G1 X112.966 Y114.091 E5.33527
G1 X112.552 Y114.431 E5.362
G1 X112.15 Y114.675 E5.38546
G1 X104.69 Y118.571 E5.80534
G1 X100.005 Y121.365 E6.07749
G1 X95.465 Y124.433 E6.35086
G1 X90.818 Y127.947 E6.64152
G1 X90.449 Y128.193 E6.66364
G1 X88.067 Y129.57 E6.80091
G1 X87.635 Y129.782 E6.82492
G1 X85.672 Y130.59 E6.93082
G1 X85.415 Y130.685 E6.94449
G1 X84.114 Y131.108 E7.01275
G1 X83.848 Y131.183 E7.02653
G1 X81.742 Y131.693 E7.13464
G1 X81.268 Y131.775 E7.15864
G1 X78.529 Y132.06 E7.29603
G1 X78.026 Y132.077 E7.32114
G1 X75.253 Y131.977 E7.45957
G1 X74.76 Y131.925 E7.4843
G1 X72.03 Y131.445 E7.62259
G1 X71.559 Y131.329 E7.64679
G1 X69.528 Y130.681 E7.75315
G1 X69.28 Y130.591 E7.76631
G1 X68.073 Y130.106 E7.83121
G1 X67.815 Y129.991 E7.8453
G1 X65.836 Y129.009 E7.95552
G1 X65.417 Y128.765 E7.97971
G1 X63.124 Y127.212 E8.11788
G1 X62.731 Y126.903 E8.14282
G1 X60.678 Y125.05 E8.2808
G1 X60.333 Y124.693 E8.30557
G1 X58.575 Y122.6 E8.44193
G1 X58.279 Y122.193 E8.46704
G1 X56.75 Y119.747 E8.61095
G1 X56.509 Y119.292 E8.63664
G1 X55.379 Y116.731 E8.77629
G1 X55.212 Y116.267 E8.8009
G1 X54.461 Y113.639 E8.93726
G1 X54.357 Y113.152 E8.9621
G1 X53.969 Y110.396 E9.10095
G1 X53.934 Y109.894 E9.12606
G1 X53.934 Y107.114 E9.26475
G1 X53.969 Y106.614 E9.28976
G1 X54.358 Y103.842 E9.42941
G1 X54.458 Y103.366 E9.45368
G1 X55.03 Y101.336 E9.5589
G1 X55.111 Y101.084 E9.5721
G1 X55.565 Y99.833 E9.6385
G1 X55.667 Y99.581 E9.65206
G1 X56.552 Y97.618 E9.75949
G1 X56.782 Y97.189 E9.78378
G1 X58.252 Y94.839 E9.92207
G1 X58.537 Y94.445 E9.94633
G1 X59.882 Y92.829 E10.05122
G1 X60.052 Y92.638 E10.06398
G1 X60.973 Y91.679 E10.13031
G1 X61.18 Y91.481 E10.1446
G1 X62.817 Y90.028 E10.2538
G1 X63.196 Y89.734 E10.27774
G0 F2700 X63.419 Y90.066
G1 F1350 X65.692 Y88.535 E10.41446
G1 X66.077 Y88.313 E10.43663
G1 X68.589 Y87.088 E10.57606
G1 X68.974 Y86.93 E10.59683
G1 X73.807 Y85.307 E10.85118
G1 X78.923 Y83.321 E11.12497
G1 X83.896 Y81.056 E11.3976
G1 X88.751 Y78.505 E11.67122
G1 X93.463 Y75.678 E11.94536
G1 X96.08 Y74.01 E12.10019
G1 X96.717 Y73.698 E12.13558
G1 X97.184 Y73.53 E12.16034
G1 X97.879 Y73.365 E12.19598
G1 X98.55 Y73.283 E12.2297
G1 X98.935 Y73.259 E12.24895
G1 X117.902 Y73.242 E13.19522
G1 X118.1 Y73.248 E13.2051
G1 X119.38 Y73.326 E13.26908
G1 X119.88 Y73.396 E13.29426
G1 X120.197 Y73.484 E13.31068
G1 X121.049 Y73.768 E13.35548
G1 X121.514 Y73.965 E13.38068
G1 X121.852 Y74.169 E13.40037
G1 X122.411 Y74.554 E13.43424
G1 X122.946 Y75.018 E13.46957
G1 X123.492 Y75.609 E13.50971
G1 X123.805 Y76.006 E13.53493
G1 X123.974 Y76.291 E13.55146
G1 X124.32 Y76.949 E13.58855
G1 X124.52 Y77.413 E13.61376
G1 X124.629 Y77.829 E13.63522
G1 X124.816 Y78.793 E13.68421
G1 X124.873 Y79.295 E13.70941
G1 X124.865 Y79.653 E13.72728
G1 X124.807 Y80.389 E13.76411
G1 X124.711 Y80.955 E13.79275
G1 X124.581 Y81.447 E13.81814
G1 X124.376 Y82.005 E13.8478
G1 X122.842 Y85.227 E14.02583
G1 X120.702 Y90.308 E14.30089
G1 X119.763 Y92.826 E14.43497
G1 X118.058 Y98.081 E14.71059
G1 X116.663 Y103.376 E14.98378
G1 X115.522 Y109.041 E15.27208
G1 X115.423 Y109.415 E15.29138
G1 X114.991 Y110.719 E15.35991
G1 X114.794 Y111.185 E15.38516
G1 X114.637 Y111.456 E15.40078
G1 X114.003 Y112.432 E15.45885
G1 X113.526 Y113.007 E15.49612
G1 X112.691 Y113.802 E15.55364
G1 X112.298 Y114.12 E15.57886
G1 X111.965 Y114.32 E15.59824
G1 X104.493 Y118.222 E16.01879
G1 X99.79 Y121.027 E16.29199
G1 X95.243 Y124.1 E16.56578
G1 X90.577 Y127.628 E16.85762
G1 X90.249 Y127.846 E16.87727
G1 X87.867 Y129.223 E17.01454
G1 X87.483 Y129.412 E17.03589
G1 X85.52 Y130.22 E17.1418
G1 X85.291 Y130.304 E17.15397
G1 X83.99 Y130.727 E17.22222
G1 X83.754 Y130.794 E17.23446
G1 X81.648 Y131.304 E17.34257
G1 X81.226 Y131.377 E17.36393
G1 X78.487 Y131.662 E17.50132
G1 X78.041 Y131.677 E17.52358
G1 X75.268 Y131.577 E17.66202
G1 X74.829 Y131.531 E17.68404
G1 X72.099 Y131.051 E17.82233
G1 X71.68 Y130.948 E17.84386
G1 X69.649 Y130.3 E17.95021
G1 X69.429 Y130.22 E17.96189
G1 X68.222 Y129.735 E18.02679
G1 X67.993 Y129.632 E18.03932
G1 X66.014 Y128.65 E18.14954
G1 X65.642 Y128.434 E18.171
G1 X63.349 Y126.881 E18.30917
G1 X62.999 Y126.606 E18.33137
G1 X60.946 Y124.753 E18.46935
G1 X60.64 Y124.436 E18.49133
G1 X58.882 Y122.343 E18.6277
G1 X58.619 Y121.981 E18.65002
G1 X57.09 Y119.535 E18.79393
G1 X56.875 Y119.131 E18.81676
G1 X55.745 Y116.57 E18.95642
G1 X55.596 Y116.157 E18.97832
G1 X54.845 Y113.529 E19.11468
G1 X54.753 Y113.096 E19.13677
G1 X54.365 Y110.34 E19.27562
G1 X54.334 Y109.894 E19.29792
G1 X54.334 Y107.114 E19.43662
G1 X54.365 Y106.669 E19.45887
G1 X54.754 Y103.897 E19.59852
G1 X54.843 Y103.474 E19.62009
G1 X55.415 Y101.444 E19.72531
G1 X55.487 Y101.22 E19.73705
G1 X55.941 Y99.969 E19.80345
G1 X56.032 Y99.746 E19.81546
G1 X56.917 Y97.783 E19.92289
G1 X57.121 Y97.401 E19.94449
G1 X58.591 Y95.051 E20.08278
G1 X58.844 Y94.701 E20.10433
G1 X60.189 Y93.085 E20.20922
G1 X60.341 Y92.915 E20.2206
G1 X61.262 Y91.956 E20.28694
G1 X61.446 Y91.78 E20.29964
G1 X63.083 Y90.327 E20.40884
G1 X63.419 Y90.066 E20.43007
G1 F1500 E13.93007
G0 F2700 X64.823 Y92.167
G0 X65.542 Y93.231
G0 X65.591 Y93.294
G0 X65.53 Y93.216
;TYPE:WALL-INNER
G1 F1500 E20.43007
G1 F1350 X67.778 Y91.7 E20.56534
G1 X70.216 Y90.511 E20.70067
G1 X72.779 Y89.678 E20.83512
G1 X75.446 Y89.209 E20.97022
G1 X78.153 Y89.113 E21.10536
G1 X80.848 Y89.397 E21.24055
G1 X83.471 Y90.051 E21.37542
G1 X85.982 Y91.065 E21.51053
G1 X88.32 Y92.416 E21.64524
G1 X90.453 Y94.082 E21.78027
G1 X92.335 Y96.03 E21.91541
G1 X93.928 Y98.223 E22.05063
G1 X95.198 Y100.612 E22.18562
G1 X96.123 Y103.153 E22.32053
G1 X96.685 Y105.799 E22.45548
G1 X96.874 Y108.5 E22.59056
G1 X96.685 Y111.201 E22.72565
G1 X96.123 Y113.847 E22.8606
G1 X95.198 Y116.388 E22.99551
G1 X93.928 Y118.777 E23.13049
G1 X92.335 Y120.97 E23.26572
G1 X90.453 Y122.918 E23.40085
G1 X88.32 Y124.584 E23.53588
G1 X85.982 Y125.935 E23.6706
G1 X83.471 Y126.949 E23.8057
G1 X80.848 Y127.603 E23.94057
G1 X78.153 Y127.887 E24.07577
G1 X75.446 Y127.791 E24.21091
G1 X72.779 Y127.322 E24.34601
G1 X70.216 Y126.489 E24.48046
G1 X67.778 Y125.3 E24.61578
G1 X65.53 Y123.784 E24.75106
G1 X63.518 Y121.971 E24.88618
G1 X61.783 Y119.905 E25.02078
G1 X60.348 Y117.604 E25.15607
G1 X59.247 Y115.136 E25.29089
G1 X58.501 Y112.531 E25.42608
G1 X58.124 Y109.853 E25.561
G1 X58.124 Y107.147 E25.69601
G1 X58.501 Y104.469 E25.83093
G1 X59.247 Y101.864 E25.96612
G1 X60.348 Y99.396 E26.10094
G1 X61.783 Y97.095 E26.23624
G1 X63.518 Y95.029 E26.37083
G1 X65.53 Y93.216 E26.50595
G0 F2700 X65.591 Y93.294
G0 X73.491 Y106.688
G0 X73.547 Y106.77
G1 F1350 X73.084 Y107.178 E26.53674
G1 X72.735 Y107.686 E26.56749
G1 X72.517 Y108.262 E26.59822
G1 X72.443 Y108.872 E26.62887
G1 X72.517 Y109.483 E26.65958
G1 X72.735 Y110.059 E26.69031
G1 X73.084 Y110.567 E26.72105
G1 X73.547 Y110.975 E26.75184
G1 X74.091 Y111.261 E26.7825
G1 X74.69 Y111.408 E26.81328
G1 X75.305 Y111.408 E26.84396
G1 X75.902 Y111.261 E26.87463
G1 X76.447 Y110.975 E26.90534
G1 X76.91 Y110.567 E26.93613
G1 X77.083 Y110.316 E26.95134
G1 X77.247 Y110.076 E26.96584
G1 X77.411 Y110.316 E26.97434
G1 X77.584 Y110.567 E26.98955
G1 X78.047 Y110.975 E27.02034
G1 X78.591 Y111.261 E27.051
G1 X79.19 Y111.408 E27.08177
G1 X79.805 Y111.408 E27.11245
G1 X80.402 Y111.261 E27.14313
G1 X80.947 Y110.975 E27.17383
G1 X81.41 Y110.567 E27.20462
G1 X81.759 Y110.059 E27.23537
G1 X81.977 Y109.483 E27.2661
G1 X82.051 Y108.872 E27.2968
G1 X81.977 Y108.262 E27.32746
G1 X81.759 Y107.686 E27.35818
G1 X81.41 Y107.178 E27.38893
G1 X80.947 Y106.77 E27.41972
G1 X80.402 Y106.484 E27.45043
G1 X79.805 Y106.337 E27.4811
G1 X79.19 Y106.337 E27.51178
G1 X78.591 Y106.484 E27.54255
G1 X78.047 Y106.77 E27.57322
G1 X77.584 Y107.178 E27.60401
G1 X77.411 Y107.429 E27.61921
G1 X77.247 Y107.669 E27.63372
G1 X77.083 Y107.429 E27.64222
G1 X76.91 Y107.178 E27.65743
G1 X76.447 Y106.77 E27.68821
G1 X75.902 Y106.484 E27.71892
G1 X75.305 Y106.337 E27.74959
G1 X74.69 Y106.337 E27.78028
G1 X74.091 Y106.484 E27.81105
G1 X73.547 Y106.77 E27.84171
G0 F2700 X73.775 Y107.102
;TYPE:WALL-OUTER
G1 F1350 X73.386 Y107.445 E27.86758
G1 X73.092 Y107.873 E27.89349
G1 X72.908 Y108.358 E27.91937
G1 X72.846 Y108.872 E27.9452
G1 X72.908 Y109.387 E27.97108
G1 X73.092 Y109.872 E27.99696
G1 X73.386 Y110.3 E28.02286
G1 X73.775 Y110.643 E28.04874
G1 X74.234 Y110.884 E28.0746
G1 X74.738 Y111.008 E28.1005
G1 X75.256 Y111.008 E28.12634
G1 X75.759 Y110.884 E28.15219
G1 X76.219 Y110.643 E28.17809
G1 X76.608 Y110.3 E28.20397
G1 X76.902 Y109.872 E28.22987
G1 X77.05 Y109.482 E28.25068
G1 X77.086 Y109.387 E28.25575
G1 X77.09 Y109.35 E28.25761
G1 X77.148 Y108.872 E28.28163
G1 X77.091 Y108.396 E28.30555
G1 X77.086 Y108.358 E28.30746
G1 X77.05 Y108.263 E28.31253
G1 X76.902 Y107.873 E28.33334
G1 X76.608 Y107.445 E28.35925
G1 X76.219 Y107.102 E28.38512
G1 X75.759 Y106.861 E28.41103
G1 X75.256 Y106.737 E28.43688
G1 X74.738 Y106.737 E28.46272
G1 X74.234 Y106.861 E28.48861
G1 X73.775 Y107.102 E28.51448
G0 F2700 X73.625 Y107.234
G0 X73.295 Y106.858
G0 X74.077 Y106.447
G0 X74.686 Y106.298
G0 X75.309 Y106.298
G0 X75.916 Y106.447
G0 X76.469 Y106.738
G0 X76.939 Y107.152
G0 X77.247 Y107.569
G0 X77.408 Y108.358
G1 F1350 X77.404 Y108.395 E28.51576
G1 X77.346 Y108.872 E28.53114
G1 X77.403 Y109.349 E28.54649
G1 X77.408 Y109.387 E28.54783
G1 X77.444 Y109.482 E28.5529
G1 X77.592 Y109.872 E28.57371
G1 X77.886 Y110.3 E28.59962
G1 X78.275 Y110.643 E28.62549
G1 X78.734 Y110.884 E28.65136
G1 X79.238 Y111.008 E28.67725
G1 X79.756 Y111.008 E28.70309
G1 X80.259 Y110.884 E28.72894
G1 X80.719 Y110.643 E28.75485
G1 X81.108 Y110.3 E28.78072
G1 X81.402 Y109.872 E28.80663
G1 X81.586 Y109.387 E28.83251
G1 X81.648 Y108.872 E28.85839
G1 X81.586 Y108.358 E28.88422
G1 X81.402 Y107.873 E28.91009
G1 X81.108 Y107.445 E28.936
G1 X80.719 Y107.102 E28.96187
G1 X80.259 Y106.861 E28.98778
G1 X79.756 Y106.737 E29.01363
G1 X79.238 Y106.737 E29.03947
G1 X78.734 Y106.861 E29.06537
G1 X78.275 Y107.102 E29.09123
G1 X77.886 Y107.445 E29.1171
G1 X77.592 Y107.873 E29.14301
G1 X77.444 Y108.263 E29.16382
G1 X77.408 Y108.358 E29.16889
G0 F2700 X77.404 Y108.395
G0 X77.385 Y108.556
G0 X77.247 Y107.569
G0 X70.253 Y90.603
G0 X70.062 Y90.141
G1 F1350 X72.684 Y89.289 E29.30643
G1 X75.406 Y88.81 E29.44432
G1 X78.167 Y88.712 E29.58216
G1 X80.916 Y89.002 E29.72007
G1 X83.596 Y89.67 E29.85786
G1 X86.154 Y90.703 E29.99549
G1 X88.544 Y92.084 E30.13321
G1 X90.724 Y93.787 E30.27122
G1 X92.642 Y95.772 E30.40893
G1 X94.267 Y98.009 E30.54687
G1 X95.565 Y100.45 E30.6848
G1 X96.507 Y103.039 E30.82225
G1 X97.082 Y105.745 E30.96027
G1 X97.275 Y108.5 E31.09805
G1 X97.082 Y111.255 E31.23584
G1 X96.507 Y113.961 E31.37385
G1 X95.565 Y116.55 E31.5113
G1 X94.267 Y118.991 E31.64923
G1 X92.642 Y121.228 E31.78717
G1 X90.724 Y123.213 E31.92488
G1 X88.544 Y124.916 E32.0629
G1 X86.154 Y126.297 E32.20061
G1 X83.596 Y127.33 E32.33824
G1 X80.916 Y127.998 E32.47604
G1 X78.167 Y128.288 E32.61395
G1 X75.406 Y128.19 E32.75178
G1 X72.684 Y127.711 E32.88967
G1 X70.062 Y126.859 E33.02721
G1 X67.576 Y125.647 E33.16519
G1 X65.286 Y124.102 E33.30301
G1 X63.232 Y122.252 E33.44093
G1 X61.458 Y120.139 E33.57857
G1 X59.994 Y117.793 E33.71653
G1 X58.869 Y115.269 E33.8544
G1 X58.109 Y112.618 E33.99198
G1 X57.724 Y109.881 E34.12988
G1 X57.724 Y107.119 E34.26767
G1 X58.109 Y104.382 E34.40557
G1 X58.869 Y101.731 E34.54316
G1 X59.994 Y99.207 E34.68102
G1 X61.458 Y96.861 E34.81898
G1 X63.232 Y94.748 E34.95663
G1 X65.286 Y92.898 E35.09454
G1 X67.576 Y91.353 E35.23236
G1 X70.062 Y90.141 E35.37034
G0 F2700 X70.252 Y90.08
G0 X70.404 Y90.555
G0 X89.989 Y93.949
;TYPE:SKIN
G1 F1350 X92.221 Y96.181 E35.52782
G1 X92.291 Y96.251
G0 F2700 X93.729 Y98.255
G1 F1350 X87.793 Y92.319 E35.94664
G1 X87.723 Y92.249
G0 F2700 X86.452 Y91.543
G1 F1350 X94.397 Y99.488 E36.5072
G1 X94.467 Y99.558
G0 F2700 X95.036 Y100.693
G1 F1350 X85.342 Y90.999 E37.19116
G1 X85.272 Y90.929
G0 F2700 X84.394 Y90.617
G1 F1350 X95.36 Y101.582 E37.96484
G1 X95.43 Y101.652
G0 F2700 X95.683 Y102.471
G1 F1350 X83.446 Y90.234 E38.82823
G1 X83.376 Y90.164
G0 F2700 X82.686 Y90.04
G1 F1350 X95.976 Y103.33 E39.76591
G1 X96.046 Y103.4
G0 F2700 X96.129 Y104.048
G1 F1350 X81.933 Y89.852 E40.76751
G1 X81.863 Y89.782
G0 F2700 X81.18 Y89.665
G1 F1350 X96.281 Y104.767 E41.833
G1 X96.351 Y104.837
G0 F2700 X96.434 Y105.485
G1 F1350 X80.489 Y89.54 E42.95801
G1 X80.419 Y89.47
G0 F2700 X79.857 Y89.473
G1 F1350 X96.528 Y106.145 E44.13427
G1 X96.598 Y106.215
G0 F2700 X96.571 Y106.754
G1 F1350 X79.224 Y89.406 E45.35823
G1 X79.154 Y89.336
G0 F2700 X78.591 Y89.339
G1 F1350 X96.614 Y107.362 E46.62985
G1 X96.684 Y107.432
G0 F2700 X96.656 Y107.97
G1 F1350 X77.984 Y89.298 E47.94726
G1 X77.914 Y89.228
G0 F2700 X77.438 Y89.317
G1 F1350 X96.689 Y108.568 E49.30553
G1 X96.759 Y108.638
G0 F2700 X96.651 Y109.096
G1 F1350 X76.892 Y89.337 E50.69963
G1 X76.822 Y89.267
G0 F2700 X76.346 Y89.357
G1 F1350 X96.614 Y109.625 E52.12965
G1 X96.684 Y109.695
G0 F2700 X96.578 Y110.154
G1 F1350 X75.8 Y89.376 E53.59565
G1 X75.73 Y89.306
G0 F2700 X75.279 Y89.421
G1 F1350 X96.54 Y110.682 E55.09573
G1 X96.61 Y110.752
G0 F2700 X96.499 Y111.207
G1 F1350 X74.798 Y89.506 E56.62685
G1 X74.728 Y89.436
G0 F2700 X74.316 Y89.59
G1 F1350 X96.4 Y111.674 E58.18499
G1 X96.47 Y111.744
G0 F2700 X96.3 Y112.14
G1 F1350 X73.836 Y89.675 E59.76999
G1 X73.766 Y89.605
G0 F2700 X73.355 Y89.76
G1 F1350 X96.201 Y112.606 E61.38189
G1 X96.271 Y112.676
G0 F2700 X96.102 Y113.073
G1 F1350 X72.873 Y89.844 E63.02083
G1 X72.803 Y89.774
G0 F2700 X72.44 Y89.977
G1 F1350 X96.003 Y113.54 E64.68332
G1 X96.073 Y113.61
G0 F2700 X95.881 Y113.983
G1 F1350 X72.013 Y90.115 E66.36734
G1 X71.943 Y90.045
G0 F2700 X71.586 Y90.254
G1 F1350 X95.73 Y114.397 E68.07079
G1 X95.8 Y114.467
G0 F2700 X95.579 Y114.812
G1 F1350 X71.159 Y90.392 E69.79376
G1 X71.089 Y90.322
G0 F2700 X70.733 Y90.532
G1 F1350 X95.428 Y115.227 E71.53612
G1 X95.498 Y115.297
G0 F2700 X95.277 Y115.642
G1 F1350 X70.306 Y90.67 E73.298
G1 X70.236 Y90.6
G0 F2700 X69.923 Y90.854
G1 F1350 X95.126 Y116.056 E75.07617
