;FLAVOR:Marlin
;TIME:195
;Filament used: 0.0452677m
;Layer height: 0.1
;Generated with Cura_SteamEngine master
M190 S60
M104 S207
M109 S207
G21 ;metric values
G90 ;absolute positioning
M82 ;set extruder to absolute mode
M107 ;start with the fan off
G28 X0 Y0 ;move X/Y to min endstops
G28 Z0 ;move Z to min endstops
G1 Z15.0 F9000 ;move the platform down 15mm
G92 E0 ;zero the extruded length
G1 F200 E3 ;extrude 3mm of feed stock
G92 E0 ;zero the extruded length again
G1 F9000
;Put printing message on LCD screen
M117 Printing...
;LAYER_COUNT:13
;LAYER:0
M107
G0 F1800 X92.812 Y83.262 Z0.3
;TYPE:SKIRT
G1 F900 X93.364 Y82.703 E0.03919
G1 X95.779 Y80.695 E0.19589
G1 X96.396 Y80.273 E0.23318
G1 X99.016 Y78.82 E0.38265
G1 X99.718 Y78.515 E0.42083
G1 X102.688 Y77.548 E0.57666
G1 X103.441 Y77.381 E0.61514
G1 X106.536 Y77.003 E0.7707
G1 X107.306 Y76.983 E0.80913
G1 X110.402 Y77.204 E0.96398
G1 X111.163 Y77.333 E1.00249
G1 X114.208 Y78.158 E1.15988
G1 X114.931 Y78.432 E1.19846
G1 X117.713 Y79.804 E1.35321
G1 X118.37 Y80.211 E1.39177
G1 X120.871 Y82.119 E1.54871
G1 X121.437 Y82.644 E1.58723
G1 X123.488 Y84.955 E1.74138
G1 X123.938 Y85.573 E1.77952
G1 X125.534 Y88.27 E1.93587
G1 X125.864 Y88.975 E1.9747
G1 X126.901 Y91.912 E2.1301
G1 X127.086 Y92.657 E2.16839
G1 X127.542 Y95.729 E2.32334
G1 X127.567 Y95.936 E2.33374
G1 X127.859 Y98.999 E2.48724
G1 X127.873 Y99.565 E2.51549
G1 X127.784 Y100.236 E2.54926
G1 X127.607 Y101.043 E2.59048
G1 X127.545 Y101.288 E2.60309
G1 X127.394 Y101.815 E2.63044
G1 X127.201 Y102.346 E2.65862
G1 X127.036 Y102.673 E2.6769
G1 X126.855 Y102.995 E2.69533
G1 X126.544 Y103.467 E2.72353
G1 X126.169 Y103.89 E2.75173
G1 X125.739 Y104.257 E2.77993
G1 X125.261 Y104.559 E2.80814
G1 X124.745 Y104.791 E2.83637
G1 X124.202 Y104.947 E2.86455
G1 X123.841 Y105.007 E2.88281
G1 X121.948 Y105.233 E2.97792
G1 X116.553 Y106.073 E3.25032
G1 X111.246 Y107.211 E3.52111
G1 X108.641 Y107.886 E3.65537
G1 X103.426 Y109.476 E3.92737
G1 X98.328 Y111.353 E4.1984
G1 X93.253 Y113.555 E4.4744
G1 X92.72 Y113.742 E4.50258
G1 X92.165 Y113.853 E4.53082
G1 X91.601 Y113.885 E4.559
G1 X91.038 Y113.836 E4.58719
G1 X90.487 Y113.709 E4.6154
G1 X89.96 Y113.505 E4.6436
G1 X89.466 Y113.229 E4.67183
G1 X89.017 Y112.886 E4.70002
G1 X88.62 Y112.483 E4.72824
G1 X88.284 Y112.029 E4.75642
G1 X88.015 Y111.531 E4.78466
G1 X87.752 Y110.732 E4.82662
G1 X87.658 Y110.298 E4.84878
G1 X87.568 Y109.556 E4.88607
G1 X87.247 Y97.347 E5.49539
G1 X87.264 Y96.864 E5.5195
G1 X87.571 Y93.632 E5.68147
G1 X87.721 Y92.864 E5.72051
G1 X88.607 Y89.902 E5.87476
G1 X88.897 Y89.19 E5.91311
G1 X90.338 Y86.442 E6.06792
G1 X90.771 Y85.783 E6.10725
G1 X92.812 Y83.262 E6.26908
G0 F1800 X93.123 Y83.514
G1 F900 X93.619 Y83.011 E6.30432
G1 X96.034 Y81.003 E6.46102
G1 X96.59 Y80.623 E6.49461
G1 X99.21 Y79.17 E6.64408
G1 X99.841 Y78.895 E6.67842
G1 X102.811 Y77.928 E6.83425
G1 X103.49 Y77.778 E6.86894
G1 X106.585 Y77.4 E7.0245
G1 X107.277 Y77.382 E7.05904
G1 X110.373 Y77.603 E7.21389
G1 X111.058 Y77.719 E7.24855
G1 X114.103 Y78.544 E7.40594
G1 X114.754 Y78.79 E7.44066
G1 X117.536 Y80.162 E7.59542
G1 X118.128 Y80.529 E7.63017
G1 X120.629 Y82.437 E7.78711
G1 X121.138 Y82.909 E7.82174
G1 X123.189 Y85.22 E7.9759
G1 X123.594 Y85.777 E8.01025
G1 X125.19 Y88.474 E8.1666
G1 X125.487 Y89.108 E8.20153
G1 X126.524 Y92.045 E8.35693
G1 X126.69 Y92.715 E8.39136
G1 X127.146 Y95.787 E8.5463
G1 X127.169 Y95.974 E8.5557
G1 X127.461 Y99.037 E8.70921
G1 X127.472 Y99.574 E8.73601
G1 X127.393 Y100.15 E8.76501
G1 X127.216 Y100.957 E8.80623
G1 X127.161 Y101.178 E8.81759
G1 X127.01 Y101.705 E8.84494
G1 X126.824 Y102.208 E8.8717
G1 X126.687 Y102.477 E8.88676
G1 X126.506 Y102.799 E8.90519
G1 X126.209 Y103.246 E8.93196
G1 X125.849 Y103.643 E8.9587
G1 X125.434 Y103.983 E8.98547
G1 X124.974 Y104.257 E9.01218
G1 X124.477 Y104.46 E9.03896
G1 X123.794 Y104.61 E9.07385
G1 X121.892 Y104.837 E9.16941
G1 X116.479 Y105.68 E9.44273
G1 X111.153 Y106.822 E9.71448
G1 X108.521 Y107.504 E9.85013
G1 X103.298 Y109.097 E10.12255
G1 X98.188 Y110.978 E10.39422
G1 X93.094 Y113.188 E10.67124
G1 X92.587 Y113.364 E10.69802
G1 X92.06 Y113.463 E10.72477
G1 X91.524 Y113.482 E10.75153
G1 X90.991 Y113.422 E10.77829
G1 X90.473 Y113.283 E10.80505
G1 X89.982 Y113.069 E10.83177
G1 X89.527 Y112.785 E10.85853
G1 X89.12 Y112.435 E10.88531
G1 X88.77 Y112.03 E10.91201
G1 X88.483 Y111.576 E10.93881
G1 X88.267 Y111.085 E10.96557
G1 X88.143 Y110.647 E10.98828
G1 X88.049 Y110.213 E11.01044
G1 X87.968 Y109.546 E11.04396
G1 X87.647 Y97.337 E11.65328
G1 X87.662 Y96.902 E11.67499
G1 X87.969 Y93.67 E11.83696
G1 X88.104 Y92.978 E11.87214
G1 X88.99 Y90.016 E12.02638
G1 X89.251 Y89.376 E12.06087
G1 X90.692 Y86.628 E12.21567
G1 X91.082 Y86.035 E12.25108
G1 X93.123 Y83.514 E12.4129
G0 F1800 X93.434 Y83.765
G1 F900 X93.875 Y83.318 E12.44423
G1 X96.29 Y81.31 E12.60092
G1 X96.784 Y80.973 E12.63076
G1 X99.404 Y79.52 E12.78023
G1 X99.965 Y79.275 E12.81077
G1 X102.935 Y78.308 E12.9666
G1 X103.538 Y78.175 E12.9974
G1 X106.633 Y77.797 E13.15296
G1 X107.249 Y77.781 E13.1837
G1 X110.345 Y78.002 E13.33856
G1 X110.954 Y78.105 E13.36937
G1 X113.999 Y78.93 E13.52676
G1 X114.577 Y79.149 E13.5576
G1 X117.359 Y80.521 E13.71236
G1 X117.885 Y80.847 E13.74323
G1 X120.386 Y82.755 E13.90017
G1 X120.838 Y83.175 E13.93095
G1 X122.889 Y85.486 E14.08511
G1 X123.25 Y85.98 E14.11563
G1 X124.846 Y88.677 E14.27198
G1 X125.109 Y89.242 E14.30307
G1 X126.146 Y92.179 E14.45847
G1 X126.294 Y92.774 E14.48906
G1 X126.75 Y95.846 E14.644
G1 X126.771 Y96.012 E14.65235
G1 X127.063 Y99.075 E14.80585
G1 X127.071 Y99.581 E14.8311
G1 X127.003 Y100.065 E14.85548
G1 X126.826 Y100.872 E14.8967
G1 X126.776 Y101.067 E14.90675
G1 X126.625 Y101.594 E14.9341
G1 X126.339 Y102.281 E14.97122
G1 X126.158 Y102.603 E14.98965
G1 X125.876 Y103.023 E15.01489
G1 X125.531 Y103.393 E15.04013
G1 X125.133 Y103.704 E15.06533
G1 X124.691 Y103.949 E15.09054
G1 X124.215 Y104.121 E15.11579
G1 X123.747 Y104.213 E15.13959
G1 X121.84 Y104.44 E15.2354
G1 X116.402 Y105.288 E15.50998
G1 X111.065 Y106.431 E15.78228
G1 X108.424 Y107.116 E15.9184
G1 X103.158 Y108.722 E16.19307
G1 X98.039 Y110.607 E16.46522
G1 X92.935 Y112.821 E16.74279
G1 X92.456 Y112.985 E16.76805
G1 X91.958 Y113.071 E16.79326
G1 X91.453 Y113.078 E16.81846
G1 X90.952 Y113.006 E16.84371
G1 X90.47 Y112.855 E16.86891
G1 X90.017 Y112.63 E16.89414
G1 X89.605 Y112.337 E16.91937
G1 X89.244 Y111.983 E16.94459
G1 X88.944 Y111.576 E16.96982
G1 X88.712 Y111.127 E16.99503
G1 X88.534 Y110.562 E17.02458
G1 X88.44 Y110.128 E17.04674
G1 X88.368 Y109.535 E17.07654
G1 X88.047 Y97.326 E17.68586
G1 X88.06 Y96.939 E17.70518
G1 X88.367 Y93.707 E17.86715
G1 X88.487 Y93.093 E17.89836
G1 X89.373 Y90.131 E18.05261
G1 X89.605 Y89.562 E18.08326
G1 X91.046 Y86.814 E18.23807
G1 X91.393 Y86.286 E18.26959
G1 X93.434 Y83.765 E18.43141
G1 F1500 E11.93141
G0 F1800 X90.88 Y93.913
G0 X90.57 Y97.128
G0 X90.895 Y109.535
G0 X91.222 Y110.973
G0 X122.175 Y99.742
G0 X123.035 Y99.571
G0 X123.13 Y99.59
G0 X123.032 Y99.606
;TYPE:WALL-OUTER
G1 F1500 E18.43141
G1 F900 X123.02 Y99.559 E18.43383
G1 X123.038 Y99.559
G1 X123.063 Y99.559
G1 X123.083 Y99.559
G1 X123.593 Y99.559 E18.45928
G1 X123.62 Y99.559 E18.46062
G1 X123.641 Y99.559 E18.46167
G1 X123.62 Y99.662
G1 X123.593 Y99.732 E18.46223
G1 X123.588 Y99.822 E18.46566
G1 X123.536 Y100.024 E18.47606
G1 X123.535 Y100.049 E18.47731
G1 X123.495 Y100.17 E18.48367
G1 X123.491 Y100.2 E18.48518
G1 X123.48 Y100.267 E18.48857
G1 X123.473 Y100.284 E18.48948
G1 X123.443 Y100.356 E18.49338
G1 X123.441 Y100.371 E18.49413
G1 X123.435 Y100.4 E18.49561
G1 X123.429 Y100.431 E18.49718
G1 X123.417 Y100.468 E18.49912
G1 X123.408 Y100.496 E18.50059
G1 X123.396 Y100.515 E18.50171
G1 X123.381 Y100.539 E18.50312
G1 X123.378 Y100.562 E18.50428
G1 X123.366 Y100.639 E18.50817
G1 X123.325 Y100.714 E18.51243
G1 X123.305 Y100.665
G1 X123.271 Y100.584
G1 X123.26 Y100.557
G1 X123.255 Y100.545
G1 X123.252 Y100.522
G1 X123.244 Y100.478
G1 X123.229 Y100.437
G1 X123.216 Y100.403
G1 X123.214 Y100.377
G1 X123.212 Y100.359
G1 X123.197 Y100.327
G1 X123.194 Y100.288
G1 X123.14 Y100.147 E18.5159
G1 X123.122 Y99.999 E18.52334
G1 X123.083 Y99.912 E18.52803
G1 X123.063 Y99.814 E18.53135
G1 X123.054 Y99.723 E18.53325
G1 X123.038 Y99.687
G1 X123.032 Y99.606 E18.53359
G0 F1800 X123.02 Y99.559
G0 X123.038 Y99.559
G0 X123.063 Y99.559
G0 X123.083 Y99.559
G0 X123.172 Y99.559
G0 X123.255 Y99.779
;TYPE:SKIN
G1 F900 X123.368 Y99.892 E18.53758
G0 F1800 X123.465 Y99.781
G1 F1500 E12.03758
G0 F1800 X123.035 Y99.571
G0 X122.175 Y99.742
G0 X96.582 Y86.568
G0 X95.848 Y85.899
;TIME_ELAPSED:32.597353
;LAYER:1
M140 S60
M106 S255
G0 F2700 X95.848 Y85.899 Z0.4
;TYPE:WALL-OUTER
G1 F1500 E18.53758
G1 F900 X95.865 Y85.878 E18.53803
G1 X95.886 Y85.86 E18.53849
G1 X98.225 Y83.885 E18.5894
G1 X98.246 Y83.867 E18.58986
G1 X98.269 Y83.854 E18.5903
G1 X100.944 Y82.365 E18.64121
G1 X100.967 Y82.352 E18.64165
G1 X100.993 Y82.344 E18.6421
G1 X103.905 Y81.396 E18.69303
G1 X103.925 Y81.389 E18.69338
G1 X103.956 Y81.386 E18.6939
G1 X106.994 Y81.014 E18.7448
G1 X107.025 Y81.01 E18.74532
G1 X107.048 Y81.011 E18.7457
G1 X110.101 Y81.229 E18.7966
G1 X110.125 Y81.231 E18.797
G1 X110.152 Y81.238 E18.79747
G1 X113.107 Y82.038 E18.84838
G1 X113.136 Y82.046 E18.84888
G1 X113.158 Y82.057 E18.84929
G1 X115.903 Y83.41 E18.90018
G1 X115.927 Y83.422 E18.90063
G1 X115.949 Y83.438 E18.90108
G1 X118.384 Y85.294 E18.952
G1 X118.403 Y85.308 E18.95239
G1 X118.423 Y85.331 E18.9529
G1 X120.456 Y87.619 E19.0038
G1 X120.476 Y87.642 E19.0043
G1 X120.488 Y87.662 E19.00469
G1 X122.044 Y90.299 E19.05561
G1 X122.056 Y90.318 E19.05598
G1 X122.066 Y90.347 E19.05649
G1 X123.086 Y93.233 E19.1074
G1 X123.096 Y93.259 E19.10786
G1 X123.099 Y93.285 E19.1083
G1 X123.548 Y96.313 E19.1592
G1 X123.552 Y96.338 E19.15962
G1 X123.551 Y96.365 E19.16007
G1 X123.412 Y99.545 E19.21301
G1 X123.411 Y99.559 E19.21324
G1 X123.667 Y99.559 E19.21463
G1 X123.685 Y99.559 E19.21493
G1 X123.713 Y99.559 E19.21539
G1 X123.707 Y99.601
G1 X123.685 Y99.753
G1 X123.667 Y99.812
G1 X123.628 Y100.052 E19.21944
G1 X123.614 Y100.097 E19.22022
G1 X123.606 Y100.17 E19.22144
G1 X123.576 Y100.292 E19.22353
G1 X123.557 Y100.439 E19.226
G1 X123.519 Y100.57 E19.22827
G1 X123.513 Y100.637 E19.22938
G1 X123.511 Y100.65 E19.2296
G1 X123.496 Y100.686 E19.23025
G1 X123.475 Y100.776 E19.23179
G1 X123.414 Y101.024 E19.23604
G1 X123.335 Y101.347 E19.24157
G1 X123.215 Y100.976
G1 X123.17 Y100.753 E19.24245
G1 X123.163 Y100.72
G1 X123.159 Y100.7
G1 X123.153 Y100.676 E19.24253
G1 X123.13 Y100.599 E19.24362
G1 X123.089 Y100.363 E19.2476
G1 X123.066 Y100.278 E19.24907
G1 X123.042 Y100.143 E19.25135
G1 X122.939 Y99.594 E19.26064
G1 X122.932 Y99.559 E19.26123
G1 X123.123 Y99.559 E19.26313
G1 X123.123 Y99.547
G1 X123.269 Y96.354 E19.30107
G1 X122.822 Y93.327 E19.33675
G1 X121.801 Y90.442 E19.37244
G1 X120.244 Y87.807 E19.40819
G1 X118.213 Y85.519 E19.44405
G1 X115.778 Y83.664 E19.47988
G1 X113.033 Y82.312 E19.51581
G1 X110.08 Y81.511 E19.55161
G1 X107.029 Y81.293 E19.58741
G1 X103.991 Y81.664 E19.6231
G1 X101.082 Y82.613 E19.65897
G1 X98.408 Y84.101 E19.69491
G1 X96.069 Y86.076 E19.7308
G1 X94.155 Y88.463 E19.78168
G1 X92.733 Y91.173 E19.83257
G1 X91.859 Y94.105 E19.88345
G1 X91.565 Y97.144 E19.93423
G1 X91.877 Y109.394 E20.13801
G1 X91.904 Y109.767 E20.14423
G1 X91.907 Y110.128 E20.15023
G1 X91.901 Y110.185 E20.15119
G1 X91.898 Y110.478 E20.15606
G1 X91.89 Y111.256 E20.169
G1 X91.884 Y111.703 E20.17643
G1 X91.919 Y111.999 E20.18139
G1 X91.977 Y112.481 E20.18946
G1 X92.009 Y112.74 E20.1938
G1 X92.016 Y112.796 E20.19474
G1 X92.082 Y113.339 E20.20384
G1 X92.102 Y113.66 E20.20919
G1 X92.116 Y113.878 E20.21282
G1 X92.14 Y114.233 E20.21874
G1 X92.144 Y114.294 E20.21975
G1 X92.032 Y114.241
G1 X92.072 Y113.881
G1 X91.988 Y113.668
G1 X91.95 Y113.356
G1 X91.883 Y112.812 E20.22249
G1 X91.835 Y112.76
G1 X91.841 Y112.498
G1 X91.745 Y112.02 E20.22566
G1 X91.773 Y111.693
G1 X91.811 Y111.255 E20.22735
G1 X91.655 Y110.476 E20.23278
G1 X91.641 Y110.198 E20.2342
G1 X91.638 Y110.142
G1 X91.619 Y109.782 E20.23835
G1 X91.599 Y109.406 E20.24277
G1 X91.279 Y97.157 E20.38646
G1 X91.282 Y97.118 E20.38701
G1 X91.578 Y94.077 E20.42297
G1 X91.581 Y94.052 E20.42332
G1 X91.588 Y94.026 E20.42371
G1 X92.462 Y91.092 E20.4596
G1 X92.471 Y91.063 E20.46003
G1 X92.482 Y91.042 E20.46043
G1 X93.903 Y88.332 E20.49649
G1 X93.917 Y88.306 E20.49691
G1 X93.933 Y88.286 E20.49734
G1 X95.848 Y85.899 E20.53335
G0 F2700 X95.865 Y85.878
G0 X95.886 Y85.86
G0 X95.997 Y85.766
G1 F1500 E14.03335
G0 F2700 X96.061 Y85.843
G0 X94.122 Y88.442
G0 X92.696 Y91.158
G0 X91.82 Y94.098
G0 X91.526 Y97.143
G0 X91.845 Y111.705
G0 X92.063 Y113.34
G0 X92.159 Y114.514
G0 X92.153 Y114.594
G0 X92.16 Y114.495
G1 F1500 E20.53335
G1 F900 X92.213 Y115.145 E20.54419
G1 X92.24 Y115.475 E20.5497
G1 X92.269 Y115.83 E20.55562
G1 X92.289 Y116.069 E20.55961
G1 X92.314 Y116.362 E20.5645
G1 X92.33 Y116.552 E20.56767
G1 X92.34 Y116.663 E20.56952
G1 X92.346 Y116.724 E20.57054
G1 X92.345 Y116.879 E20.57312
G1 X92.344 Y116.975 E20.57472
G1 X92.342 Y117.213 E20.57868
G1 X92.345 Y117.445 E20.58253
G1 X92.346 Y117.514 E20.58368
G1 X92.355 Y118.18 E20.59476
G1 X92.369 Y118.267 E20.59622
G1 X92.38 Y118.334 E20.59735
G1 X92.474 Y118.903 E20.60694
G1 X92.477 Y118.92 E20.60723
G1 X92.488 Y118.983 E20.6083
G1 X92.482 Y119.276 E20.61317
G1 X92.34 Y119.112
G1 X92.212 Y118.964
G1 X92.206 Y118.946 E20.61338
G1 X92.214 Y118.362 E20.61876
G1 X92.228 Y118.291 E20.61885
G1 X92.22 Y118.193 E20.61891
G1 X92.161 Y117.517 E20.62349
G1 X92.137 Y117.448
G1 X92.131 Y117.219 E20.6248
G1 X92.124 Y116.974
G1 X92.143 Y116.878 E20.62498
G1 X92.157 Y116.707
G1 X92.16 Y116.677
G1 X92.11 Y116.57 E20.62506
G1 X92.061 Y116.384 E20.62539
G1 X92.071 Y116.088 E20.62715
G1 X92.132 Y115.842 E20.62752
G1 X92.012 Y115.494 E20.62967
G1 X91.994 Y115.163 E20.63154
G1 X92.16 Y114.495 E20.635
G0 F2700 X92.176 Y114.694
G1 F1500 E14.135
G0 F2700 X92.154 Y114.721
G0 X92.316 Y118.183
G0 X92.476 Y119.258
G0 X92.487 Y120.215
G0 X92.464 Y120.221
G1 F1500 E20.635
G1 F900 X92.462 Y120.298 E20.63628
G1 X92.438 Y120.221
G1 X92.476 Y119.595 E20.64671
G1 X92.464 Y120.221
G0 F2700 X92.462 Y120.298
G0 X92.438 Y120.221
G0 X92.44 Y120.179
G1 F1500 E14.14671
G0 F2700 X92.415 Y120.184
G0 X92.481 Y120.604
G0 X92.471 Y121.37
G0 X92.57 Y121.359
G1 F1500 E20.64671
G1 F900 X92.573 Y121.383 E20.64711
G1 X92.367 Y121.383 E20.64923
G1 X92.371 Y121.355
G1 X92.481 Y120.584 E20.66218
G1 X92.57 Y121.359 E20.66427
G0 F2700 X92.573 Y121.383
G0 X92.397 Y121.383
G1 F1500 E14.16427
G0 F2700 X92.397 Y121.283
G0 X92.481 Y120.604
G0 X93.325 Y120.357
G0 X122.507 Y101.597
G0 X123.335 Y101.328
G0 X123.298 Y100.43
G0 X123.334 Y100.394
G1 F1500 E20.66427
G1 F900 X123.342 Y100.102 E20.66579
G1 X123.306 Y99.855 E20.6681
G0 F2700 X123.382 Y99.787
G1 F1500 E14.1681
G0 F2700 X123.234 Y100.971
G0 X122.393 Y101.244
G0 X93.49 Y121.804
G0 X92.596 Y121.907
G0 X92.521 Y122.064
G0 X92.62 Y122.061
G1 F1500 E20.6681
G1 F900 X92.62 Y122.378 E20.67337
G1 X92.619 Y122.489 E20.67521
G1 X92.618 Y122.621 E20.67741
G1 X92.617 Y122.885 E20.6818
G1 X92.623 Y123.15 E20.68621
G1 X92.625 Y123.203 E20.68709
G1 X92.618 Y123.291 E20.68856
G1 X92.617 Y123.407 E20.69049
G1 X92.612 Y123.742 E20.69606
G1 X92.601 Y123.918 E20.69899
G1 X92.486 Y123.913 E20.70091
G1 X92.493 Y123.905
G1 X92.487 Y123.747
G1 X92.474 Y123.406
G1 X92.455 Y123.352
G1 X92.432 Y123.291
G1 X92.423 Y123.258
G1 X92.395 Y123.156
G1 X92.353 Y122.937 E20.70256
G1 X92.341 Y122.878
G1 X92.351 Y122.829
G1 X92.397 Y122.621 E20.70352
G1 X92.436 Y122.489 E20.70376
G1 X92.48 Y122.378
G1 X92.473 Y122.065
G1 X92.468 Y121.897 E20.70539
G1 X92.609 Y121.893 E20.70697
G1 X92.62 Y122.061
G0 F2700 X92.62 Y122.261
G1 F1500 E14.20697
G0 F2700 X92.52 Y122.261
G0 X92.511 Y123.911
G0 X92.503 Y124.442
G0 X92.459 Y124.438
G0 X92.36 Y124.451
G1 F1500 E20.70697
G1 F900 X92.355 Y124.42 E20.70749
G1 X92.559 Y124.423 E20.70956
G1 X92.556 Y124.446
G1 X92.459 Y125.162 E20.72158
G1 X92.36 Y124.451 E20.72334
G0 F2700 X92.355 Y124.42
G0 X92.524 Y124.422
G1 F1500 E14.22334
G0 F2700 X92.523 Y124.522
