;FLAVOR:Marlin
;TIME:733
;Filament used: 0.147469m
;Layer height: 0.1
;Generated with Cura_SteamEngine master
M190 S50
M104 S207
M109 S207
G21 ;metric values
G90 ;absolute positioning
M82 ;set extruder to absolute mode
M107 ;start with the fan off
G28 X0 Y0 ;move X/Y to min endstops
G28 Z0 ;move Z to min endstops
G1 Z15.0 F9000 ;move the platform down 15mm
G92 E0 ;zero the extruded length
G1 F200 E3 ;extrude 3mm of feed stock
G92 E0 ;zero the extruded length again
G1 F9000
;Put printing message on LCD screen
M117 Printing...
;LAYER_COUNT:138
;LAYER:0
M107
G0 F2700 X100.81 Y100.939 Z0.3
;TYPE:SKIRT
G1 F1350 X101.249 Y100.502 E0.0309
G1 X101.581 Y100.238 E0.05207
G1 X102.394 Y99.646 E0.10224
G1 X102.917 Y99.314 E0.13315
G1 X103.218 Y99.163 E0.14995
G1 X103.992 Y98.808 E0.19243
G1 X104.57 Y98.587 E0.2233
G1 X104.945 Y98.487 E0.24266
G1 X105.933 Y98.266 E0.29317
G1 X106.779 Y98.154 E0.33575
G1 X107.54 Y98.122 E0.37375
G1 X108.16 Y98.136 E0.40469
G1 X108.518 Y98.181 E0.42269
G1 X109.488 Y98.34 E0.47173
G1 X110.092 Y98.48 E0.50266
G1 X110.721 Y98.718 E0.53621
G1 X111.96 Y99.289 E0.60428
G1 X112.505 Y99.584 E0.63519
G1 X112.935 Y99.888 E0.66147
G1 X113.681 Y100.48 E0.70898
G1 X114.14 Y100.896 E0.73989
G1 X114.443 Y101.239 E0.76272
G1 X115.096 Y102.054 E0.81482
G1 X115.451 Y102.561 E0.8457
G1 X115.615 Y102.852 E0.86236
G1 X116.007 Y103.611 E0.90498
G1 X116.255 Y104.179 E0.9359
G1 X116.369 Y104.536 E0.9546
G1 X116.632 Y105.488 E1.00388
G1 X116.758 Y106.094 E1.03476
G1 X116.801 Y106.581 E1.05915
G1 X116.843 Y107.672 E1.11362
G1 X116.827 Y108.291 E1.14451
G1 X116.776 Y108.679 E1.16403
G1 X116.624 Y109.554 E1.20834
G1 X116.479 Y110.156 E1.23923
G1 X116.356 Y110.504 E1.25765
G1 X115.999 Y111.403 E1.30591
G1 X115.734 Y111.962 E1.33677
G1 X115.546 Y112.272 E1.35486
G1 X115.032 Y113.052 E1.40146
G1 X114.659 Y113.546 E1.43234
G1 X114.308 Y113.912 E1.45764
G1 X113.486 Y114.683 E1.51387
G1 X113.008 Y115.077 E1.54477
G1 X112.663 Y115.303 E1.56535
G1 X111.881 Y115.77 E1.61079
G1 X111.147 Y116.127 E1.65151
G1 X110.434 Y116.402 E1.68964
G1 X109.843 Y116.588 E1.72055
G1 X109.298 Y116.688 E1.74819
G1 X108.064 Y116.841 E1.81023
G1 X107.145 Y116.866 E1.8561
G1 X106.4 Y116.815 E1.89335
G1 X105.786 Y116.733 E1.92426
G1 X105.441 Y116.65 E1.94196
G1 X104.503 Y116.389 E1.99053
G1 X103.919 Y116.185 E2.0214
G1 X103.539 Y116.004 E2.0424
G1 X102.671 Y115.543 E2.09143
G1 X102.143 Y115.218 E2.12236
G1 X101.827 Y114.973 E2.14231
G1 X101.08 Y114.343 E2.19106
G1 X100.634 Y113.914 E2.22194
G1 X100.372 Y113.602 E2.24226
G1 X99.753 Y112.798 E2.29288
G1 X99.407 Y112.284 E2.3238
G1 X99.129 Y111.724 E2.35499
G1 X98.647 Y110.573 E2.41724
G1 X98.445 Y109.988 E2.44812
G1 X98.337 Y109.494 E2.47335
G1 X98.178 Y108.522 E2.52249
G1 X98.118 Y107.905 E2.55341
G1 X98.124 Y107.461 E2.57557
G1 X98.185 Y106.439 E2.62665
G1 X98.261 Y105.824 E2.65756
G1 X98.353 Y105.434 E2.67755
G1 X98.61 Y104.514 E2.72521
G1 X98.815 Y103.929 E2.75613
G1 X99.028 Y103.491 E2.78043
G1 X99.553 Y102.537 E2.83476
G1 X99.886 Y102.015 E2.86565
G1 X100.162 Y101.672 E2.88762
G1 X100.81 Y100.939 E2.93643
G0 F2700 X101.109 Y101.204
G1 F1350 X101.531 Y100.787 E2.96602
G1 X101.816 Y100.561 E2.98417
G1 X102.629 Y99.969 E3.03435
G1 X103.385 Y99.527 E3.07804
G1 X104.159 Y99.172 E3.12052
G1 X104.713 Y98.961 E3.15009
G1 X105.033 Y98.877 E3.1666
G1 X106.021 Y98.656 E3.21711
G1 X106.796 Y98.554 E3.25611
G1 X107.557 Y98.522 E3.29411
G1 X108.15 Y98.537 E3.3237
G1 X108.454 Y98.576 E3.33899
G1 X109.424 Y98.735 E3.38803
G1 X110.001 Y98.87 E3.4176
G1 X110.554 Y99.081 E3.44713
G1 X111.793 Y99.652 E3.51519
G1 X112.313 Y99.936 E3.54475
G1 X112.686 Y100.201 E3.56758
G1 X113.432 Y100.793 E3.61509
G1 X113.871 Y101.192 E3.64469
G1 X114.131 Y101.489 E3.66438
G1 X114.784 Y102.304 E3.71648
G1 X115.259 Y103.036 E3.76002
G1 X115.651 Y103.795 E3.80263
G1 X115.887 Y104.339 E3.83222
G1 X115.983 Y104.642 E3.84808
G1 X116.246 Y105.594 E3.89735
G1 X116.365 Y106.175 E3.92694
G1 X116.402 Y106.597 E3.94807
G1 X116.444 Y107.688 E4.00254
G1 X116.427 Y108.28 E4.03209
G1 X116.382 Y108.61 E4.04871
G1 X116.23 Y109.485 E4.09301
G1 X116.089 Y110.061 E4.1226
G1 X115.984 Y110.356 E4.13822
G1 X115.627 Y111.255 E4.18648
G1 X115.372 Y111.79 E4.21605
G1 X115.212 Y112.052 E4.23136
G1 X114.698 Y112.832 E4.27797
G1 X114.339 Y113.304 E4.30755
G1 X114.034 Y113.62 E4.32946
G1 X113.212 Y114.391 E4.38569
G1 X112.753 Y114.767 E4.41529
G1 X112.458 Y114.96 E4.43288
G1 X111.676 Y115.427 E4.47832
G1 X111.003 Y115.754 E4.51565
G1 X110.29 Y116.029 E4.55378
G1 X109.724 Y116.205 E4.58335
G1 X109.248 Y116.291 E4.60748
G1 X108.014 Y116.444 E4.66952
G1 X107.172 Y116.467 E4.71154
G1 X106.427 Y116.416 E4.74879
G1 X105.84 Y116.335 E4.77836
G1 X105.549 Y116.265 E4.79329
G1 X104.611 Y116.004 E4.84187
G1 X104.051 Y115.807 E4.87148
G1 X103.726 Y115.651 E4.88947
G1 X102.858 Y115.19 E4.9385
G1 X102.354 Y114.877 E4.9681
G1 X102.085 Y114.668 E4.98509
G1 X101.338 Y114.038 E5.03385
G1 X100.912 Y113.626 E5.06341
G1 X100.689 Y113.358 E5.08081
G1 X100.07 Y112.554 E5.13143
G1 X99.74 Y112.061 E5.16103
G1 X99.497 Y111.57 E5.18836
G1 X99.015 Y110.419 E5.25062
G1 X98.824 Y109.857 E5.28023
G1 X98.732 Y109.429 E5.30207
G1 X98.573 Y108.457 E5.35121
G1 X98.517 Y107.867 E5.38077
G1 X98.523 Y107.485 E5.39984
G1 X98.584 Y106.463 E5.45091
G1 X98.659 Y105.875 E5.48049
G1 X98.738 Y105.541 E5.49761
G1 X98.995 Y104.621 E5.54527
G1 X99.193 Y104.062 E5.57485
G1 X99.378 Y103.684 E5.59585
G1 X99.903 Y102.73 E5.65017
G1 X100.223 Y102.231 E5.67975
G1 X100.461 Y101.937 E5.69862
G1 X101.109 Y101.204 E5.74743
G0 F2700 X101.409 Y101.469
G1 F1350 X101.813 Y101.073 E5.77565
G1 X102.051 Y100.884 E5.79082
G1 X102.864 Y100.292 E5.84099
G1 X103.551 Y99.89 E5.8807
G1 X104.325 Y99.535 E5.92319
G1 X105.12 Y99.267 E5.96504
G1 X106.108 Y99.046 E6.01555
G1 X106.813 Y98.954 E6.05102
G1 X107.574 Y98.922 E6.08902
G1 X108.389 Y98.971 E6.12976
G1 X109.359 Y99.13 E6.1788
G1 X109.909 Y99.26 E6.20699
G1 X110.386 Y99.444 E6.2325
G1 X111.625 Y100.015 E6.30056
G1 X112.121 Y100.288 E6.32881
G1 X112.437 Y100.515 E6.34822
G1 X113.183 Y101.107 E6.39573
G1 X113.6 Y101.489 E6.42395
G1 X113.819 Y101.739 E6.44053
G1 X114.472 Y102.554 E6.49263
G1 X114.904 Y103.219 E6.53219
G1 X115.296 Y103.978 E6.57481
G1 X115.598 Y104.749 E6.61612
G1 X115.861 Y105.701 E6.6654
G1 X115.972 Y106.255 E6.69358
G1 X116.002 Y106.612 E6.71146
G1 X116.044 Y107.703 E6.76593
G1 X115.988 Y108.542 E6.80788
G1 X115.836 Y109.417 E6.85219
G1 X115.613 Y110.208 E6.89319
G1 X115.256 Y111.107 E6.94145
G1 X114.878 Y111.832 E6.98224
G1 X114.364 Y112.612 E7.02884
G1 X114.02 Y113.061 E7.05706
G1 X113.76 Y113.328 E7.07565
G1 X112.938 Y114.099 E7.13188
G1 X112.5 Y114.456 E7.16007
G1 X112.253 Y114.616 E7.17475
G1 X111.471 Y115.083 E7.2202
G1 X110.859 Y115.381 E7.25416
G1 X110.146 Y115.656 E7.29228
G1 X109.606 Y115.822 E7.32047
G1 X109.199 Y115.894 E7.34109
G1 X107.965 Y116.047 E7.40312
G1 X107.2 Y116.068 E7.4413
G1 X106.455 Y116.017 E7.47856
G1 X105.656 Y115.88 E7.519
G1 X104.718 Y115.619 E7.56758
G1 X104.185 Y115.429 E7.59581
G1 X103.914 Y115.298 E7.61082
G1 X103.046 Y114.837 E7.65986
G1 X102.566 Y114.537 E7.6881
G1 X102.343 Y114.362 E7.70224
G1 X101.596 Y113.732 E7.75099
G1 X101.191 Y113.338 E7.77918
G1 X101.006 Y113.114 E7.79368
G1 X100.387 Y112.31 E7.8443
G1 X100.074 Y111.839 E7.87251
G1 X99.866 Y111.415 E7.89607
G1 X99.384 Y110.264 E7.95833
G1 X99.203 Y109.728 E7.98655
G1 X99.126 Y109.365 E8.00507
G1 X98.967 Y108.393 E8.05421
G1 X98.916 Y107.83 E8.08241
G1 X98.922 Y107.509 E8.09843
G1 X98.983 Y106.487 E8.1495
G1 X99.057 Y105.926 E8.17774
G1 X99.123 Y105.649 E8.19194
G1 X99.38 Y104.729 E8.2396
G1 X99.571 Y104.196 E8.26785
G1 X99.729 Y103.876 E8.28565
G1 X100.254 Y102.922 E8.33998
G1 X100.56 Y102.448 E8.36812
G1 X100.761 Y102.202 E8.38397
G1 X101.409 Y101.469 E8.43278
G0 F2700 X101.709 Y101.734
G1 F1350 X102.287 Y101.208 E8.47177
G1 X103.1 Y100.616 E8.52195
G1 X103.718 Y100.254 E8.55768
G1 X104.492 Y99.899 E8.60016
G1 X105.207 Y99.658 E8.63781
G1 X106.195 Y99.437 E8.68832
G1 X106.83 Y99.353 E8.72027
G1 X107.591 Y99.321 E8.75827
G1 X108.324 Y99.365 E8.79491
G1 X109.294 Y99.524 E8.84395
G1 X109.816 Y99.65 E8.87074
G1 X110.219 Y99.807 E8.89232
G1 X111.458 Y100.378 E8.96038
G1 X111.927 Y100.639 E8.98716
G1 X112.189 Y100.828 E9.00327
G1 X112.935 Y101.42 E9.05079
G1 X113.329 Y101.784 E9.07755
G1 X113.506 Y101.989 E9.09106
G1 X114.159 Y102.804 E9.14316
G1 X114.549 Y103.403 E9.17882
G1 X114.941 Y104.162 E9.22144
G1 X115.212 Y104.855 E9.25856
G1 X115.475 Y105.807 E9.30784
G1 X115.579 Y106.333 E9.33459
G1 X115.602 Y106.628 E9.34935
G1 X115.644 Y107.719 E9.40382
G1 X115.594 Y108.473 E9.44152
G1 X115.442 Y109.348 E9.48583
G1 X115.241 Y110.061 E9.52279
G1 X114.884 Y110.96 E9.57105
G1 X114.544 Y111.612 E9.60773
G1 X114.03 Y112.392 E9.65434
G1 X113.702 Y112.816 E9.68108
G1 X113.487 Y113.037 E9.69646
G1 X112.665 Y113.808 E9.75269
G1 X112.048 Y114.273 E9.79123
G1 X111.266 Y114.74 E9.83667
G1 X110.715 Y115.008 E9.86724
G1 X110.002 Y115.283 E9.90537
G1 X109.489 Y115.438 E9.93211
G1 X109.15 Y115.497 E9.94927
G1 X107.916 Y115.65 E10.01131
G1 X107.227 Y115.669 E10.0457
G1 X106.482 Y115.618 E10.08295
G1 X105.763 Y115.494 E10.11935
G1 X104.825 Y115.233 E10.16793
G1 X104.101 Y114.944 E10.20682
G1 X103.233 Y114.483 E10.25585
G1 X102.601 Y114.056 E10.2939
G1 X101.854 Y113.426 E10.34266
G1 X101.322 Y112.87 E10.38105
G1 X100.703 Y112.066 E10.43167
G1 X100.409 Y111.618 E10.4584
G1 X100.235 Y111.261 E10.47822
G1 X99.753 Y110.11 E10.54047
G1 X99.584 Y109.601 E10.56723
G1 X99.521 Y109.3 E10.58257
G1 X99.362 Y108.328 E10.63171
G1 X99.321 Y107.533 E10.67143
G1 X99.382 Y106.511 E10.72251
G1 X99.509 Y105.756 E10.7607
G1 X99.766 Y104.836 E10.80836
G1 X99.948 Y104.332 E10.83509
G1 X100.079 Y104.069 E10.84975
G1 X100.604 Y103.115 E10.90408
G1 X101.061 Y102.467 E10.94364
G1 X101.709 Y101.734 E10.99245
G0 F2700 X102.009 Y101.999
G1 F1350 X102.522 Y101.531 E11.02709
G1 X103.335 Y100.939 E11.07727
G1 X103.885 Y100.617 E11.10906
G1 X104.659 Y100.262 E11.15155
G1 X105.294 Y100.048 E11.18498
G1 X106.282 Y99.827 E11.23549
G1 X106.847 Y99.753 E11.26391
G1 X107.608 Y99.721 E11.30191
G1 X108.26 Y99.76 E11.3345
G1 X109.23 Y99.919 E11.38354
G1 X109.721 Y100.04 E11.40877
G1 X110.051 Y100.171 E11.42648
G1 X111.29 Y100.742 E11.49455
G1 X111.731 Y100.989 E11.51976
G1 X111.94 Y101.141 E11.53266
G1 X112.686 Y101.733 E11.58017
G1 X113.194 Y102.239 E11.61594
G1 X113.847 Y103.054 E11.66804
G1 X114.193 Y103.587 E11.69975
G1 X114.585 Y104.346 E11.74236
G1 X114.826 Y104.962 E11.77537
G1 X115.089 Y105.914 E11.82464
G1 X115.203 Y106.643 E11.86145
G1 X115.245 Y107.734 E11.91592
G1 X115.2 Y108.405 E11.94947
G1 X115.048 Y109.28 E11.99378
G1 X114.869 Y109.913 E12.0266
G1 X114.512 Y110.812 E12.07486
G1 X114.21 Y111.392 E12.10748
G1 X113.696 Y112.172 E12.15409
G1 X113.213 Y112.745 E12.19147
G1 X112.391 Y113.516 E12.2477
G1 X111.843 Y113.929 E12.28194
G1 X111.061 Y114.396 E12.32738
G1 X110.572 Y114.635 E12.35453
G1 X109.859 Y114.91 E12.39266
G1 X109.374 Y115.054 E12.4179
G1 X109.101 Y115.1 E12.43171
G1 X107.867 Y115.253 E12.49375
G1 X107.254 Y115.27 E12.52434
G1 X106.509 Y115.219 E12.5616
G1 X105.87 Y115.109 E12.59394
G1 X104.932 Y114.848 E12.64252
G1 X104.289 Y114.591 E12.67707
G1 X103.421 Y114.13 E12.7261
G1 X102.859 Y113.75 E12.75995
G1 X102.112 Y113.12 E12.8087
G1 X101.639 Y112.626 E12.84282
G1 X101.02 Y111.822 E12.89344
G1 X100.745 Y111.398 E12.91866
G1 X100.604 Y111.106 E12.93483
G1 X100.122 Y109.955 E12.99709
G1 X99.916 Y109.236 E13.0344
G1 X99.757 Y108.264 E13.08354
G1 X99.721 Y107.556 E13.11891
G1 X99.782 Y106.534 E13.16999
G1 X99.894 Y105.864 E13.20388
G1 X100.151 Y104.944 E13.25153
G1 X100.429 Y104.262 E13.28828
G1 X100.954 Y103.308 E13.3426
G1 X101.361 Y102.732 E13.37779
G1 X102.009 Y101.999 E13.4266
G1 F1500 E6.9266
G0 F2700 X103.354 Y104.284
G0 X103.395 Y104.353
G0 X105.024 Y107.12
G0 X105.065 Y107.189
G0 X105.074 Y107.204
G0 X103.801 Y107.183
G0 X103.71 Y107.372
G0 X103.81 Y107.372
;TYPE:WALL-INNER
G1 F1500 E13.4266
G1 F1350 X103.81 Y107.628 E13.43937
G1 X103.81 Y107.834 E13.44965
G1 X103.513 Y107.628 E13.45111
G1 X103.513 Y107.372 E13.45882
G1 X103.81 Y107.166 E13.47339
G1 X103.81 Y107.372
G1 F1500 E6.97339
G0 F2700 X103.71 Y107.372
G0 X103.801 Y107.183
G0 X105.074 Y107.204
G0 X108.922 Y107.183
G0 X110.207 Y107.183
G0 X110.644 Y107.107
G0 X110.711 Y107.033
G1 F1500 E13.47339
G1 F1350 X111.125 Y107.148 E13.49483
G1 X111.176 Y107.172 E13.49764
G1 X111.379 Y107.315 E13.51003
G1 X111.47 Y107.378 E13.51555
G1 X111.483 Y107.5 E13.52167
G1 X111.47 Y107.621 E13.52774
G1 X111.38 Y107.685 E13.53325
G1 X111.187 Y107.821 E13.54503
G1 X111.119 Y107.853 E13.54878
G1 X110.709 Y107.97 E13.57005
G1 X110.578 Y108.311 E13.58828
G1 X110.327 Y108.965 E13.62323
G1 X110.187 Y109.177 E13.6359
G1 X110.187 Y108.965
G1 X110.187 Y108.264 E13.6597
G1 X110.187 Y106.734 E13.73603
G1 X110.187 Y106.035 E13.77091
G1 X110.187 Y105.823 E13.78148
G1 X110.327 Y106.035
G1 X110.578 Y106.687 E13.80519
G1 X110.711 Y107.033 E13.82368
G0 F2700 X110.644 Y107.107
G0 X111.334 Y107.404
G0 X111.62 Y106.995
;TYPE:WALL-OUTER
G1 F1350 X111.815 Y106.856 E13.83563
G1 X111.827 Y106.971
G1 X111.886 Y107.5 E13.86219
G1 X111.828 Y108.028 E13.88869
G1 X111.815 Y108.144 E13.89451
G1 X111.62 Y108.005 E13.90068
G1 X111.389 Y108.168 E13.91478
G1 X111.26 Y108.229 E13.9219
G1 X111.011 Y108.3 E13.93482
G1 X110.684 Y109.15 E13.98026
G1 X110.252 Y109.804 E14.01936
G1 X109.971 Y110.074 E14.0388
G1 X109.684 Y110.35 E14.05867
G1 X109.216 Y110.635 E14.08601
G1 X109.012 Y110.759 E14.09792
G1 X108.416 Y110.962 E14.12933
G1 X108.27 Y111.012 E14.13703
G1 X107.562 Y111.09 E14.17256
G1 X107.487 Y111.099 E14.17633
G1 X106.703 Y111.012 E14.21569
G1 X106.639 Y110.991 E14.21905
G1 X105.961 Y110.759 E14.2548
G1 X105.832 Y110.68 E14.26234
G1 X105.289 Y110.35 E14.29404
G1 X105.121 Y110.189 E14.30565
G1 X104.721 Y109.804 E14.33335
G1 X104.548 Y109.542 E14.34902
G1 X104.289 Y109.15 E14.37246
G1 X104.147 Y108.78 E14.39223
G1 X103.961 Y108.299 E14.41796
G1 X103.91 Y108.285 E14.4206
G1 X103.715 Y108.231 E14.43069
G1 X103.591 Y108.173 E14.43752
G1 X103.353 Y108.005 E14.45205
G1 X103.208 Y108.108 E14.46093
G1 X103.151 Y108.149 E14.46443
G1 X103.131 Y108.055
G1 X103.113 Y107.977 E14.4653
G1 X103.113 Y107.023 E14.51289
G1 X103.13 Y106.946 E14.51682
G1 X103.151 Y106.851 E14.52168
G1 X103.206 Y106.89
G1 X103.353 Y106.995
G1 X103.591 Y106.827 E14.53621
G1 X103.715 Y106.769 E14.54304
G1 X103.91 Y106.715 E14.55314
G1 X103.961 Y106.701 E14.55578
G1 X104.145 Y106.222 E14.58138
G1 X104.289 Y105.85 E14.60128
G1 X104.547 Y105.459 E14.62465
G1 X104.721 Y105.196 E14.64038
G1 X105.12 Y104.812 E14.66801
G1 X105.289 Y104.65 E14.67969
G1 X105.831 Y104.32 E14.71135
G1 X105.961 Y104.241 E14.71893
G1 X106.639 Y104.01 E14.75467
G1 X106.703 Y103.988 E14.75805
G1 X107.487 Y103.901 E14.7974
G1 X107.561 Y103.909 E14.80111
G1 X108.27 Y103.988 E14.8367
G1 X108.416 Y104.038 E14.8444
G1 X109.012 Y104.241 E14.87582
G1 X109.215 Y104.364 E14.88766
G1 X109.684 Y104.65 E14.91506
G1 X109.971 Y104.926 E14.93493
G1 X110.252 Y105.196 E14.95437
G1 X110.684 Y105.85 E14.99347
G1 X111.012 Y106.701 E15.03898
G1 X111.258 Y106.769 E15.05171
G1 X111.382 Y106.827 E15.05854
G1 X111.62 Y106.995 E15.07307
G0 F2700 X111.783 Y106.879
G0 X111.771 Y106.555
G1 F1350 X111.679 Y106.245 E15.08921
G1 X111.782 Y106.551
G1 X111.79 Y106.622 E15.09274
G1 X111.771 Y106.555
G0 F2700 X111.715 Y106.364
G0 X111.468 Y105.661
G1 F1350 X111.316 Y105.382 E15.1086
G1 X111.479 Y105.654
G1 X111.502 Y105.723 E15.11218
G1 X111.468 Y105.661
G0 F2700 X111.373 Y105.485
G0 X110.98 Y104.849
G1 F1350 X110.777 Y104.615 E15.12764
G1 X110.99 Y104.84
G1 X111.031 Y104.908 E15.13158
G1 X110.98 Y104.849
G0 F2700 X110.849 Y104.698
G0 X110.326 Y104.16
G1 F1350 X110.084 Y103.978 E15.14668
G1 X110.334 Y104.148
G1 X110.39 Y104.207 E15.1507
G1 X110.326 Y104.16
G0 F2700 X110.166 Y104.04
G0 X109.54 Y103.628
G1 F1350 X109.262 Y103.501 E15.16595
G1 X109.546 Y103.614
G1 X109.621 Y103.664 E15.17042
G1 X109.54 Y103.628
G0 F2700 X109.358 Y103.545
G0 X108.659 Y103.277
G1 F1350 X108.357 Y103.211 E15.18584
