;FLAVOR:Marlin
;TIME:10982
;Filament used: 4.79793m
;Layer height: 0.1
;Generated with Cura_SteamEngine master
M190 S60
M104 S207
M109 S207
G21 ;metric values
G90 ;absolute positioning
M82 ;set extruder to absolute mode
M107 ;start with the fan off
G28 X0 Y0 ;move X/Y to min endstops
G28 Z0 ;move Z to min endstops
G1 Z15.0 F9000 ;move the platform down 15mm
G92 E0 ;zero the extruded length
G1 F200 E3 ;extrude 3mm of feed stock
G92 E0 ;zero the extruded length again
G1 F9000
;Put printing message on LCD screen
M117 Printing...
;LAYER_COUNT:218
;LAYER:0
M107
G0 F2700 X98.922 Y91.331 Z0.3
;TYPE:SKIRT
G1 F1350 X99.287 Y90.981 E0.02523
G1 X99.703 Y90.693 E0.05047
G1 X100.159 Y90.474 E0.07571
G1 X100.643 Y90.33 E0.1009
G1 X101.313 Y90.259 E0.13452
G1 X106.297 Y90.26 E0.38317
G1 X106.801 Y90.3 E0.40839
G1 X107.292 Y90.419 E0.4336
G1 X107.759 Y90.614 E0.45885
G1 X108.149 Y90.851 E0.48161
G1 X129.543 Y106.046 E1.79078
G1 X129.931 Y106.37 E1.816
G1 X130.328 Y106.843 E1.84681
G1 X133.328 Y111.21 E2.11114
G1 X136.666 Y115.542 E2.38398
G1 X140.251 Y119.686 E2.65735
G1 X144.057 Y123.613 E2.93019
G1 X148.09 Y127.328 E3.20375
G1 X152.315 Y130.801 E3.47661
G1 X156.731 Y134.03 E3.74954
G1 X161.357 Y137.026 E4.02451
G1 X164.103 Y138.639 E4.18339
G1 X164.517 Y138.929 E4.20861
G1 X164.881 Y139.28 E4.23384
G1 X165.184 Y139.684 E4.25903
G1 X165.421 Y140.131 E4.28428
G1 X165.583 Y140.61 E4.3095
G1 X165.669 Y141.108 E4.33472
G1 X165.682 Y141.397 E4.34915
G1 X165.691 Y161.388 E5.3465
G1 X165.651 Y161.892 E5.37173
G1 X165.533 Y162.383 E5.39692
G1 X165.338 Y162.85 E5.42217
G1 X165.073 Y163.28 E5.44737
G1 X164.743 Y163.663 E5.47259
G1 X164.356 Y163.989 E5.49784
G1 X163.924 Y164.25 E5.52302
G1 X163.455 Y164.44 E5.54826
G1 X162.962 Y164.554 E5.57351
G1 X162.491 Y164.589 E5.59707
G1 X52.509 Y164.589 E11.08409
G1 X52.005 Y164.549 E11.10932
G1 X51.514 Y164.43 E11.13452
G1 X51.047 Y164.236 E11.15975
G1 X50.617 Y163.97 E11.18498
G1 X50.234 Y163.64 E11.2102
G1 X49.908 Y163.253 E11.23545
G1 X49.647 Y162.82 E11.26067
G1 X49.457 Y162.352 E11.28587
G1 X49.344 Y161.859 E11.3111
G1 X49.309 Y161.389 E11.33462
G1 X49.31 Y141.404 E12.33167
G1 X49.35 Y140.9 E12.3569
G1 X49.469 Y140.408 E12.38215
G1 X49.664 Y139.942 E12.40735
G1 X49.929 Y139.512 E12.43255
G1 X50.26 Y139.129 E12.45781
G1 X50.646 Y138.803 E12.48301
G1 X50.994 Y138.586 E12.50347
G1 X53.812 Y137.07 E12.66312
G1 X58.54 Y134.248 E12.93782
G1 X63.067 Y131.186 E13.21049
G1 X67.426 Y127.864 E13.48391
G1 X71.58 Y124.309 E13.75669
G1 X75.538 Y120.514 E14.03026
G1 X79.288 Y116.488 E14.30475
G1 X81.048 Y114.432 E14.43977
G1 X85.206 Y109.159 E14.77479
G1 X85.307 Y109.037 E14.78269
G1 X88.223 Y105.692 E15.00409
G1 X89.899 Y103.608 E15.13751
G1 X93.17 Y99.175 E15.41236
G1 X96.411 Y94.205 E15.70838
G1 X96.701 Y93.825 E15.73223
G1 X98.922 Y91.331 E15.89884
G0 F2700 X99.276 Y96.081
;TYPE:SUPPORT
G1 F1350 X100.4 Y95.544 E15.96099
G1 X100.4 Y101.344 E16.25035
G1 X99.276 Y100.818 E16.31227
G1 X99.276 Y98.714 E16.41723
G1 X99.303 Y98.421 E16.43191
G1 X99.276 Y98.143 E16.44585
G1 X99.276 Y96.081 E16.54872
G0 F2700 X99.868 Y95.976
G1 F1350 X100.24 Y95.976 E16.56728
G0 F2700 X100.24 Y98.642
G1 F1350 X99.444 Y98.642 E16.60699
G0 F2700 X92.799 Y110.405
G1 F1350 X92.918 Y110.7 E16.62286
G1 X91.68 Y110.7 E16.68463
G1 X91.799 Y110.404 E16.70054
G1 X92.799 Y110.405 E16.75043
G1 F1500 E10.25043
G0 F2700 X92.799 Y110.935
G0 X92.799 Y112.22
G0 X97.726 Y112.284
G0 X97.674 Y112.2
;TYPE:WALL-INNER
G1 F1500 E16.75043
G1 F1350 X101.9 Y103.589 E17.22899
G1 X101.9 Y94.05 E17.70489
G1 X106.108 Y94.05 E17.91483
G1 X127.1 Y108.96 E19.19941
G1 X127.1 Y118.007 E19.65077
G1 X97.399 Y120.938 E21.13976
G1 X87.9 Y116.71 E21.65849
G1 X87.9 Y112.2 E21.88349
G1 X97.674 Y112.2 E22.37112
G0 F2700 X97.726 Y112.284
G0 X99.734 Y112.926
G0 X99.83 Y112.951
G1 F1350 X99.745 Y113.6 E22.40377
G1 X99.83 Y114.249 E22.43643
G1 X100.08 Y114.852 E22.469
G1 X100.478 Y115.372 E22.50167
G1 X100.998 Y115.77 E22.53433
G1 X101.601 Y116.02 E22.5669
G1 X102.25 Y116.105 E22.59956
G1 X102.899 Y116.02 E22.63221
G1 X103.502 Y115.77 E22.66478
G1 X104.022 Y115.372 E22.69745
G1 X104.38 Y114.904 E22.72685
G1 X104.444 Y114.794 E22.73319
G1 X104.67 Y114.248 E22.76268
G1 X104.755 Y113.6 E22.79528
G1 X104.67 Y112.951 E22.82794
G1 X104.42 Y112.348 E22.8605
G1 X104.022 Y111.828 E22.89317
G1 X103.502 Y111.43 E22.92584
G1 X102.899 Y111.18 E22.95841
G1 X102.25 Y111.095 E22.99107
G1 X101.601 Y111.18 E23.02372
G1 X100.998 Y111.43 E23.05629
G1 X100.478 Y111.828 E23.08896
G1 X100.08 Y112.348 E23.12163
G1 X99.83 Y112.951 E23.15419
G0 F2700 X99.734 Y112.926
G0 X100.046 Y112.329
G0 X100.45 Y111.8
G0 X100.979 Y111.396
G0 X101.591 Y111.142
G0 X102.25 Y111.055
G0 X102.909 Y111.142
G0 X112.091 Y113.6
G0 X112.191 Y113.6
G1 F1350 X112.243 Y113.941 E23.1714
G1 X112.401 Y114.252 E23.18881
G1 X112.648 Y114.499 E23.20623
G1 X112.956 Y114.655 E23.22346
G1 X113.3 Y114.711 E23.24085
G1 X113.644 Y114.655 E23.25823
G1 X113.952 Y114.499 E23.27546
G1 X114.199 Y114.252 E23.29289
G1 X114.355 Y113.944 E23.31011
G1 X114.411 Y113.6 E23.3275
G1 X114.355 Y113.256 E23.34489
G1 X114.199 Y112.948 E23.36211
G1 X113.952 Y112.701 E23.37954
G1 X113.641 Y112.543 E23.39694
G1 X113.3 Y112.491 E23.41415
G1 X112.959 Y112.543 E23.43136
G1 X112.648 Y112.701 E23.44876
G1 X112.401 Y112.948 E23.46619
G1 X112.243 Y113.259 E23.48359
G1 X112.191 Y113.6 E23.5008
G0 F2700 X112.091 Y113.6
G0 X112.369 Y114.275
G0 X112.625 Y114.531
G0 X112.944 Y114.693
G0 X113.3 Y114.751
G0 X121.591 Y113.7
G0 X121.691 Y113.7
G1 F1350 X121.743 Y114.041 E23.51801
G1 X121.903 Y114.355 E23.5356
G1 X122.158 Y114.605 E23.55341
G1 X122.46 Y114.757 E23.57028
G1 X122.8 Y114.809 E23.58744
G1 X123.141 Y114.757 E23.60465
G1 X123.452 Y114.599 E23.62205
G1 X123.699 Y114.352 E23.63948
G1 X123.857 Y114.041 E23.65688
G1 X123.909 Y113.7 E23.67409
G1 X123.857 Y113.359 E23.6913
G1 X123.699 Y113.048 E23.7087
G1 X123.452 Y112.801 E23.72613
G1 X123.144 Y112.645 E23.74336
G1 X122.8 Y112.589 E23.76074
G1 X122.456 Y112.645 E23.77813
G1 X122.148 Y112.801 E23.79536
G1 X121.901 Y113.048 E23.81278
G1 X121.743 Y113.359 E23.83019
G1 X121.691 Y113.7 E23.8474
G0 F2700 X122.129 Y113.917
;TYPE:WALL-OUTER
G1 F1350 X122.23 Y114.115 E23.85849
G1 X122.394 Y114.276 E23.86995
G1 X122.583 Y114.371 E23.88051
G1 X122.8 Y114.404 E23.89146
G1 X123.017 Y114.371 E23.90241
G1 X123.214 Y114.271 E23.91343
G1 X123.371 Y114.114 E23.92451
G1 X123.471 Y113.917 E23.93553
G1 X123.504 Y113.7 E23.94648
G1 X123.471 Y113.483 E23.95743
G1 X123.371 Y113.286 E23.96845
G1 X123.214 Y113.129 E23.97953
G1 X123.018 Y113.03 E23.99048
G1 X122.8 Y112.994 E24.00151
G1 X122.582 Y113.03 E24.01253
G1 X122.386 Y113.129 E24.02349
G1 X122.229 Y113.286 E24.03456
G1 X122.129 Y113.483 E24.04558
G1 X122.096 Y113.7 E24.05654
G1 X122.129 Y113.917 E24.06749
G0 F2700 X122.219 Y114.095
G0 X121.774 Y114.321
G0 X122.135 Y114.637
G0 X127.026 Y117.94
G0 X127.5 Y118.369
G1 F1350 X97.333 Y121.346 E25.57983
G1 X87.5 Y116.97 E26.11679
G1 X87.5 Y111.8 E26.37472
G1 X97.425 Y111.8 E26.86988
G1 X101.5 Y103.496 E27.33137
G1 X101.5 Y93.65 E27.82259
G1 X106.236 Y93.65 E28.05887
G1 X127.5 Y108.753 E29.36009
G1 X127.5 Y118.369 E29.83983
G0 F2700 X127.301 Y118.388
G0 X127.026 Y117.94
G0 X114.462 Y113.899
G0 X113.97 Y113.818
G1 F1350 X114.006 Y113.6 E29.85086
G1 X113.97 Y113.382 E29.86188
G1 X113.871 Y113.186 E29.87284
G1 X113.714 Y113.029 E29.88391
G1 X113.517 Y112.929 E29.89494
G1 X113.3 Y112.896 E29.90589
G1 X113.083 Y112.929 E29.91684
G1 X112.886 Y113.029 E29.92786
G1 X112.729 Y113.186 E29.93894
G1 X112.629 Y113.383 E29.94996
G1 X112.596 Y113.6 E29.96091
G1 X112.629 Y113.817 E29.97186
G1 X112.729 Y114.014 E29.98288
G1 X112.886 Y114.171 E29.99396
G1 X113.082 Y114.27 E30.00491
G1 X113.3 Y114.306 E30.01594
G1 X113.518 Y114.27 E30.02696
G1 X113.714 Y114.171 E30.03792
G1 X113.871 Y114.014 E30.04899
G1 X113.97 Y113.818 E30.05995
G0 F2700 X114.002 Y113.62
G0 X114.495 Y113.701
G0 X114.231 Y114.275
G0 X113.975 Y114.531
G0 X113.656 Y114.693
G0 X113.3 Y114.751
G0 X104.847 Y113.665
G0 X104.352 Y113.6
G1 F1350 X104.28 Y113.056 E30.08733
G1 X104.07 Y112.549 E30.1147
G1 X103.737 Y112.113 E30.14207
G1 X103.301 Y111.78 E30.16945
G1 X102.794 Y111.57 E30.19682
G1 X102.25 Y111.498 E30.2242
G1 X101.706 Y111.57 E30.25158
G1 X101.199 Y111.78 E30.27896
G1 X100.763 Y112.113 E30.30633
G1 X100.43 Y112.549 E30.3337
G1 X100.22 Y113.056 E30.36108
G1 X100.148 Y113.6 E30.38845
G1 X100.22 Y114.144 E30.41583
G1 X100.43 Y114.651 E30.44321
G1 X100.763 Y115.087 E30.47058
G1 X101.199 Y115.42 E30.49795
G1 X101.706 Y115.63 E30.52533
G1 X102.25 Y115.702 E30.5527
G1 X102.794 Y115.63 E30.58008
G1 X103.301 Y115.42 E30.60746
G1 X103.737 Y115.087 E30.63483
G1 X104.047 Y114.681 E30.66032
G1 X104.085 Y114.616 E30.66407
G1 X104.28 Y114.144 E30.68955
G1 X104.352 Y113.6 E30.71693
G0 F2700 X104.326 Y113.402
G0 X104.822 Y113.338
G0 X104.708 Y114.258
G0 X104.413 Y114.926
G0 X104.05 Y115.4
G0 X103.521 Y115.804
G0 X102.909 Y116.058
G0 X102.25 Y116.145
G0 X88.08 Y116.364
;TYPE:SKIN
G1 F1350 X88.49 Y116.774 E30.74586
G0 F2700 X88.08 Y115.798
G1 F1350 X89.509 Y117.228 E30.84671
G1 X89.579 Y117.298
G0 F2700 X90.528 Y117.681
G1 F1350 X88.08 Y115.232 E31.01947
G1 X88.01 Y115.162
G0 F2700 X88.08 Y114.667
G1 F1350 X91.548 Y118.135 E31.26416
G1 X91.618 Y118.205
G0 F2700 X92.568 Y118.589
G1 F1350 X88.08 Y114.101 E31.58081
G1 X88.01 Y114.031
G0 F2700 X88.08 Y113.535
G1 F1350 X93.587 Y119.043 E31.96939
G1 X93.657 Y119.113
G0 F2700 X94.606 Y119.496
G1 F1350 X88.08 Y112.97 E32.42984
G1 X88.01 Y112.9
G0 F2700 X88.08 Y112.404
G1 F1350 X95.626 Y119.95 E32.96225
G1 X95.696 Y120.02
G0 F2700 X96.645 Y120.404
G1 F1350 X88.62 Y112.379 E33.52845
G1 X88.55 Y112.309
G0 F2700 X89.185 Y112.379
G1 F1350 X97.548 Y120.741 E34.11847
G1 X97.618 Y120.811
G0 F2700 X98.062 Y120.69
G1 F1350 X89.751 Y112.379 E34.70486
G1 X89.681 Y112.309
G0 F2700 X90.317 Y112.379
G1 F1350 X98.577 Y120.639 E35.28765
G1 X98.647 Y120.709
G0 F2700 X99.092 Y120.588
G1 F1350 X90.883 Y112.379 E35.86684
G1 X90.813 Y112.309
G0 F2700 X91.448 Y112.379
G1 F1350 X99.607 Y120.537 E36.44246
G1 X99.677 Y120.607
G0 F2700 X100.122 Y120.487
G1 F1350 X92.014 Y112.379 E37.01453
G1 X91.944 Y112.309
G0 F2700 X92.58 Y112.379
G1 F1350 X100.637 Y120.436 E37.58299
G1 X100.707 Y120.506
G0 F2700 X101.152 Y120.385
G1 F1350 X93.145 Y112.379 E38.14789
G1 X93.075 Y112.309
G0 F2700 X93.711 Y112.379
G1 F1350 X101.667 Y120.334 E38.7092
G1 X101.737 Y120.404
G0 F2700 X102.181 Y120.283
G1 F1350 X94.277 Y112.379 E39.26687
G1 X94.207 Y112.309
G0 F2700 X94.842 Y112.379
G1 F1350 X102.697 Y120.233 E39.82104
G1 X102.767 Y120.303
G0 F2700 X103.212 Y120.182
G1 F1350 X95.408 Y112.379 E40.37162
G1 X95.338 Y112.309
G0 F2700 X95.974 Y112.379
G1 F1350 X103.726 Y120.131 E40.91857
G1 X103.796 Y120.201
G0 F2700 X104.241 Y120.08
G1 F1350 X96.539 Y112.379 E41.46195
G1 X96.469 Y112.309
G0 F2700 X97.105 Y112.379
G1 F1350 X104.756 Y120.029 E42.00173
G1 X104.826 Y120.099
G0 F2700 X105.271 Y119.979
G1 F1350 X101.44 Y116.148 E42.27203
G1 X101.37 Y116.078
G0 F2700 X102.128 Y116.27
G1 F1350 X105.786 Y119.928 E42.53012
G1 X105.856 Y119.998
G0 F2700 X106.301 Y119.877
G1 F1350 X102.656 Y116.232 E42.7873
G1 X102.586 Y116.162
G0 F2700 X103.115 Y116.126
G1 F1350 X106.816 Y119.827 E43.04842
G1 X106.886 Y119.897
G0 F2700 X107.331 Y119.776
G1 F1350 X103.514 Y115.959 E43.31773
G1 X103.444 Y115.889
G0 F2700 X103.85 Y115.73
G1 F1350 X107.845 Y119.725 E43.5996
G1 X107.915 Y119.795
G0 F2700 X108.36 Y119.674
G1 F1350 X104.166 Y115.479 E43.89555
G1 X104.096 Y115.409
G0 F2700 X104.41 Y115.158
G1 F1350 X108.876 Y119.624 E44.21065
G1 X108.946 Y119.694
G0 F2700 X109.39 Y119.573
G1 F1350 X104.63 Y114.812 E44.54653
G1 X104.56 Y114.742
G0 F2700 X104.796 Y114.412
G1 F1350 X109.905 Y119.522 E44.90703
G1 X109.975 Y119.592
G0 F2700 X110.42 Y119.471
G1 F1350 X104.89 Y113.941 E45.2972
G1 X104.82 Y113.871
G0 F2700 X104.909 Y113.395
G1 F1350 X110.935 Y119.42 E45.72233
G1 X111.005 Y119.49
G0 F2700 X111.449 Y119.369
G1 F1350 X104.747 Y112.667 E46.19519
G1 X104.677 Y112.597
G0 F2700 X104.05 Y111.8
G0 X103.181 Y111.1
G1 F1350 X99.982 Y107.901 E46.4209
G1 X99.912 Y107.831
G0 F2700 X100.168 Y107.522
G1 F1350 X111.965 Y119.319 E47.25324
G1 X112.035 Y119.389
G0 F2700 X112.48 Y119.268
G1 F1350 X100.354 Y107.142 E48.1088
G1 X100.284 Y107.072
G0 F2700 X100.54 Y106.763
G1 F1350 X112.994 Y119.217 E48.9875
G1 X113.064 Y119.287
G0 F2700 X113.509 Y119.166
G1 F1350 X100.727 Y106.384 E49.88933
G1 X100.657 Y106.314
G0 F2700 X100.913 Y106.004
G1 F1350 X114.024 Y119.115 E50.81439
G1 X114.094 Y119.185
G0 F2700 X114.539 Y119.064
G1 F1350 X101.099 Y105.624 E51.76265
G1 X101.029 Y105.554
G0 F2700 X101.285 Y105.245
G1 F1350 X115.054 Y119.014 E52.73413
G1 X115.124 Y119.084
G0 F2700 X115.569 Y118.963
G1 F1350 X101.471 Y104.866 E53.72878
G1 X101.401 Y104.796
G0 F2700 X101.657 Y104.486
G1 F1350 X116.084 Y118.912 E54.74665
G1 X116.154 Y118.982
G0 F2700 X116.599 Y118.861
G1 F1350 X101.844 Y104.107 E55.78766
G1 X101.774 Y104.037
G0 F2700 X102.03 Y103.727
G1 F1350 X112.028 Y113.725 E56.49307
G1 X112.098 Y113.795
G0 F2700 X112.07 Y113.201
G1 F1350 X102.079 Y103.21 E57.19799
G1 X102.009 Y103.14
G0 F2700 X102.079 Y102.645
G1 F1350 X112.263 Y112.829 E57.91653
G1 X112.333 Y112.899
G0 F2700 X112.548 Y112.548
G1 F1350 X102.079 Y102.079 E58.65517
G1 X102.009 Y102.009
G0 F2700 X102.079 Y101.513
G1 F1350 X112.931 Y112.365 E59.42084
G1 X113.001 Y112.435
G0 F2700 X113.465 Y112.334
G1 F1350 X102.079 Y100.947 E60.22422
G1 X102.009 Y100.877
G0 F2700 X102.079 Y100.382
G1 F1350 X120.203 Y118.506 E61.50297
G1 X120.273 Y118.576
G0 F2700 X120.717 Y118.455
G1 F1350 X102.079 Y99.816 E62.81801
G1 X102.009 Y99.746
G0 F2700 X102.079 Y99.25
G1 F1350 X121.233 Y118.405 E64.16947
G1 X121.303 Y118.475
G0 F2700 X121.748 Y118.354
G1 F1350 X102.079 Y98.685 E65.55722
G1 X102.009 Y98.615
G0 F2700 X102.079 Y98.119
G1 F1350 X122.263 Y118.303 E66.98131
G1 X122.333 Y118.373
G0 F2700 X122.777 Y118.252
G1 F1350 X102.079 Y97.553 E68.4417
G1 X102.009 Y97.483
G0 F2700 X102.079 Y96.988
G1 F1350 X123.292 Y118.201 E69.93839
G1 X123.362 Y118.271
G0 F2700 X123.808 Y118.151
G1 F1350 X102.079 Y96.422 E71.47149
G1 X102.009 Y96.352
G0 F2700 X102.079 Y95.856
G1 F1350 X124.322 Y118.1 E73.04089
G1 X124.392 Y118.17
G0 F2700 X124.837 Y118.049
G1 F1350 X102.079 Y95.291 E74.64659
G1 X102.009 Y95.221
G0 F2700 X102.079 Y94.725
G1 F1350 X121.692 Y114.338 E76.03039
G1 X121.762 Y114.408
G0 F2700 X122.164 Y114.81
G1 F1350 X125.352 Y117.998 E76.25532
G1 X125.422 Y118.068
G0 F2700 X125.867 Y117.947
G1 F1350 X122.896 Y114.976 E76.46494
G1 X122.826 Y114.906
G0 F2700 X123.342 Y114.856
G1 F1350 X126.381 Y117.896 E76.6794
G1 X126.451 Y117.966
G0 F2700 X126.897 Y117.846
G1 F1350 X123.677 Y114.626 E76.90659
G1 X123.607 Y114.556
G0 F2700 X123.922 Y114.305
G1 F1350 X126.919 Y117.302 E77.11804
G1 X126.989 Y117.372
G0 F2700 X126.919 Y116.736
G1 F1350 X124.061 Y113.879 E77.31965
G1 X123.991 Y113.809
G0 F2700 X124.006 Y113.258
G1 F1350 X126.919 Y116.171 E77.52518
G1 X126.989 Y116.241
G0 F2700 X126.919 Y115.605
G1 F1350 X105.544 Y94.23 E79.0333
G1 X105.474 Y94.16
G0 F2700 X104.978 Y94.23
G1 F1350 X123.242 Y112.494 E80.32193
G1 X123.312 Y112.564
G0 F2700 X122.617 Y112.435
G1 F1350 X104.412 Y94.23 E81.60639
G1 X104.342 Y94.16
G0 F2700 X103.847 Y94.23
G1 F1350 X122.193 Y112.576 E82.9008
G1 X122.263 Y112.646
G0 F2700 X121.871 Y112.821
G1 F1350 X103.281 Y94.23 E84.21246
G1 X103.211 Y94.16
G0 F2700 X102.715 Y94.23
G1 F1350 X121.643 Y113.158 E85.54793
G1 X121.713 Y113.228
G0 F2700 X121.523 Y113.603
G1 F1350 X102.15 Y94.23 E86.9148
G1 X102.08 Y94.16
G0 F2700 X106.254 Y94.375
G1 F1350 X126.919 Y115.039 E88.37279
G1 X126.989 Y115.109
G0 F2700 X126.919 Y114.474
G1 F1350 X108.207 Y95.762 E89.69302
G1 X108.137 Y95.692
G0 F2700 X110.16 Y97.15
G1 F1350 X126.919 Y113.908 E90.87543
G1 X126.989 Y113.978
G0 F2700 X126.919 Y113.342
G1 F1350 X112.113 Y98.536 E91.92007
G1 X112.043 Y98.466
G0 F2700 X114.066 Y99.924
G1 F1350 X126.919 Y112.777 E92.82692
G1 X126.989 Y112.847
G0 F2700 X126.919 Y112.211
G1 F1350 X116.018 Y101.31 E93.59604
G1 X115.948 Y101.24
