;FLAVOR:Marlin
;TIME:7128
;Filament used: 4.25257m
;Layer height: 0.2
;MINX:79
;MINY:75
;MINZ:0.2
;MAXX:177.5
;MAXY:160
;MAXZ:4
;Generated with Cura_SteamEngine 5.2.1
M140 S60
M105
M190 S60
M104 S205
M105
M109 S205
M82 ;absolute extrusion mode
; Ender 3 Custom Start G-code
G92 E0 ; Reset Extruder
G28 ; Home all axes
G1 Z2.0 F3000 ; Move Z Axis up little to prevent scratching of Heat Bed
G1 X0.1 Y20 Z0.3 F5000.0 ; Move to start position
G1 X0.1 Y200.0 Z0.3 F1500.0 E15 ; Draw the first line
G1 X0.4 Y200.0 Z0.3 F5000.0 ; Move to side a little
G1 X0.4 Y20 Z0.3 F1500.0 E30 ; Draw the second line
G92 E0 ; Reset Extruder
G1 Z2.0 F3000 ; Move Z Axis up little to prevent scratching of Heat Bed
G1 X5 Y20 Z0.3 F5000.0 ; Move over to prevent blob squish
G92 E0
G92 E0
G1 F2700 E-5
;LAYER_COUNT:20
;LAYER:0
M107
G0 F6000 X82.368 Y83.938 Z0.2
;TYPE:SKIRT
G1 F2700 E0
G1 F1200 X85.664 Y80.638 E0.15513
G1 X86.328 Y79.996 E0.18585
G1 X86.883 Y79.496 E0.21069
G1 X87.32 Y79.129 E0.22967
G1 X87.702 Y78.823 E0.24595
G1 X88.156 Y78.475 E0.26498
G1 X88.844 Y77.988 E0.29301
G1 X89.535 Y77.553 E0.32017
G1 X89.788 Y77.405 E0.32992
G1 X90.288 Y77.13 E0.3489
G1 X90.665 Y76.935 E0.36302
G1 X91.505 Y76.544 E0.39383
G1 X92.267 Y76.228 E0.42127
G1 X93.587 Y75.777 E0.46767
G1 X94.456 Y75.54 E0.49762
G1 X95.354 Y75.335 E0.52826
G1 X95.652 Y75.28 E0.53834
G1 X96.398 Y75.165 E0.56344
G1 X96.91 Y75.105 E0.58059
G1 X97.71 Y75.04 E0.60729
G1 X98.473 Y75.01 E0.63268
G1 X99.36 Y75 E0.66219
G1 X135.639 Y75 E1.86883
G1 X136.653 Y75.016 E1.90256
G1 X137.399 Y75.054 E1.92741
G1 X138.175 Y75.12 E1.95331
G1 X139.204 Y75.256 E1.98783
G1 X139.651 Y75.337 E2.00294
G1 X140.537 Y75.536 E2.03314
G1 X142.564 Y76.079 E2.10294
G1 X145.122 Y76.726 E2.1907
G1 X147.577 Y77.272 E2.27435
G1 X150.029 Y77.745 E2.3574
G1 X152.519 Y78.153 E2.44133
G1 X155.033 Y78.494 E2.52571
G1 X157.493 Y78.755 E2.60799
G1 X160.081 Y78.957 E2.69433
G1 X161.403 Y79.037 E2.73838
G1 X162.335 Y79.142 E2.76957
G1 X163.255 Y79.326 E2.80078
G1 X164.155 Y79.587 E2.83194
G1 X165.03 Y79.925 E2.86314
G1 X165.873 Y80.336 E2.89433
G1 X166.678 Y80.817 E2.92552
G1 X167.44 Y81.365 E2.95674
G1 X168.237 Y82.057 E2.99185
G1 X168.732 Y82.534 E3.01471
G1 X171.965 Y85.768 E3.16681
G1 X172.273 Y86.089 E3.1816
G1 X172.935 Y86.807 E3.21408
G1 X173.529 Y87.507 E3.24462
G1 X174.01 Y88.141 E3.27109
G1 X174.252 Y88.481 E3.28497
G1 X174.596 Y88.992 E3.30546
G1 X174.862 Y89.417 E3.32213
G1 X175.065 Y89.759 E3.33536
G1 X175.426 Y90.406 E3.36
G1 X175.858 Y91.287 E3.39264
G1 X176.05 Y91.728 E3.40864
G1 X176.336 Y92.438 E3.43409
G1 X176.649 Y93.347 E3.46607
G1 X176.825 Y93.942 E3.48671
G1 X177.037 Y94.779 E3.51543
G1 X177.152 Y95.321 E3.53385
G1 X177.308 Y96.243 E3.56496
G1 X177.352 Y96.596 E3.57679
G1 X177.429 Y97.417 E3.60421
G1 X177.457 Y97.87 E3.61931
G1 X177.489 Y98.649 E3.64524
G1 X177.498 Y99.099 E3.66021
G1 X177.5 Y135.638 E4.8755
G1 X177.484 Y136.653 E4.90927
G1 X177.446 Y137.399 E4.93411
G1 X177.38 Y138.175 E4.96001
G1 X177.246 Y139.191 E4.9941
G1 X177.167 Y139.63 E5.00893
G1 X176.963 Y140.542 E5.04002
G1 X176.746 Y141.348 E5.06778
G1 X176.464 Y142.242 E5.09896
G1 X176.283 Y142.707 E5.11555
G1 X175.947 Y143.516 E5.14469
G1 X175.596 Y144.277 E5.17256
G1 X175.209 Y145.011 E5.20016
G1 X175.056 Y145.279 E5.21043
G1 X174.701 Y145.865 E5.23321
G1 X174.109 Y146.73 E5.26808
G1 X173.714 Y147.251 E5.28982
G1 X173.372 Y147.679 E5.30804
G1 X172.958 Y148.172 E5.32946
G1 X172.401 Y148.787 E5.35705
G1 X171.969 Y149.229 E5.37761
G1 X168.795 Y152.402 E5.52688
G1 X168.295 Y152.887 E5.55005
G1 X167.594 Y153.51 E5.58124
G1 X166.843 Y154.072 E5.61244
G1 X166.047 Y154.568 E5.64363
G1 X165.212 Y154.994 E5.67481
G1 X164.343 Y155.348 E5.70602
G1 X163.447 Y155.626 E5.73722
G1 X162.531 Y155.826 E5.76841
G1 X161.338 Y155.969 E5.80837
G1 X159.705 Y156.073 E5.8628
G1 X157.191 Y156.277 E5.94669
G1 X154.655 Y156.555 E6.03154
G1 X152.184 Y156.897 E6.11451
G1 X149.684 Y157.314 E6.19881
G1 X147.228 Y157.797 E6.28206
G1 X144.77 Y158.353 E6.36588
G1 X142.337 Y158.974 E6.44939
G1 X141.272 Y159.277 E6.48622
G1 X140.743 Y159.416 E6.50441
G1 X140.295 Y159.521 E6.51972
G1 X139.679 Y159.652 E6.54066
G1 X138.74 Y159.81 E6.57233
G1 X137.944 Y159.899 E6.59897
G1 X137.13 Y159.957 E6.62612
G1 X136.352 Y159.989 E6.65202
G1 X135.901 Y159.998 E6.66702
G1 X99.362 Y160 E7.88231
G1 X98.347 Y159.984 E7.91607
G1 X97.601 Y159.946 E7.94092
G1 X96.825 Y159.88 E7.96682
G1 X95.809 Y159.746 E8.00091
G1 X95.37 Y159.667 E8.01574
G1 X94.46 Y159.463 E8.04676
G1 X93.646 Y159.244 E8.0748
G1 X92.752 Y158.962 E8.10598
G1 X92.267 Y158.773 E8.12329
G1 X91.462 Y158.437 E8.1523
G1 X90.718 Y158.094 E8.17955
G1 X89.993 Y157.711 E8.20682
G1 X89.723 Y157.557 E8.21716
G1 X89.118 Y157.19 E8.24069
G1 X88.269 Y156.608 E8.27493
G1 X87.748 Y156.213 E8.29668
G1 X87.322 Y155.872 E8.31483
G1 X86.83 Y155.459 E8.33619
G1 X86.213 Y154.901 E8.36386
G1 X85.771 Y154.469 E8.38442
G1 X82.582 Y151.278 E8.53446
G1 X82.111 Y150.792 E8.55697
G1 X81.487 Y150.092 E8.58816
G1 X80.926 Y149.34 E8.61937
G1 X80.431 Y148.544 E8.65055
G1 X80.005 Y147.708 E8.68175
G1 X79.652 Y146.839 E8.71295
G1 X79.374 Y145.944 E8.74412
G1 X79.174 Y145.027 E8.77534
G1 X79.052 Y144.098 E8.8065
G1 X79.012 Y143.334 E8.83195
G1 X79 Y142.58 E8.85703
G1 X79.001 Y135.409 E9.09554
G1 X79.011 Y134.702 E9.11905
G1 X79.026 Y134.266 E9.13356
G1 X79.146 Y132.031 E9.20801
G1 X79.218 Y129.535 E9.29106
G1 X79.218 Y127.011 E9.37501
G1 X79.147 Y124.466 E9.45969
G1 X79.026 Y122.238 E9.5339
G1 X79.012 Y121.838 E9.54721
G1 X79 Y121.081 E9.57239
G1 X79.001 Y113.909 E9.81093
G1 X79.011 Y113.202 E9.83445
G1 X79.026 Y112.766 E9.84896
G1 X79.146 Y110.531 E9.92341
G1 X79.218 Y108.035 E10.00646
G1 X79.218 Y105.511 E10.09041
G1 X79.147 Y102.966 E10.17509
G1 X79.026 Y100.738 E10.2493
G1 X79.012 Y100.338 E10.26261
G1 X79 Y99.581 E10.28779
G1 X79.001 Y92.408 E10.52637
G1 X79.011 Y91.706 E10.54972
G1 X79.064 Y90.77 E10.5809
G1 X79.197 Y89.842 E10.61208
G1 X79.409 Y88.928 E10.64329
G1 X79.697 Y88.035 E10.67449
G1 X80.061 Y87.171 E10.70568
G1 X80.497 Y86.34 E10.73689
G1 X81.002 Y85.55 E10.76807
G1 X81.572 Y84.806 E10.79925
G1 X81.945 Y84.382 E10.81803
G1 X82.368 Y83.938 E10.83843
G0 F6000 X82.651 Y84.22
G1 F1200 X85.947 Y80.92 E10.99355
G1 X86.605 Y80.284 E11.02399
G1 X87.14 Y79.803 E11.04792
G1 X87.577 Y79.436 E11.0669
G1 X87.945 Y79.14 E11.08261
G1 X88.399 Y78.792 E11.10163
G1 X89.062 Y78.323 E11.12865
G1 X89.303 Y78.166 E11.13821
G1 X89.99 Y77.751 E11.16491
G1 X90.472 Y77.485 E11.18322
G1 X90.849 Y77.29 E11.19734
G1 X91.659 Y76.914 E11.22704
G1 X92.421 Y76.598 E11.25447
G1 X93.692 Y76.163 E11.29915
G1 X94.561 Y75.926 E11.32911
G1 X95.426 Y75.728 E11.35863
G1 X95.724 Y75.673 E11.36871
G1 X96.453 Y75.561 E11.39324
G1 X97.292 Y75.471 E11.4213
G1 X98.064 Y75.423 E11.44703
G1 X98.478 Y75.41 E11.46081
G1 X99.36 Y75.4 E11.49014
G1 X135.639 Y75.4 E12.69679
G1 X136.646 Y75.416 E12.73028
G1 X137.365 Y75.452 E12.75423
G1 X138.141 Y75.518 E12.78013
G1 X139.133 Y75.65 E12.81342
G1 X139.58 Y75.731 E12.82853
G1 X140.433 Y75.922 E12.8576
G1 X142.492 Y76.474 E12.9285
G1 X145.009 Y77.11 E13.01485
G1 X147.513 Y77.667 E13.10017
G1 X149.967 Y78.141 E13.1833
G1 X152.467 Y78.551 E13.26756
G1 X154.943 Y78.886 E13.35066
G1 X157.487 Y79.156 E13.43575
G1 X160.028 Y79.354 E13.52052
G1 X161.375 Y79.436 E13.5654
G1 X162.29 Y79.54 E13.59603
G1 X163.192 Y79.722 E13.62664
G1 X164.075 Y79.983 E13.65726
G1 X164.932 Y80.319 E13.68788
G1 X165.757 Y80.728 E13.7185
G1 X166.543 Y81.207 E13.74912
G1 X167.285 Y81.753 E13.77976
G1 X167.961 Y82.346 E13.80967
G1 X168.449 Y82.817 E13.83223
G1 X171.682 Y86.051 E13.98432
G1 X171.979 Y86.36 E13.99857
G1 X172.641 Y87.078 E14.03106
G1 X173.213 Y87.753 E14.06048
G1 X173.684 Y88.373 E14.08638
G1 X173.926 Y88.713 E14.10026
G1 X174.262 Y89.212 E14.12027
G1 X174.721 Y89.964 E14.14957
G1 X175.075 Y90.598 E14.17372
G1 X175.491 Y91.447 E14.20517
G1 X175.683 Y91.888 E14.22117
G1 X175.964 Y92.584 E14.24613
G1 X176.266 Y93.46 E14.27695
G1 X176.442 Y94.055 E14.29759
G1 X176.646 Y94.862 E14.32527
G1 X176.761 Y95.404 E14.3437
G1 X176.911 Y96.293 E14.37369
G1 X176.955 Y96.646 E14.38552
G1 X177.03 Y97.45 E14.41238
G1 X177.057 Y97.886 E14.42691
G1 X177.089 Y98.665 E14.45284
G1 X177.098 Y99.099 E14.46728
G1 X177.1 Y135.638 E15.68257
G1 X177.084 Y136.646 E15.7161
G1 X177.048 Y137.365 E15.74004
G1 X176.982 Y138.141 E15.76595
G1 X176.852 Y139.12 E15.79879
G1 X176.773 Y139.559 E15.81363
G1 X176.577 Y140.438 E15.84358
G1 X176.36 Y141.244 E15.87134
G1 X176.082 Y142.121 E15.90194
G1 X175.913 Y142.554 E15.9174
G1 X175.577 Y143.363 E15.94654
G1 X175.24 Y144.096 E15.97337
G1 X174.861 Y144.812 E16.00032
G1 X174.521 Y145.396 E16.02279
G1 X174.361 Y145.655 E16.03292
G1 X173.79 Y146.488 E16.06651
G1 X173.395 Y147.009 E16.08825
G1 X173.065 Y147.422 E16.10584
G1 X172.651 Y147.915 E16.12725
G1 X172.115 Y148.507 E16.15381
G1 X171.683 Y148.949 E16.17437
G1 X168.516 Y152.115 E16.32331
G1 X168.016 Y152.6 E16.34648
G1 X167.328 Y153.211 E16.37708
G1 X166.59 Y153.761 E16.40769
G1 X165.806 Y154.245 E16.43834
G1 X164.984 Y154.658 E16.46894
G1 X164.129 Y154.999 E16.49955
G1 X163.247 Y155.264 E16.53018
G1 X162.346 Y155.452 E16.5608
G1 X161.312 Y155.569 E16.59541
G1 X159.709 Y155.671 E16.64883
G1 X157.152 Y155.878 E16.73415
G1 X154.623 Y156.155 E16.81877
G1 X152.1 Y156.505 E16.90349
G1 X149.639 Y156.916 E16.98648
G1 X147.142 Y157.407 E17.07112
G1 X144.654 Y157.969 E17.15595
G1 X142.243 Y158.585 E17.23872
G1 X141.163 Y158.892 E17.27607
G1 X140.644 Y159.029 E17.29392
G1 X140.212 Y159.13 E17.30867
G1 X139.596 Y159.261 E17.32962
G1 X138.691 Y159.413 E17.36014
G1 X138.343 Y159.456 E17.37181
G1 X137.546 Y159.53 E17.39843
G1 X137.114 Y159.557 E17.41282
G1 X136.336 Y159.589 E17.43872
G1 X135.901 Y159.598 E17.45319
G1 X99.362 Y159.6 E18.66849
G1 X98.354 Y159.584 E18.70202
G1 X97.635 Y159.548 E18.72596
G1 X96.859 Y159.482 E18.75186
G1 X95.88 Y159.352 E18.78471
G1 X95.441 Y159.273 E18.79955
G1 X94.564 Y159.077 E18.82944
G1 X93.75 Y158.858 E18.85747
G1 X92.872 Y158.58 E18.8881
G1 X92.421 Y158.404 E18.9042
G1 X91.616 Y158.068 E18.93322
G1 X90.9 Y157.737 E18.95945
G1 X90.191 Y157.364 E18.9861
G1 X89.921 Y157.21 E18.99644
G1 X89.328 Y156.85 E19.01951
G1 X88.511 Y156.289 E19.05247
G1 X87.99 Y155.894 E19.07422
G1 X87.579 Y155.566 E19.09171
G1 X87.087 Y155.153 E19.11307
G1 X86.493 Y154.615 E19.13973
G1 X86.051 Y154.183 E19.16029
G1 X82.869 Y151 E19.30998
G1 X82.398 Y150.514 E19.33249
G1 X81.787 Y149.826 E19.3631
G1 X81.237 Y149.087 E19.39373
G1 X80.754 Y148.303 E19.42436
G1 X80.341 Y147.481 E19.45496
G1 X80 Y146.625 E19.48561
G1 X79.735 Y145.743 E19.51624
G1 X79.548 Y144.842 E19.54684
G1 X79.44 Y143.928 E19.57745
G1 X79.412 Y143.327 E19.59746
G1 X79.4 Y142.58 E19.62231
G1 X79.401 Y135.415 E19.86062
G1 X79.411 Y134.708 E19.88414
G1 X79.425 Y134.287 E19.89815
G1 X79.545 Y132.064 E19.97219
G1 X79.618 Y129.511 E20.05714
G1 X79.618 Y127 E20.14066
G1 X79.546 Y124.432 E20.2261
G1 X79.426 Y122.216 E20.29992
G1 X79.412 Y121.831 E20.31273
G1 X79.4 Y121.081 E20.33768
G1 X79.401 Y113.915 E20.57602
G1 X79.411 Y113.208 E20.59954
G1 X79.425 Y112.787 E20.61355
G1 X79.545 Y110.564 E20.68759
G1 X79.618 Y108.011 E20.77254
G1 X79.618 Y105.5 E20.85606
G1 X79.546 Y102.932 E20.9415
G1 X79.426 Y100.716 E21.01531
G1 X79.412 Y100.331 E21.02813
G1 X79.4 Y99.581 E21.05308
G1 X79.401 Y92.414 E21.29145
G1 X79.411 Y91.712 E21.3148
G1 X79.464 Y90.793 E21.34542
G1 X79.597 Y89.882 E21.37604
G1 X79.808 Y88.986 E21.40666
G1 X80.096 Y88.111 E21.4373
G1 X80.459 Y87.265 E21.46791
G1 X80.894 Y86.454 E21.49852
G1 X81.398 Y85.683 E21.52916
G1 X82.239 Y84.654 E21.57336
G1 X82.651 Y84.22 E21.59327
G0 F6000 X82.934 Y84.503
G1 F1200 X86.23 Y81.203 E21.74839
G1 X86.883 Y80.572 E21.7786
G1 X87.397 Y80.109 E21.8016
G1 X87.834 Y79.742 E21.82058
G1 X88.189 Y79.458 E21.83571
G1 X88.643 Y79.11 E21.85473
G1 X89.28 Y78.659 E21.88069
G1 X89.521 Y78.502 E21.89026
G1 X90.192 Y78.096 E21.91634
G1 X90.656 Y77.84 E21.93397
G1 X91.033 Y77.645 E21.94808
G1 X91.812 Y77.283 E21.97666
G1 X92.574 Y76.967 E22.00409
G1 X93.797 Y76.548 E22.04709
G1 X94.666 Y76.311 E22.07705
G1 X95.499 Y76.121 E22.10547
G1 X95.797 Y76.066 E22.11555
G1 X96.509 Y75.957 E22.1395
G1 X96.984 Y75.902 E22.15541
G1 X97.751 Y75.839 E22.181
G1 X98.483 Y75.81 E22.20537
G1 X99.36 Y75.8 E22.23454
G1 X135.811 Y75.801 E23.4469
G1 X136.639 Y75.815 E23.47445
G1 X137.331 Y75.851 E23.4975
G1 X138.107 Y75.917 E23.5234
G1 X139.062 Y76.043 E23.55544
G1 X139.509 Y76.124 E23.57055
G1 X140.33 Y76.309 E23.59854
G1 X142.371 Y76.856 E23.66882
G1 X144.929 Y77.502 E23.75657
G1 X147.422 Y78.057 E23.84152
G1 X149.898 Y78.535 E23.92539
G1 X152.385 Y78.943 E24.00921
G1 X154.914 Y79.285 E24.09409
G1 X157.45 Y79.555 E24.17892
G1 X159.978 Y79.752 E24.26325
G1 X160.677 Y79.789 E24.28653
G1 X161.347 Y79.835 E24.30887
G1 X162.245 Y79.937 E24.33893
G1 X163.129 Y80.119 E24.36895
G1 X163.994 Y80.378 E24.39898
G1 X164.833 Y80.713 E24.42903
G1 X165.639 Y81.12 E24.45906
G1 X166.406 Y81.597 E24.4891
G1 X167.127 Y82.141 E24.51914
G1 X167.685 Y82.635 E24.54393
G1 X168.167 Y83.1 E24.56621
G1 X171.4 Y86.334 E24.7183
G1 X171.685 Y86.631 E24.73199
G1 X172.347 Y87.349 E24.76447
G1 X172.898 Y87.999 E24.79281
G1 X173.358 Y88.605 E24.81812
G1 X173.6 Y88.945 E24.832
G1 X173.928 Y89.431 E24.8515
G1 X174.377 Y90.168 E24.8802
G1 X174.724 Y90.79 E24.90389
G1 X175.124 Y91.606 E24.93412
G1 X175.316 Y92.047 E24.95012
G1 X175.592 Y92.731 E24.97465
G1 X175.882 Y93.574 E25.0043
G1 X176.058 Y94.169 E25.02494
G1 X176.255 Y94.945 E25.05157
G1 X176.37 Y95.487 E25.06999
G1 X176.514 Y96.342 E25.09883
G1 X176.602 Y97.119 E25.12484
G1 X176.657 Y97.902 E25.15095
G1 X176.689 Y98.681 E25.17688
G1 X176.698 Y99.099 E25.19078
G1 X176.699 Y135.811 E26.41183
G1 X176.685 Y136.639 E26.43937
G1 X176.649 Y137.331 E26.46242
G1 X176.583 Y138.107 E26.48832
G1 X176.459 Y139.05 E26.51996
G1 X176.38 Y139.489 E26.53479
G1 X176.19 Y140.334 E26.5636
G1 X175.973 Y141.14 E26.59136
G1 X175.544 Y142.4 E26.63563
G1 X175.208 Y143.209 E26.66477
G1 X174.883 Y143.914 E26.69059
G1 X174.514 Y144.614 E26.71691
G1 X174.181 Y145.186 E26.73892
G1 X174.021 Y145.445 E26.74905
G1 X173.471 Y146.246 E26.78136
G1 X173.076 Y146.767 E26.80311
G1 X172.759 Y147.164 E26.82001
G1 X172.345 Y147.657 E26.84142
G1 X171.829 Y148.227 E26.86699
G1 X171.397 Y148.669 E26.88755
G1 X168.238 Y151.827 E27.03611
G1 X167.738 Y152.312 E27.05928
G1 X167.062 Y152.912 E27.08935
G1 X166.337 Y153.449 E27.11935
G1 X165.566 Y153.92 E27.1494
G1 X164.757 Y154.321 E27.17944
G1 X163.915 Y154.649 E27.20949
G1 X163.048 Y154.902 E27.23953
G1 X162.162 Y155.076 E27.26956
G1 X161.287 Y155.17 E27.29883
G1 X159.705 Y155.271 E27.35156
G1 X157.077 Y155.484 E27.43925
G1 X154.596 Y155.755 E27.52226
G1 X152.051 Y156.108 E27.60772
G1 X149.534 Y156.528 E27.69259
G1 X147.048 Y157.017 E27.77686
G1 X144.573 Y157.576 E27.86125
G1 X142.14 Y158.198 E27.94478
G1 X141.053 Y158.507 E27.98236
G1 X140.544 Y158.641 E27.99987
G1 X140.129 Y158.739 E28.01405
G1 X139.513 Y158.87 E28.035
G1 X138.642 Y159.016 E28.06437
G1 X137.879 Y159.102 E28.08991
G1 X137.097 Y159.157 E28.11598
G1 X136.319 Y159.189 E28.14188
G1 X135.901 Y159.198 E28.15579
G1 X99.189 Y159.199 E29.37683
G1 X98.361 Y159.185 E29.40438
G1 X97.669 Y159.149 E29.42742
G1 X96.893 Y159.083 E29.45333
G1 X95.95 Y158.959 E29.48496
G1 X95.511 Y158.88 E29.4998
G1 X94.668 Y158.691 E29.52853
G1 X93.854 Y158.472 E29.55657
G1 X92.575 Y158.035 E29.60152
G1 X91.77 Y157.699 E29.63053
G1 X91.081 Y157.381 E29.65577
G1 X90.389 Y157.016 E29.6818
G1 X90.119 Y156.862 E29.69213
G1 X89.539 Y156.51 E29.7147
G1 X88.753 Y155.97 E29.74642
G1 X88.232 Y155.575 E29.76816
G1 X87.836 Y155.259 E29.78501
G1 X87.344 Y154.846 E29.80638
G1 X86.773 Y154.329 E29.832
G1 X86.331 Y153.897 E29.85255
G1 X83.156 Y150.722 E30.0019
G1 X82.685 Y150.236 E30.02441
G1 X82.086 Y149.56 E30.05445
G1 X81.549 Y148.834 E30.08448
G1 X81.078 Y148.063 E30.11453
G1 X80.678 Y147.254 E30.14455
G1 X80.35 Y146.412 E30.1746
G1 X80.098 Y145.545 E30.20463
G1 X79.924 Y144.659 E30.23466
G1 X79.812 Y143.32 E30.27936
G1 X79.8 Y142.58 E30.30397
G1 X79.801 Y135.421 E30.54208
