;FLAVOR:Marlin
;TIME:2451
;Filament used: 0.982876m
;Layer height: 0.1
;Generated with Cura_SteamEngine master
M190 S60
M104 S207
M109 S207
G21 ;metric values
G90 ;absolute positioning
M82 ;set extruder to absolute mode
M107 ;start with the fan off
G28 X0 Y0 ;move X/Y to min endstops
G28 Z0 ;move Z to min endstops
G1 Z15.0 F9000 ;move the platform down 15mm
G92 E0 ;zero the extruded length
G1 F200 E3 ;extrude 3mm of feed stock
G92 E0 ;zero the extruded length again
G1 F9000
;Put printing message on LCD screen
M117 Printing...
;LAYER_COUNT:43
;LAYER:0
M107
G0 F2700 X83.319 Y67.963 Z0.3
;TYPE:SKIRT
G1 F1350 X83.678 Y67.545 E0.02749
G1 X84.094 Y67.183 E0.055
G1 X84.473 Y66.933 E0.07765
G1 X89.669 Y63.933 E0.37699
G1 X90.165 Y63.693 E0.40448
G1 X90.69 Y63.527 E0.43195
G1 X91.234 Y63.439 E0.45944
G1 X91.785 Y63.43 E0.48693
G1 X92.331 Y63.501 E0.5144
G1 X92.862 Y63.651 E0.54193
G1 X93.365 Y63.875 E0.5694
G1 X93.83 Y64.17 E0.59688
G1 X94.248 Y64.529 E0.62437
G1 X94.61 Y64.945 E0.65188
G1 X94.86 Y65.324 E0.67453
G1 X97.075 Y69.162 E0.89561
G1 X97.108 Y69.173 E0.89734
G1 X98.017 Y69.581 E0.94705
G1 X98.678 Y69.962 E0.98512
G1 X99.491 Y70.546 E1.03506
G1 X99.534 Y70.584 E1.03792
G1 X103.971 Y70.584 E1.25928
G1 X104.521 Y70.624 E1.2868
G1 X105.059 Y70.743 E1.31428
G1 X105.574 Y70.939 E1.34178
G1 X106.055 Y71.207 E1.36925
G1 X106.493 Y71.541 E1.39673
G1 X106.877 Y71.936 E1.42421
G1 X107.201 Y72.382 E1.45171
G1 X107.387 Y72.738 E1.47175
G1 X107.517 Y72.652 E1.47953
G1 X112.713 Y69.652 E1.77886
G1 X113.209 Y69.412 E1.80635
G1 X113.734 Y69.246 E1.83382
G1 X114.278 Y69.158 E1.86132
G1 X114.829 Y69.149 E1.88881
G1 X115.375 Y69.22 E1.91628
G1 X115.906 Y69.37 E1.94381
G1 X116.409 Y69.594 E1.97128
G1 X116.874 Y69.889 E1.99875
G1 X117.292 Y70.248 E2.02624
G1 X117.654 Y70.664 E2.05375
G1 X117.904 Y71.043 E2.07641
G1 X120.12 Y74.882 E2.29755
G1 X120.149 Y74.892 E2.29908
G1 X121.058 Y75.299 E2.34877
G1 X121.722 Y75.681 E2.38699
G1 X122.535 Y76.265 E2.43693
G1 X122.578 Y76.303 E2.43979
G1 X127.015 Y76.303 E2.66116
G1 X127.565 Y76.343 E2.68867
G1 X128.103 Y76.462 E2.71616
G1 X128.618 Y76.658 E2.74365
G1 X129.099 Y76.926 E2.77112
G1 X129.537 Y77.26 E2.7986
G1 X129.921 Y77.655 E2.82608
G1 X130.245 Y78.101 E2.85359
G1 X130.5 Y78.589 E2.88106
G1 X130.683 Y79.109 E2.90856
G1 X130.788 Y79.65 E2.93605
G1 X130.815 Y80.103 E2.95869
G1 X130.815 Y86.103 E3.25804
G1 X130.775 Y86.653 E3.28555
G1 X130.656 Y87.191 E3.31304
G1 X130.46 Y87.706 E3.34053
G1 X130.192 Y88.187 E3.368
G1 X129.858 Y88.625 E3.39548
G1 X129.463 Y89.009 E3.42296
G1 X129.017 Y89.333 E3.45047
G1 X128.529 Y89.588 E3.47794
G1 X128.009 Y89.771 E3.50544
G1 X127.468 Y89.876 E3.53293
G1 X127.015 Y89.903 E3.55557
G1 X122.578 Y89.903 E3.77694
G1 X122.535 Y89.941 E3.7798
G1 X121.723 Y90.524 E3.82967
G1 X121.063 Y90.904 E3.86767
G1 X120.152 Y91.313 E3.91749
G1 X120.12 Y91.324 E3.91917
G1 X117.904 Y95.163 E4.14032
G1 X117.595 Y95.619 E4.1678
G1 X117.223 Y96.025 E4.19527
G1 X116.796 Y96.373 E4.22276
G1 X116.323 Y96.656 E4.25026
G1 X115.814 Y96.868 E4.27776
G1 X115.28 Y97.004 E4.30526
G1 X114.732 Y97.061 E4.33274
G1 X114.182 Y97.038 E4.36021
G1 X113.64 Y96.936 E4.38772
G1 X113.119 Y96.757 E4.41521
G1 X112.713 Y96.554 E4.43785
G1 X107.517 Y93.554 E4.73719
G1 X107.061 Y93.244 E4.7647
G1 X106.655 Y92.872 E4.79217
G1 X106.306 Y92.446 E4.81964
G1 X106.023 Y91.973 E4.84714
G1 X105.812 Y91.464 E4.87463
G1 X105.676 Y90.93 E4.90212
G1 X105.619 Y90.382 E4.92961
G1 X105.642 Y89.831 E4.95713
G1 X105.744 Y89.29 E4.98459
G1 X105.923 Y88.769 E5.01208
G1 X106.126 Y88.363 E5.03472
G1 X108.344 Y84.522 E5.256
G1 X108.339 Y84.5 E5.25713
G1 X108.235 Y83.455 E5.30952
G1 X108.236 Y82.685 E5.34794
G1 X108.34 Y81.687 E5.398
G1 X108.341 Y81.68 E5.39835
G1 X107.751 Y80.658 E5.45723
G1 X107.731 Y80.934 E5.47103
G1 X107.612 Y81.472 E5.49852
G1 X107.416 Y81.987 E5.52601
G1 X107.148 Y82.468 E5.55348
G1 X106.814 Y82.906 E5.58096
G1 X106.419 Y83.29 E5.60845
G1 X105.973 Y83.614 E5.63595
G1 X105.485 Y83.869 E5.66342
G1 X104.965 Y84.052 E5.69092
G1 X104.424 Y84.157 E5.71842
G1 X103.971 Y84.184 E5.74106
G1 X99.534 Y84.184 E5.96242
G1 X99.491 Y84.222 E5.96528
G1 X98.679 Y84.805 E6.01515
G1 X98.019 Y85.185 E6.05315
G1 X97.108 Y85.594 E6.10297
G1 X97.076 Y85.605 E6.10466
G1 X94.86 Y89.444 E6.32581
G1 X94.551 Y89.9 E6.35329
G1 X94.179 Y90.306 E6.38076
G1 X93.752 Y90.654 E6.40824
G1 X93.279 Y90.937 E6.43574
G1 X92.77 Y91.149 E6.46325
G1 X92.236 Y91.285 E6.49074
G1 X91.688 Y91.342 E6.51823
G1 X91.138 Y91.319 E6.54569
G1 X90.596 Y91.217 E6.57321
G1 X90.075 Y91.038 E6.60069
G1 X89.669 Y90.835 E6.62334
G1 X84.473 Y87.835 E6.92267
G1 X84.017 Y87.525 E6.95018
G1 X83.611 Y87.153 E6.97765
G1 X83.262 Y86.727 E7.00513
G1 X82.979 Y86.254 E7.03263
G1 X82.768 Y85.745 E7.06012
G1 X82.632 Y85.211 E7.08761
G1 X82.575 Y84.663 E7.1151
G1 X82.598 Y84.112 E7.14261
G1 X82.7 Y83.571 E7.17008
G1 X82.879 Y83.05 E7.19756
G1 X83.082 Y82.644 E7.22021
G1 X85.3 Y78.803 E7.44149
G1 X85.295 Y78.781 E7.44261
G1 X85.191 Y77.736 E7.49501
G1 X85.192 Y76.967 E7.53337
G1 X85.296 Y75.968 E7.58348
G1 X85.297 Y75.961 E7.58384
G1 X83.082 Y72.124 E7.80487
G1 X82.842 Y71.628 E7.83236
G1 X82.676 Y71.103 E7.85983
G1 X82.588 Y70.559 E7.88732
G1 X82.579 Y70.008 E7.91482
G1 X82.65 Y69.462 E7.94229
G1 X82.8 Y68.931 E7.96982
G1 X83.024 Y68.428 E7.99729
G1 X83.319 Y67.963 E8.02476
G0 F2700 X83.781 Y68.024
G1 F1350 X84.148 Y67.653 E8.05079
G1 X84.673 Y67.28 E8.08292
G1 X89.869 Y64.28 E8.38226
G1 X90.339 Y64.054 E8.40828
G1 X90.838 Y63.904 E8.43427
G1 X91.354 Y63.831 E8.46027
G1 X91.875 Y63.838 E8.48627
G1 X92.389 Y63.924 E8.51227
G1 X92.884 Y64.088 E8.53828
G1 X93.347 Y64.326 E8.56426
G1 X93.769 Y64.632 E8.59026
G1 X94.14 Y64.999 E8.6163
G1 X94.514 Y65.524 E8.64846
G1 X96.804 Y69.491 E8.87698
G1 X96.944 Y69.538 E8.88435
G1 X97.853 Y69.946 E8.93406
G1 X98.445 Y70.287 E8.96814
G1 X99.258 Y70.871 E9.01808
G1 X99.386 Y70.984 E9.0266
G1 X103.971 Y70.984 E9.25535
G1 X104.491 Y71.024 E9.28137
G1 X104.998 Y71.143 E9.30735
G1 X105.481 Y71.338 E9.33333
G1 X105.929 Y71.604 E9.35933
G1 X106.331 Y71.936 E9.38534
G1 X106.677 Y72.326 E9.41135
G1 X106.96 Y72.764 E9.43737
G1 X107.173 Y73.239 E9.46334
G1 X107.206 Y73.362 E9.46969
G1 X107.717 Y72.999 E9.50096
G1 X112.913 Y69.999 E9.8003
G1 X113.383 Y69.773 E9.82632
G1 X113.882 Y69.623 E9.85231
G1 X114.398 Y69.55 E9.87831
G1 X114.919 Y69.557 E9.90431
G1 X115.433 Y69.643 E9.93031
G1 X115.928 Y69.807 E9.95632
G1 X116.391 Y70.045 E9.98229
G1 X116.813 Y70.351 E10.0083
G1 X117.184 Y70.718 E10.03434
G1 X117.558 Y71.243 E10.0665
G1 X119.849 Y75.212 E10.29513
G1 X119.985 Y75.257 E10.30228
G1 X120.894 Y75.664 E10.35197
G1 X121.489 Y76.006 E10.3862
G1 X122.302 Y76.59 E10.43614
G1 X122.43 Y76.703 E10.44466
G1 X127.015 Y76.703 E10.67341
G1 X127.535 Y76.743 E10.69943
G1 X128.042 Y76.862 E10.72541
G1 X128.525 Y77.057 E10.7514
G1 X128.973 Y77.323 E10.77739
G1 X129.375 Y77.655 E10.8034
G1 X129.721 Y78.045 E10.82941
G1 X130.004 Y78.483 E10.85543
G1 X130.217 Y78.958 E10.8814
G1 X130.354 Y79.461 E10.90741
G1 X130.415 Y80.103 E10.93958
G1 X130.415 Y86.103 E11.23893
G1 X130.375 Y86.623 E11.26494
G1 X130.256 Y87.13 E11.29093
G1 X130.061 Y87.613 E11.31691
G1 X129.795 Y88.061 E11.34291
G1 X129.463 Y88.463 E11.36892
G1 X129.073 Y88.809 E11.39493
G1 X128.635 Y89.092 E11.42095
G1 X128.16 Y89.305 E11.44692
G1 X127.657 Y89.442 E11.47293
G1 X127.015 Y89.503 E11.5051
G1 X122.43 Y89.503 E11.73385
G1 X122.302 Y89.616 E11.74236
G1 X121.49 Y90.199 E11.79224
G1 X120.9 Y90.539 E11.82621
G1 X119.989 Y90.948 E11.87603
G1 X119.848 Y90.995 E11.88344
G1 X117.558 Y94.963 E12.11201
G1 X117.263 Y95.393 E12.13803
G1 X116.907 Y95.773 E12.164
G1 X116.496 Y96.094 E12.19002
G1 X116.041 Y96.348 E12.21602
G1 X115.553 Y96.53 E12.242
G1 X115.043 Y96.636 E12.26799
G1 X114.522 Y96.662 E12.29402
G1 X114.004 Y96.608 E12.32
G1 X113.5 Y96.476 E12.34599
G1 X112.913 Y96.207 E12.37821
G1 X107.717 Y93.207 E12.67754
G1 X107.287 Y92.913 E12.70353
G1 X106.907 Y92.556 E12.72954
G1 X106.586 Y92.146 E12.75552
G1 X106.331 Y91.691 E12.78154
G1 X106.149 Y91.203 E12.80753
G1 X106.044 Y90.692 E12.83355
G1 X106.018 Y90.172 E12.85953
G1 X106.072 Y89.653 E12.88556
G1 X106.205 Y89.149 E12.91157
G1 X106.473 Y88.563 E12.94371
G1 X108.764 Y84.594 E13.17235
G1 X108.737 Y84.461 E13.17912
G1 X108.633 Y83.416 E13.23151
G1 X108.634 Y82.727 E13.26589
G1 X108.738 Y81.729 E13.31595
G1 X108.763 Y81.609 E13.32206
G1 X107.371 Y79.198 E13.46096
G1 X107.371 Y80.384 E13.52013
G1 X107.331 Y80.904 E13.54615
G1 X107.212 Y81.411 E13.57213
G1 X107.017 Y81.894 E13.59811
G1 X106.751 Y82.342 E13.62411
G1 X106.419 Y82.744 E13.65012
G1 X106.029 Y83.09 E13.67613
G1 X105.591 Y83.373 E13.70215
G1 X105.116 Y83.586 E13.72812
G1 X104.613 Y83.723 E13.75413
G1 X103.971 Y83.784 E13.7863
G1 X99.386 Y83.784 E14.01505
G1 X99.258 Y83.897 E14.02357
G1 X98.446 Y84.48 E14.07344
G1 X97.856 Y84.82 E14.10741
G1 X96.945 Y85.229 E14.15723
G1 X96.804 Y85.276 E14.16464
G1 X94.514 Y89.244 E14.39321
G1 X94.219 Y89.674 E14.41923
G1 X93.863 Y90.054 E14.44521
G1 X93.452 Y90.375 E14.47122
G1 X92.997 Y90.629 E14.49722
G1 X92.509 Y90.811 E14.52321
G1 X91.999 Y90.917 E14.54919
G1 X91.478 Y90.943 E14.57522
G1 X90.96 Y90.889 E14.6012
G1 X90.456 Y90.757 E14.62719
G1 X89.869 Y90.488 E14.65941
G1 X84.673 Y87.488 E14.95874
G1 X84.243 Y87.194 E14.98473
G1 X83.863 Y86.837 E15.01074
G1 X83.542 Y86.427 E15.03672
G1 X83.287 Y85.972 E15.06274
G1 X83.105 Y85.484 E15.08873
G1 X83 Y84.973 E15.11475
G1 X82.974 Y84.453 E15.14073
G1 X83.028 Y83.934 E15.16676
G1 X83.161 Y83.43 E15.19277
G1 X83.429 Y82.844 E15.22492
G1 X85.72 Y78.875 E15.45355
G1 X85.693 Y78.742 E15.46032
G1 X85.589 Y77.697 E15.51271
G1 X85.59 Y77.008 E15.54709
G1 X85.694 Y76.009 E15.5972
G1 X85.719 Y75.89 E15.60326
G1 X83.429 Y71.924 E15.83174
G1 X83.203 Y71.454 E15.85776
G1 X83.053 Y70.955 E15.88376
G1 X82.98 Y70.439 E15.90976
G1 X82.987 Y69.918 E15.93575
G1 X83.073 Y69.404 E15.96175
G1 X83.237 Y68.909 E15.98777
G1 X83.475 Y68.446 E16.01374
G1 X83.781 Y68.024 E16.03975
G0 F2700 X84.247 Y68.107
G1 F1350 X84.619 Y67.79 E16.06413
G1 X84.873 Y67.626 E16.07922
G1 X90.069 Y64.626 E16.37855
G1 X90.511 Y64.417 E16.40294
G1 X90.982 Y64.282 E16.42739
G1 X91.468 Y64.226 E16.45179
G1 X91.957 Y64.249 E16.47622
G1 X92.436 Y64.352 E16.50066
G1 X92.891 Y64.531 E16.52505
G1 X93.312 Y64.782 E16.54951
G1 X93.686 Y65.098 E16.57394
G1 X94.003 Y65.47 E16.59832
G1 X94.167 Y65.724 E16.6134
G1 X96.531 Y69.82 E16.84935
G1 X96.78 Y69.903 E16.86244
G1 X97.689 Y70.311 E16.91215
G1 X98.211 Y70.611 E16.94219
G1 X99.024 Y71.195 E16.99213
G1 X99.238 Y71.384 E17.00637
G1 X103.971 Y71.384 E17.2425
G1 X104.459 Y71.424 E17.26693
G1 X104.934 Y71.543 E17.29136
G1 X105.383 Y71.737 E17.31576
G1 X105.795 Y72.002 E17.3402
G1 X106.158 Y72.33 E17.36461
G1 X106.463 Y72.713 E17.38904
G1 X106.701 Y73.141 E17.41347
G1 X106.867 Y73.601 E17.43787
G1 X106.956 Y74.082 E17.46227
G1 X106.963 Y74.22 E17.46917
G1 X106.975 Y74.2 E17.47033
G1 X107.291 Y73.826 E17.49476
G1 X107.663 Y73.509 E17.51914
G1 X107.917 Y73.345 E17.53422
G1 X113.113 Y70.345 E17.83356
G1 X113.555 Y70.136 E17.85795
G1 X114.026 Y70.001 E17.8824
G1 X114.512 Y69.945 E17.9068
G1 X115.001 Y69.968 E17.93123
G1 X115.48 Y70.071 E17.95567
G1 X115.935 Y70.25 E17.98006
G1 X116.356 Y70.501 E18.00452
G1 X116.73 Y70.817 E18.02894
G1 X117.047 Y71.189 E18.05333
G1 X117.211 Y71.443 E18.06841
G1 X119.576 Y75.54 E18.30442
G1 X119.822 Y75.622 E18.31736
G1 X120.731 Y76.029 E18.36705
G1 X121.255 Y76.33 E18.3972
G1 X122.068 Y76.914 E18.44714
G1 X122.282 Y77.103 E18.46138
G1 X127.015 Y77.103 E18.69751
G1 X127.503 Y77.143 E18.72194
G1 X127.978 Y77.262 E18.74637
G1 X128.427 Y77.456 E18.77077
G1 X128.839 Y77.721 E18.79521
G1 X129.202 Y78.049 E18.81962
G1 X129.507 Y78.432 E18.84405
G1 X129.745 Y78.86 E18.86848
G1 X129.911 Y79.32 E18.89288
G1 X130 Y79.801 E18.91728
G1 X130.015 Y80.103 E18.93237
G1 X130.015 Y86.103 E19.23171
G1 X129.975 Y86.591 E19.25614
G1 X129.856 Y87.066 E19.28057
G1 X129.662 Y87.515 E19.30497
G1 X129.397 Y87.927 E19.32941
G1 X129.069 Y88.29 E19.35382
G1 X128.686 Y88.595 E19.37824
G1 X128.258 Y88.833 E19.40267
G1 X127.798 Y88.999 E19.42707
G1 X127.317 Y89.088 E19.45148
G1 X127.015 Y89.103 E19.46656
G1 X122.282 Y89.103 E19.70269
G1 X122.069 Y89.291 E19.71687
G1 X121.257 Y89.874 E19.76674
G1 X120.736 Y90.174 E19.79673
G1 X119.825 Y90.583 E19.84655
G1 X119.576 Y90.666 E19.85965
G1 X117.211 Y94.763 E20.09566
G1 X116.933 Y95.165 E20.12004
G1 X116.593 Y95.517 E20.14446
G1 X116.2 Y95.809 E20.16888
G1 X115.765 Y96.033 E20.1933
G1 X115.299 Y96.184 E20.21773
G1 X114.815 Y96.256 E20.24215
G1 X114.325 Y96.249 E20.2666
G1 X113.843 Y96.163 E20.29102
G1 X113.382 Y95.999 E20.31543
G1 X113.113 Y95.861 E20.33052
G1 X107.917 Y92.861 E20.62985
G1 X107.514 Y92.583 E20.65428
G1 X107.163 Y92.242 E20.67869
G1 X106.871 Y91.849 E20.70312
G1 X106.647 Y91.414 E20.72753
G1 X106.496 Y90.948 E20.75197
G1 X106.424 Y90.464 E20.77638
G1 X106.431 Y89.975 E20.80078
G1 X106.518 Y89.493 E20.82522
G1 X106.681 Y89.032 E20.84961
G1 X106.819 Y88.763 E20.86469
G1 X109.185 Y84.665 E21.10077
G1 X109.135 Y84.421 E21.1132
G1 X109.031 Y83.376 E21.16559
G1 X109.032 Y82.768 E21.19592
G1 X109.136 Y81.77 E21.24598
G1 X109.184 Y81.539 E21.25776
G1 X106.971 Y77.706 E21.47857
G1 X106.971 Y80.384 E21.61217
G1 X106.931 Y80.872 E21.6366
G1 X106.812 Y81.347 E21.66103
G1 X106.618 Y81.796 E21.68543
G1 X106.353 Y82.208 E21.70987
G1 X106.025 Y82.571 E21.73428
G1 X105.642 Y82.876 E21.75871
G1 X105.214 Y83.114 E21.78314
G1 X104.754 Y83.28 E21.80754
G1 X104.273 Y83.369 E21.83194
G1 X103.971 Y83.384 E21.84703
G1 X99.238 Y83.384 E22.08316
G1 X99.025 Y83.572 E22.09733
G1 X98.213 Y84.155 E22.1472
G1 X97.692 Y84.455 E22.1772
G1 X96.781 Y84.864 E22.22702
G1 X96.532 Y84.947 E22.24011
G1 X94.167 Y89.044 E22.47612
G1 X93.889 Y89.446 E22.50051
G1 X93.549 Y89.798 E22.52492
G1 X93.156 Y90.09 E22.54935
G1 X92.721 Y90.314 E22.57376
G1 X92.255 Y90.465 E22.5982
G1 X91.771 Y90.537 E22.62261
G1 X91.281 Y90.53 E22.64706
G1 X90.799 Y90.444 E22.67149
G1 X90.338 Y90.28 E22.6959
G1 X90.069 Y90.142 E22.71098
G1 X84.873 Y87.142 E23.01032
G1 X84.47 Y86.864 E23.03474
G1 X84.119 Y86.523 E23.05916
G1 X83.827 Y86.13 E23.08358
G1 X83.603 Y85.695 E23.108
G1 X83.452 Y85.229 E23.13243
G1 X83.38 Y84.745 E23.15685
G1 X83.387 Y84.256 E23.18125
G1 X83.474 Y83.774 E23.20568
G1 X83.637 Y83.313 E23.23008
G1 X83.775 Y83.044 E23.24516
G1 X86.141 Y78.946 E23.48124
G1 X86.091 Y78.702 E23.49366
G1 X85.987 Y77.657 E23.54606
G1 X85.988 Y77.049 E23.57639
G1 X86.092 Y76.05 E23.6265
G1 X86.14 Y75.82 E23.63822
G1 X83.775 Y71.724 E23.87419
G1 X83.566 Y71.282 E23.89858
G1 X83.431 Y70.811 E23.92303
G1 X83.375 Y70.325 E23.94743
G1 X83.398 Y69.836 E23.97186
G1 X83.501 Y69.357 E23.9963
G1 X83.68 Y68.902 E24.02069
G1 X83.931 Y68.481 E24.04515
G1 X84.247 Y68.107 E24.06958
G0 F2700 X85.073 Y67.972
G1 F1350 X90.269 Y64.972 E24.36891
G1 X90.682 Y64.78 E24.39163
G1 X91.122 Y64.663 E24.41435
G1 X91.576 Y64.624 E24.43708
G1 X92.03 Y64.665 E24.45982
G1 X92.47 Y64.785 E24.48258
G1 X92.882 Y64.98 E24.50532
G1 X93.253 Y65.243 E24.52801
G1 X93.573 Y65.568 E24.55076
G1 X93.821 Y65.924 E24.57241
G1 X96.26 Y70.15 E24.81584
G1 X96.617 Y70.268 E24.83459
G1 X97.526 Y70.676 E24.8843
G1 X97.978 Y70.936 E24.91032
G1 X98.791 Y71.52 E24.96026
G1 X99.089 Y71.784 E24.98012
G1 X103.971 Y71.784 E25.22369
G1 X104.425 Y71.824 E25.24642
G1 X104.865 Y71.942 E25.26915
G1 X105.277 Y72.136 E25.29187
G1 X105.65 Y72.399 E25.31464
G1 X105.971 Y72.722 E25.33736
G1 X106.23 Y73.097 E25.3601
G1 X106.42 Y73.511 E25.38282
G1 X106.535 Y73.952 E25.40556
G1 X106.571 Y74.384 E25.42719
G1 X106.571 Y80.384 E25.72653
G1 X106.531 Y80.838 E25.74927
G1 X106.413 Y81.278 E25.77199
G1 X106.219 Y81.69 E25.79471
G1 X105.956 Y82.063 E25.81748
G1 X105.633 Y82.384 E25.8402
G1 X105.258 Y82.643 E25.86294
G1 X104.844 Y82.833 E25.88566
G1 X104.403 Y82.948 E25.9084
G1 X103.971 Y82.984 E25.93003
G1 X99.089 Y82.984 E26.17359
G1 X98.791 Y83.247 E26.19342
G1 X97.979 Y83.83 E26.24329
G1 X97.528 Y84.09 E26.26927
G1 X96.617 Y84.499 E26.31909
G1 X96.26 Y84.618 E26.33786
G1 X93.821 Y88.844 E26.58129
