;FLAVOR:Marlin
;TIME:1015
;Filament used: 0.314832m
;Layer height: 0.1
;Generated with Cura_SteamEngine master
M190 S60
M104 S207
M109 S207
G21 ;metric values
G90 ;absolute positioning
M82 ;set extruder to absolute mode
M107 ;start with the fan off
G28 X0 Y0 ;move X/Y to min endstops
G28 Z0 ;move Z to min endstops
G1 Z15.0 F9000 ;move the platform down 15mm
G92 E0 ;zero the extruded length
G1 F200 E3 ;extrude 3mm of feed stock
G92 E0 ;zero the extruded length again
G1 F9000
;Put printing message on LCD screen
M117 Printing...
;LAYER_COUNT:94
;LAYER:0
M107
G0 F2700 X102.101 Y93.299 Z0.3
G0 X101.734 Y93.729
;TYPE:SKIRT
G1 F1350 X102.101 Y93.299 E0.0282
G1 X102.525 Y92.924 E0.05644
G1 X102.997 Y92.614 E0.08462
G1 X103.508 Y92.373 E0.1128
G1 X104.049 Y92.207 E0.14104
G1 X104.355 Y92.148 E0.15658
G1 X108.604 Y91.506 E0.37097
G1 X109.168 Y91.461 E0.3992
G1 X109.732 Y91.496 E0.42739
G1 X110.286 Y91.611 E0.45562
G1 X110.818 Y91.802 E0.48382
G1 X111.318 Y92.066 E0.51203
G1 X111.569 Y92.237 E0.52718
G1 X111.821 Y92.422 E0.54278
G1 X112.252 Y92.788 E0.57099
G1 X112.723 Y93.341 E0.60723
G1 X114.979 Y96.541 E0.80256
G1 X118.322 Y100.84 E1.07426
G1 X122.5 Y105.597 E1.39012
G1 X122.843 Y106.047 E1.41835
G1 X123.118 Y106.541 E1.44656
G1 X123.324 Y107.079 E1.4753
G1 X123.428 Y107.423 E1.49323
G1 X123.553 Y107.975 E1.52147
G1 X123.599 Y108.538 E1.54965
G1 X123.565 Y109.103 E1.57789
G1 X123.452 Y109.656 E1.60605
G1 X123.326 Y110.033 E1.62588
G1 X121.799 Y113.952 E1.83572
G1 X121.557 Y114.463 E1.86393
G1 X121.246 Y114.935 E1.89213
G1 X120.871 Y115.358 E1.92033
G1 X120.44 Y115.724 E1.94854
G1 X119.833 Y116.092 E1.98395
G1 X119.678 Y116.168 E1.99256
G1 X119.154 Y116.38 E2.02077
G1 X118.361 Y116.551 E2.06124
G1 X111.504 Y117.317 E2.40546
G1 X106.11 Y118.219 E2.67831
G1 X102.592 Y118.951 E2.85758
G1 X102.032 Y119.027 E2.88577
G1 X101.258 Y119.001 E2.92441
G1 X101.044 Y118.973 E2.93518
G1 X100.49 Y118.86 E2.96339
G1 X99.958 Y118.671 E2.99155
G1 X99.457 Y118.408 E3.01978
G1 X98.999 Y118.077 E3.04798
G1 X98.453 Y117.523 E3.08678
G1 X95.747 Y114.178 E3.30143
G1 X95.424 Y113.714 E3.32964
G1 X95.169 Y113.21 E3.35782
G1 X94.987 Y112.674 E3.38606
G1 X94.883 Y112.119 E3.41423
G1 X94.858 Y111.554 E3.44245
G1 X94.904 Y111.051 E3.46765
G1 X94.963 Y110.669 E3.48693
G1 X95.088 Y110.118 E3.51512
G1 X95.304 Y109.561 E3.54492
G1 X96.094 Y107.9 E3.63669
G1 X98.25 Y102.902 E3.90825
G1 X100.128 Y97.766 E4.18108
G1 X100.98 Y95.104 E4.32052
G1 X101.19 Y94.58 E4.34869
G1 X101.571 Y93.95 E4.38542
G1 X101.734 Y93.729 E4.39912
G0 F2700 X102.056 Y93.966
G1 F1350 X102.405 Y93.559 E4.42587
G1 X102.811 Y93.209 E4.45261
G1 X103.265 Y92.923 E4.47938
G1 X103.756 Y92.708 E4.50612
G1 X104.415 Y92.543 E4.54001
G1 X108.664 Y91.901 E4.7544
G1 X109.199 Y91.861 E4.78117
G1 X109.734 Y91.9 E4.80793
G1 X110.257 Y92.019 E4.83469
G1 X110.756 Y92.214 E4.86142
G1 X111.332 Y92.559 E4.89492
G1 X111.584 Y92.744 E4.91051
G1 X111.992 Y93.093 E4.9373
G1 X112.396 Y93.572 E4.96856
G1 X114.651 Y96.771 E5.16383
G1 X118.011 Y101.092 E5.43691
G1 X122.2 Y105.861 E5.75359
G1 X122.523 Y106.29 E5.78038
G1 X122.778 Y106.761 E5.8071
G1 X122.941 Y107.195 E5.83023
G1 X123.045 Y107.539 E5.84816
G1 X123.161 Y108.063 E5.87493
G1 X123.199 Y108.598 E5.90169
G1 X123.157 Y109.132 E5.92841
G1 X122.953 Y109.888 E5.96748
G1 X121.426 Y113.807 E6.17732
G1 X121.195 Y114.291 E6.20407
G1 X120.894 Y114.735 E6.23083
G1 X120.531 Y115.129 E6.25756
G1 X120.113 Y115.465 E6.28432
G1 X119.657 Y115.732 E6.31068
G1 X119.502 Y115.808 E6.31929
G1 X119.004 Y116.008 E6.34607
G1 X118.317 Y116.154 E6.38111
G1 X111.448 Y116.921 E6.72593
G1 X106.016 Y117.829 E7.0007
G1 X102.511 Y118.559 E7.17932
G1 X101.979 Y118.629 E7.20609
G1 X101.31 Y118.605 E7.23948
G1 X101.096 Y118.577 E7.25025
G1 X100.571 Y118.468 E7.277
G1 X100.068 Y118.282 E7.30376
G1 X99.598 Y118.023 E7.33053
G1 X99.172 Y117.698 E7.35726
G1 X98.764 Y117.271 E7.38673
G1 X96.058 Y113.926 E7.60138
G1 X95.753 Y113.485 E7.62813
G1 X95.516 Y113.004 E7.65488
G1 X95.354 Y112.493 E7.68163
G1 X95.27 Y111.963 E7.7084
G1 X95.265 Y111.427 E7.73514
G1 X95.299 Y111.112 E7.75095
G1 X95.358 Y110.73 E7.77023
G1 X95.479 Y110.208 E7.79696
G1 X95.665 Y109.733 E7.82241
G1 X96.455 Y108.073 E7.91413
G1 X98.626 Y103.04 E8.18759
G1 X100.505 Y97.899 E8.46067
G1 X101.361 Y95.226 E8.6007
G1 X101.563 Y94.729 E8.62747
G1 X101.893 Y94.187 E8.65913
G1 X102.056 Y93.966 E8.67283
G0 F2700 X102.378 Y94.204
G1 F1350 X102.709 Y93.822 E8.69804
G1 X103.096 Y93.497 E8.72326
G1 X103.53 Y93.237 E8.7485
G1 X103.999 Y93.048 E8.77372
G1 X104.475 Y92.939 E8.79809
G1 X108.724 Y92.297 E9.01248
G1 X109.228 Y92.261 E9.03768
G1 X109.732 Y92.305 E9.06292
G1 X110.222 Y92.428 E9.08813
G1 X110.687 Y92.627 E9.11336
G1 X111.096 Y92.881 E9.13738
G1 X111.348 Y93.066 E9.15298
G1 X111.73 Y93.397 E9.1782
G1 X112.069 Y93.802 E9.20455
G1 X114.338 Y97.021 E9.40103
G1 X117.701 Y101.346 E9.67436
G1 X121.899 Y106.125 E9.99171
G1 X122.202 Y106.53 E10.01694
G1 X122.437 Y106.978 E10.04218
G1 X122.558 Y107.311 E10.05986
G1 X122.662 Y107.655 E10.07779
G1 X122.77 Y108.149 E10.10302
G1 X122.798 Y108.654 E10.12825
G1 X122.747 Y109.157 E10.15347
G1 X122.581 Y109.743 E10.18386
G1 X121.054 Y113.662 E10.3937
G1 X120.833 Y114.117 E10.41893
G1 X120.544 Y114.532 E10.44416
G1 X120.194 Y114.896 E10.46936
G1 X119.79 Y115.2 E10.49458
G1 X119.481 Y115.373 E10.51225
G1 X119.326 Y115.449 E10.52086
G1 X118.856 Y115.635 E10.54608
G1 X118.272 Y115.756 E10.57583
G1 X111.394 Y116.524 E10.92111
G1 X105.967 Y117.432 E11.19563
G1 X102.429 Y118.168 E11.37592
G1 X101.928 Y118.231 E11.40111
G1 X101.362 Y118.208 E11.42937
G1 X101.148 Y118.18 E11.44014
G1 X100.653 Y118.075 E11.46538
G1 X100.181 Y117.893 E11.49062
G1 X99.744 Y117.64 E11.51582
G1 X99.352 Y117.32 E11.54106
G1 X99.075 Y117.02 E11.56143
G1 X96.369 Y113.675 E11.77608
G1 X96.083 Y113.258 E11.80131
G1 X95.867 Y112.801 E11.82653
G1 X95.724 Y112.316 E11.85176
G1 X95.661 Y111.814 E11.877
G1 X95.694 Y111.174 E11.90897
G1 X95.753 Y110.792 E11.92825
G1 X95.87 Y110.3 E11.95348
G1 X96.027 Y109.905 E11.97469
G1 X96.821 Y108.236 E12.0669
G1 X98.994 Y103.2 E12.34054
G1 X100.883 Y98.032 E12.61506
G1 X101.742 Y95.348 E12.75565
G1 X101.934 Y94.881 E12.78084
G1 X102.215 Y94.425 E12.80756
G1 X102.378 Y94.204 E12.82127
G0 F2700 X105.065 Y96.272
;TYPE:SUPPORT
G1 F1350 X107.091 Y95.964 E12.9235
G1 X109.157 Y95.661 E13.02768
G1 X109.273 Y95.748 E13.03491
G1 X110.039 Y100.807 E13.29019
G1 X109.249 Y100.666 E13.33022
G1 X109.062 Y100.654 E13.33957
G1 X108.163 Y100.666 E13.38443
G1 X107.473 Y100.782 E13.41933
G1 X107.473 Y100.758 E13.42053
G1 X106.92 Y100.922 E13.44931
G1 X106.25 Y101.177 E13.48507
G1 X106.167 Y101.216 E13.48965
G1 X105.753 Y101.458 E13.51357
G1 X104.984 Y96.382 E13.7697
G1 X105.065 Y96.272 E13.77652
G0 F2700 X106.64 Y96.194
G1 F1350 X106.64 Y100.857 E14.00916
G0 F2700 X105.488 Y98.642
G1 F1350 X109.55 Y98.642 E14.21181
G0 F2700 X109.306 Y97.036
G1 F1350 X109.306 Y100.513 E14.38528
G0 F2700 X109.146 Y95.976
G1 F1350 X108.109 Y95.976 E14.43702
G1 F1500 E7.93702
G0 F2700 X108.894 Y100.889
G0 X108.906 Y100.968
G0 X109.43 Y104.241
G0 X109.443 Y104.32
G0 X109.481 Y104.552
G1 F1500 E14.43702
G1 F1350 X110.813 Y106.228 E14.54382
G1 X110.039 Y108.198 E14.64942
G1 X109.576 Y108.278 E14.67286
G1 X107.922 Y108.529 E14.75632
G1 X106.594 Y106.865 E14.86254
G1 X107.377 Y104.87 E14.96946
G1 X109.481 Y104.552 E15.07562
G0 F2700 X109.306 Y104.74
G1 F1350 X109.306 Y108.157 E15.2461
G0 F2700 X110.479 Y106.64
G1 F1350 X106.854 Y106.64 E15.42695
G1 F1500 E8.92695
G0 F2700 X106.314 Y106.885
G0 X106.242 Y106.918
G0 X103.378 Y108.223
G0 X103.305 Y108.257
G0 X103.088 Y108.357
G1 F1500 E15.42695
G1 F1350 X103.15 Y108.527 E15.43598
G1 X103.466 Y109.255 E15.47557
G1 X103.51 Y109.338 E15.48026
G1 X104.049 Y110.164 E15.52947
G1 X104.11 Y110.245 E15.53452
G1 X104.537 Y110.691 E15.56533
G1 X104.888 Y111.038 E15.58995
G1 X104.955 Y111.094 E15.59431
G1 X105.638 Y111.582 E15.63619
G1 X105.786 Y111.661 E15.64456
G1 X101.798 Y114.843 E15.89909
G1 X101.644 Y114.825 E15.90683
G1 X99.863 Y112.624 E16.04808
G1 X99.054 Y111.604 E16.11303
G1 X99.073 Y111.433 E16.12162
G1 X103.062 Y108.242 E16.37647
G1 X103.088 Y108.357 E16.38235
G0 F2700 X103.315 Y109.306
G1 F1350 X101.991 Y109.306 E16.44841
G0 F2700 X101.308 Y109.852
G1 F1350 X101.308 Y114.155 E16.66309
G0 F2700 X101.698 Y114.638
G1 F1350 X101.799 Y114.638 E16.66812
G0 F2700 X103.974 Y112.903
G1 F1350 X103.974 Y110.331 E16.79644
G0 F2700 X105.139 Y111.972
G1 F1350 X99.55 Y111.972 E17.07528
G1 F1500 E10.57528
G0 F2700 X108.72 Y112.203
G0 X109.738 Y112.109
G0 X110.731 Y111.829
G0 X111.658 Y111.372
G0 X113.338 Y110.192
G1 F1500 E17.07528
G1 F1350 X113.742 Y109.596 E17.1112
G1 X113.945 Y109.245 E17.13143
G1 X114.21 Y108.634 E17.16466
G1 X114.318 Y108.354 E17.17963
G1 X114.407 Y108.005 E17.1976
G1 X114.542 Y107.385 E17.22925
G1 X114.553 Y107.295 E17.23378
G1 X114.59 Y106.516 E17.27269
G1 X119.357 Y108.386 E17.52816
G1 X119.416 Y108.521 E17.53551
G1 X119.27 Y108.917 E17.55656
G1 X117.921 Y112.365 E17.74128
G1 X117.758 Y112.435 E17.75013
G1 X112.985 Y110.564 E18.0059
G1 X113.338 Y110.192 E18.03149
G0 F2700 X114.093 Y109.306
G1 F1350 X118.946 Y109.306 E18.2736
G0 F2700 X117.304 Y107.753
G1 F1350 X117.304 Y112.085 E18.48973
G0 F2700 X117.014 Y111.972
G1 F1350 X117.904 Y111.972 E18.53413
G0 F2700 X114.638 Y111.04
G1 F1350 X114.638 Y107.694 E18.70106
G1 F1500 E12.20106
G0 F2700 X114.253 Y107.609
G0 X112.998 Y107.337
G0 X112.855 Y107.617
G0 X112.952 Y107.639
;TYPE:WALL-INNER
G1 F1500 E18.70106
G1 F1350 X112.889 Y107.889 E18.71392
G1 X112.613 Y108.552 E18.74975
G1 X112.486 Y108.776 E18.7626
G1 X112.177 Y109.237 E18.79029
G1 X111.581 Y109.865 E18.83348
G1 X110.975 Y110.305 E18.87084
G1 X110.254 Y110.655 E18.91083
G1 X109.481 Y110.868 E18.95083
G1 X108.678 Y110.937 E18.99104
G1 X107.943 Y110.872 E19.02785
G1 X107.168 Y110.663 E19.0679
G1 X106.438 Y110.311 E19.10833
G1 X105.886 Y109.916 E19.1422
G1 X105.603 Y109.635 E19.16209
G1 X105.265 Y109.283 E19.18644
G1 X104.81 Y108.585 E19.22801
G1 X104.525 Y107.915 E19.26433
G1 X104.345 Y107.125 E19.30476
G1 X104.312 Y106.313 E19.3453
G1 X104.41 Y105.583 E19.38205
G1 X104.656 Y104.819 E19.42209
G1 X105.037 Y104.112 E19.46216
G1 X105.531 Y103.496 E19.50155
G1 X106.139 Y102.971 E19.54163
G1 X106.85 Y102.554 E19.58275
G1 X107.394 Y102.346 E19.61181
G1 X107.613 Y102.281 E19.62321
G1 X108.109 Y102.191 E19.64836
G1 X108.316 Y102.16 E19.6588
G1 X109.064 Y102.156 E19.69612
G1 X109.856 Y102.299 E19.73627
G1 X110.606 Y102.577 E19.77617
G1 X111.299 Y102.992 E19.81647
G1 X111.894 Y103.515 E19.856
G1 X112.357 Y104.096 E19.89306
G1 X112.742 Y104.806 E19.93335
G1 X112.991 Y105.563 E19.97311
G1 X113.095 Y106.358 E20.01311
G1 X113.058 Y107.15 E20.05267
G1 X112.952 Y107.639 E20.07763
G0 F2700 X112.855 Y107.617
G0 X112.626 Y105.95
G0 X112.528 Y105.964
G1 F1350 X110.116 Y102.94 E20.27061
G1 X106.291 Y103.516 E20.46359
G1 X104.878 Y107.117 E20.65659
G1 X107.29 Y110.142 E20.84961
G1 X111.115 Y109.565 E21.04259
G1 X112.528 Y105.964 E21.23558
G0 F2700 X112.071 Y106.033
;TYPE:WALL-OUTER
G1 F1350 X109.947 Y103.37 E21.40553
G1 X106.579 Y103.877 E21.57545
G1 X105.335 Y107.048 E21.74539
G1 X107.459 Y109.712 E21.91537
G1 X110.827 Y109.204 E22.0853
G1 X112.071 Y106.033 E22.25524
G0 F2700 X111.947 Y105.877
G0 X112.338 Y105.566
G0 X112.894 Y105.585
G0 X113.383 Y105.476
G1 F1350 X113.497 Y106.341 E22.29877
G1 X113.457 Y107.2 E22.34167
G1 X113.34 Y107.737 E22.36909
G1 X113.27 Y108.013 E22.3833
G1 X113.182 Y108.239 E22.3954
G1 X112.973 Y108.728 E22.42193
G1 X112.826 Y108.987 E22.43679
G1 X112.491 Y109.486 E22.46677
G1 X111.843 Y110.169 E22.51374
G1 X111.181 Y110.65 E22.55457
G1 X110.396 Y111.031 E22.5981
G1 X109.551 Y111.264 E22.64183
G1 X108.683 Y111.339 E22.6853
G1 X107.871 Y111.267 E22.72597
G1 X107.027 Y111.039 E22.76958
G1 X106.233 Y110.656 E22.81356
G1 X105.629 Y110.224 E22.85061
G1 X105.314 Y109.912 E22.87273
G1 X104.951 Y109.533 E22.89891
G1 X104.457 Y108.777 E22.94397
G1 X104.189 Y108.157 E22.97767
G1 X104.141 Y108.03 E22.98444
G1 X103.946 Y107.176 E23.02814
G1 X103.911 Y106.299 E23.07193
G1 X104.019 Y105.492 E23.11255
G1 X104.286 Y104.662 E23.15605
G1 X104.702 Y103.891 E23.19976
G1 X105.245 Y103.214 E23.24305
G1 X105.901 Y102.647 E23.28631
G1 X106.68 Y102.19 E23.33137
G1 X107.264 Y101.967 E23.36256
G1 X107.521 Y101.891 E23.37593
G1 X108.038 Y101.798 E23.40214
G1 X108.287 Y101.76 E23.4147
G1 X109.062 Y101.754 E23.45337
G1 X109.126 Y101.76 E23.45658
G1 X109.96 Y101.911 E23.49886
G1 X110.781 Y102.215 E23.54254
G1 X111.534 Y102.666 E23.58633
G1 X112.186 Y103.24 E23.62967
G1 X112.694 Y103.877 E23.67032
G1 X113.11 Y104.645 E23.71389
G1 X113.383 Y105.476 E23.75753
G0 F2700 X113.409 Y105.674
G0 X112.913 Y105.737
G0 X112.312 Y104.393
;TYPE:SKIN
G1 F1350 X110.86 Y102.94 E23.86001
G1 X110.79 Y102.87
G0 F2700 X110.547 Y103.193
G1 F1350 X112.745 Y105.391 E24.01509
G1 X112.815 Y105.461
G0 F2700 X112.803 Y106.015
G1 F1350 X112.734 Y106.511 E24.03196
G1 X112.636 Y106.979 E24.05951
G1 X112.504 Y107.413 E24.0934
G0 F2700 X112.091 Y107.565
G1 F1350 X112.61 Y108.085 E24.13005
G0 F2700 X112.444 Y108.484
G1 F1350 X111.931 Y107.971 E24.16625
G0 F2700 X112 Y108.606
G1 F1350 X111.803 Y108.975 E24.19588
G1 X111.586 Y109.323 E24.2187
G1 X111.366 Y109.669 E24.23322
G1 X111.01 Y109.879 E24.24549
G1 X110.593 Y110.027 E24.26492
G1 X110.157 Y110.157 E24.29363
G0 F2700 X109.977 Y110.543
G1 F1350 X109.434 Y110 E24.33194
G0 F2700 X108.943 Y110.074
G1 F1350 X109.534 Y110.665 E24.37364
G1 X109.604 Y110.735
G0 F2700 X109.028 Y110.725
G1 F1350 X108.451 Y110.148 E24.41435
G1 X108.381 Y110.078
G0 F2700 X108.216 Y110.479
G1 F1350 X107.647 Y110.475 E24.44501
G0 F2700 X106.976 Y110.37
G1 F1350 X104.868 Y108.262 E24.59374
G1 X104.798 Y108.192
G0 F2700 X104.598 Y107.426
G1 F1350 X106.066 Y108.895 E24.69735
G1 X106.136 Y108.965
G0 F2700 X104.733 Y106.995
G0 X104.621 Y106.884
G1 F1350 X104.699 Y106.396 E24.7188
G1 X104.813 Y105.944 E24.74921
G0 F2700 X105.211 Y105.776
G1 F1350 X104.7 Y105.266 E24.78523
G0 F2700 X104.846 Y104.846
G1 F1350 X105.37 Y105.37 E24.8222
G0 F2700 X105.53 Y104.964
G1 F1350 X105.043 Y104.477 E24.85656
G0 F2700 X105.472 Y104.34
G1 F1350 X105.677 Y103.98 E24.88384
G1 X105.894 Y103.631 E24.90393
G1 X106.131 Y103.302 E24.91531
G1 X106.541 Y103.147 E24.92761
G1 X106.966 Y103.006 E24.95051
G1 X107.404 Y102.878 E24.98187
G0 F2700 X107.572 Y102.481
G1 F1350 X108.145 Y103.054 E25.0223
G1 X108.215 Y103.124
G0 F2700 X108.637 Y102.98
G1 F1350 X108.042 Y102.385 E25.06428
G1 X107.972 Y102.315
G0 F2700 X108.561 Y102.338
G1 F1350 X109.128 Y102.905 E25.10429
G1 X109.198 Y102.975
G0 F2700 X109.38 Y102.592
G1 F1350 X109.976 Y102.622 E25.13078
G0 F2700 X110.161 Y102.838
G1 F1500 E18.63078
G0 F2700 X108.317 Y102.179
G0 X108.124 Y100.91
G0 X105.065 Y96.273
;TIME_ELAPSED:29.300343
;LAYER:1
M140 S60
M106 S255
G0 F4050 X105.065 Y96.273 Z0.4
;TYPE:SUPPORT
G1 F1500 E25.13078
G1 F2025 X104.984 Y96.382 E25.13304
G1 X105.754 Y101.457 E25.2184
G1 X106.166 Y101.216 E25.22634
G1 X106.186 Y101.207 E25.22671
G1 X106.201 Y101.199 E25.22699
G1 X106.28 Y101.162 E25.22844
G1 X106.64 Y101.024 E25.23485
G1 X106.64 Y96.03 E25.3179
G1 X107.091 Y95.964 E25.32548
G1 X109.157 Y95.661 E25.36021
G1 X109.272 Y95.748 E25.36261
G1 X109.306 Y95.973 E25.36639
G1 X110.038 Y100.806 E25.44768
G1 X109.306 Y100.674 E25.46005
G1 X109.306 Y95.973 E25.53823
G0 F4050 X106.64 Y96.03
G1 F2025 X106.515 Y96.049 E25.54033
G1 X105.065 Y96.273 E25.56473
G1 F1500 E19.06473
G0 F4050 X106.431 Y101.355
G0 X106.451 Y101.432
G0 X107.294 Y104.564
G0 X107.314 Y104.641
G0 X107.377 Y104.87
G1 F1500 E25.56473
G1 F2025 X109.306 Y104.578 E25.59717
G1 X109.481 Y104.552 E25.60012
G1 X110.813 Y106.228 E25.63572
G1 X110.039 Y108.198 E25.67092
G1 X109.601 Y108.274 E25.67831
G0 F4050 X109.599 Y108.274
G1 F2025 X109.306 Y108.319 E25.68324
G1 X109.306 Y104.578 E25.74545
G0 F4050 X107.377 Y104.87
G1 F2025 X106.64 Y106.747 E25.77899
G1 X106.64 Y106.922 E25.7819
G1 X106.594 Y106.865 E25.78312
G1 X106.64 Y106.747 E25.78522
G0 F4050 X109.599 Y108.274
G1 F2025 X109.601 Y108.274 E25.78526
G1 F1500 E19.28526
