;FLAVOR:Marlin
;TIME:3600
;Filament used: 3.25613m
;Layer height: 0.2
;Generated with Cura_SteamEngine master
M190 S60
M104 S205
M109 S205
G21 ;metric values
G90 ;absolute positioning
M82 ;set extruder to absolute mode
M107 ;start with the fan off
G28 X0 Y0 ;move X/Y to min endstops
G28 Z0 ;move Z to min endstops
G1 Z15.0 F9000 ;move the platform down 15mm
G92 E0 ;zero the extruded length
G1 F200 E3 ;extrude 3mm of feed stock
G92 E0 ;zero the extruded length again
G1 F9000
;Put printing message on LCD screen
M117 Printing...
;LAYER_COUNT:100
;LAYER:0
M107
G0 F3000 X88.185 Y87.102 Z0.3
G0 X88.653 Y86.706
;TYPE:SKIRT
G1 F1500 X89.239 Y86.249 E0.03708
G1 X89.886 Y85.796 E0.07648
G1 X90.575 Y85.41 E0.11588
G1 X91.299 Y85.096 E0.15525
G1 X92.052 Y84.857 E0.19467
G1 X92.825 Y84.695 E0.23407
G1 X93.61 Y84.612 E0.27345
G1 X94.036 Y84.6 E0.29471
G1 X94.364 Y84.6 E0.31108
G1 X95.153 Y84.64 E0.35049
G1 X95.933 Y84.759 E0.38986
G1 X96.698 Y84.957 E0.42928
G1 X97.438 Y85.231 E0.46865
G1 X98.147 Y85.579 E0.50805
G1 X98.818 Y85.997 E0.54749
G1 X99.442 Y86.48 E0.58686
G1 X99.882 Y86.887 E0.61676
G1 X100.668 Y87.673 E0.67222
G1 X100.801 Y87.774 E0.68055
G1 X101.38 Y88.311 E0.71995
G1 X101.444 Y88.383 E0.72475
G1 X108.973 Y80.854 E1.25597
G1 X109.559 Y80.324 E1.29539
G1 X110.195 Y79.857 E1.33475
G1 X110.875 Y79.456 E1.37414
G1 X111.593 Y79.126 E1.41356
G1 X112.34 Y78.871 E1.45294
G1 X113.109 Y78.692 E1.49233
G1 X113.893 Y78.592 E1.53176
G1 X114.488 Y78.569 E1.56147
G1 X114.654 Y78.569 E1.56975
G1 X115.443 Y78.609 E1.60916
G1 X116.223 Y78.728 E1.64853
G1 X116.988 Y78.926 E1.68795
G1 X117.728 Y79.2 E1.72732
G1 X118.437 Y79.548 E1.76672
G1 X119.108 Y79.966 E1.80616
G1 X119.732 Y80.449 E1.84553
G1 X120.169 Y80.854 E1.87526
G1 X141.217 Y101.902 E3.36031
G1 X141.747 Y102.488 E3.39973
G1 X142.214 Y103.124 E3.43909
G1 X142.615 Y103.804 E3.47848
G1 X142.945 Y104.522 E3.5179
G1 X143.2 Y105.269 E3.55728
G1 X143.379 Y106.038 E3.59667
G1 X143.479 Y106.822 E3.6361
G1 X143.502 Y107.417 E3.66581
G1 X143.502 Y107.583 E3.67409
G1 X143.462 Y108.372 E3.7135
G1 X143.343 Y109.152 E3.75287
G1 X143.145 Y109.917 E3.79229
G1 X142.871 Y110.657 E3.83166
G1 X142.523 Y111.366 E3.87106
G1 X142.105 Y112.037 E3.9105
G1 X141.622 Y112.661 E3.94987
G1 X141.217 Y113.098 E3.9796
G1 X113.098 Y141.217 E5.96355
G1 X112.512 Y141.747 E6.00296
G1 X111.876 Y142.214 E6.04233
G1 X111.196 Y142.615 E6.08171
G1 X110.478 Y142.945 E6.12114
G1 X109.731 Y143.2 E6.16052
G1 X108.962 Y143.379 E6.19991
G1 X108.178 Y143.479 E6.23934
G1 X107.583 Y143.502 E6.26905
G1 X107.417 Y143.502 E6.27733
G1 X106.628 Y143.462 E6.31674
G1 X105.848 Y143.343 E6.35611
G1 X105.083 Y143.145 E6.39553
G1 X104.343 Y142.871 E6.4349
G1 X103.634 Y142.523 E6.4743
G1 X102.963 Y142.105 E6.51374
G1 X102.339 Y141.622 E6.55311
G1 X101.902 Y141.217 E6.58284
G1 X80.854 Y120.169 E8.06789
G1 X80.324 Y119.583 E8.10731
G1 X79.857 Y118.947 E8.14667
G1 X79.456 Y118.267 E8.18606
G1 X79.126 Y117.549 E8.22548
G1 X78.871 Y116.802 E8.26486
G1 X78.692 Y116.033 E8.30425
G1 X78.592 Y115.249 E8.34368
G1 X78.569 Y114.654 E8.37339
G1 X78.569 Y114.488 E8.38167
G1 X78.609 Y113.699 E8.42108
G1 X78.728 Y112.919 E8.46045
G1 X78.926 Y112.154 E8.49987
G1 X79.2 Y111.414 E8.53924
G1 X79.548 Y110.705 E8.57864
G1 X79.966 Y110.034 E8.61808
G1 X80.449 Y109.41 E8.65745
G1 X80.854 Y108.973 E8.68718
G1 X88.42 Y101.407 E9.221
G1 X88.277 Y101.27 E9.23088
G1 X86.886 Y99.88 E9.32899
G1 X86.356 Y99.295 E9.36837
G1 X85.888 Y98.658 E9.4078
G1 X85.487 Y97.978 E9.44719
G1 X85.157 Y97.261 E9.48657
G1 X84.901 Y96.514 E9.52596
G1 X84.722 Y95.744 E9.5654
G1 X84.622 Y94.961 E9.60478
G1 X84.599 Y94.363 E9.63464
G1 X84.599 Y94.035 E9.651
G1 X84.639 Y93.246 E9.69042
G1 X84.758 Y92.466 E9.72978
G1 X84.956 Y91.701 E9.76921
G1 X85.23 Y90.961 E9.80857
G1 X85.578 Y90.252 E9.84798
G1 X85.996 Y89.581 E9.88742
G1 X86.579 Y88.842 E9.93438
G1 X87.63 Y87.664 E10.01314
G1 X88.185 Y87.102 E10.05255
G1 X88.653 Y86.706 E10.08313
G0 F3000 X88.899 Y87.022
G1 F1500 X89.485 Y86.565 E10.12021
G1 X90.116 Y86.124 E10.15861
G1 X90.788 Y85.751 E10.19696
G1 X91.496 Y85.45 E10.23534
G1 X92.231 Y85.223 E10.27372
G1 X92.986 Y85.075 E10.3121
G1 X94.036 Y85 E10.36462
G1 X94.364 Y85 E10.38099
G1 X95.132 Y85.04 E10.41935
G1 X95.892 Y85.159 E10.45773
G1 X96.635 Y85.357 E10.49609
G1 X97.354 Y85.631 E10.53448
G1 X98.04 Y85.978 E10.57284
G1 X98.687 Y86.394 E10.61121
G1 X99.287 Y86.875 E10.64958
G1 X99.599 Y87.169 E10.67096
G1 X100.412 Y87.983 E10.72836
G1 X100.59 Y88.119 E10.73954
G1 X101.149 Y88.648 E10.77793
G1 X101.423 Y88.968 E10.79895
G1 X109.255 Y81.136 E11.35154
G1 X109.827 Y80.622 E11.38991
G1 X110.449 Y80.169 E11.4283
G1 X111.114 Y79.783 E11.46666
G1 X111.816 Y79.468 E11.50504
G1 X112.547 Y79.228 E11.54343
G1 X113.298 Y79.065 E11.58177
G1 X114.063 Y78.981 E11.62016
G1 X114.488 Y78.969 E11.64138
G1 X114.654 Y78.969 E11.64966
G1 X115.422 Y79.009 E11.68803
G1 X116.182 Y79.128 E11.7264
G1 X116.925 Y79.326 E11.76477
G1 X117.644 Y79.6 E11.80315
G1 X118.33 Y79.947 E11.84151
G1 X118.977 Y80.363 E11.87988
G1 X119.577 Y80.844 E11.91825
G1 X119.887 Y81.136 E11.9395
G1 X140.935 Y102.184 E13.42455
G1 X141.449 Y102.756 E13.46291
G1 X141.902 Y103.378 E13.5013
G1 X142.288 Y104.043 E13.53966
G1 X142.603 Y104.745 E13.57805
G1 X142.843 Y105.476 E13.61643
G1 X143.006 Y106.227 E13.65477
G1 X143.09 Y106.992 E13.69317
G1 X143.102 Y107.417 E13.71438
G1 X143.102 Y107.583 E13.72266
G1 X143.062 Y108.351 E13.76103
G1 X142.943 Y109.111 E13.79941
G1 X142.745 Y109.854 E13.83777
G1 X142.471 Y110.573 E13.87616
G1 X142.124 Y111.259 E13.91451
G1 X141.708 Y111.906 E13.95289
G1 X141.227 Y112.506 E13.99125
G1 X140.935 Y112.816 E14.0125
G1 X112.816 Y140.935 E15.99645
G1 X112.244 Y141.449 E16.03481
G1 X111.622 Y141.902 E16.0732
G1 X110.957 Y142.288 E16.11156
G1 X110.255 Y142.603 E16.14995
G1 X109.524 Y142.843 E16.18834
G1 X108.773 Y143.006 E16.22668
G1 X108.008 Y143.09 E16.26507
G1 X107.583 Y143.102 E16.28628
G1 X107.417 Y143.102 E16.29457
G1 X106.649 Y143.062 E16.33293
G1 X105.889 Y142.943 E16.37131
G1 X105.146 Y142.745 E16.40967
G1 X104.427 Y142.471 E16.44806
G1 X103.741 Y142.124 E16.48642
G1 X103.094 Y141.708 E16.52479
G1 X102.494 Y141.227 E16.56316
G1 X102.184 Y140.935 E16.5844
G1 X81.136 Y119.887 E18.06945
G1 X80.622 Y119.315 E18.10782
G1 X80.169 Y118.693 E18.14621
G1 X79.783 Y118.028 E18.18457
G1 X79.468 Y117.326 E18.22296
G1 X79.228 Y116.595 E18.26134
G1 X79.065 Y115.844 E18.29968
G1 X78.981 Y115.079 E18.33808
G1 X78.969 Y114.654 E18.35929
G1 X78.969 Y114.488 E18.36757
G1 X79.009 Y113.72 E18.40594
G1 X79.128 Y112.96 E18.44432
G1 X79.326 Y112.217 E18.48268
G1 X79.6 Y111.498 E18.52107
G1 X79.947 Y110.812 E18.55942
G1 X80.363 Y110.165 E18.5978
G1 X80.844 Y109.565 E18.63616
G1 X81.136 Y109.255 E18.65741
G1 X89.006 Y101.385 E19.21268
G1 X88.559 Y100.987 E19.24254
G1 X87.168 Y99.597 E19.34065
G1 X86.653 Y99.026 E19.37901
G1 X86.2 Y98.405 E19.41736
G1 X85.814 Y97.739 E19.45576
G1 X85.499 Y97.038 E19.4941
G1 X85.259 Y96.307 E19.53249
G1 X85.096 Y95.555 E19.57088
G1 X85.011 Y94.791 E19.60923
G1 X84.999 Y94.363 E19.63059
G1 X84.999 Y94.035 E19.64695
G1 X85.039 Y93.267 E19.68532
G1 X85.158 Y92.507 E19.7237
G1 X85.356 Y91.764 E19.76206
G1 X85.63 Y91.045 E19.80045
G1 X85.977 Y90.359 E19.8388
G1 X86.393 Y89.712 E19.87718
G1 X86.877 Y89.109 E19.91576
G1 X87.928 Y87.931 E19.99452
G1 X88.469 Y87.384 E20.0329
G1 X88.899 Y87.022 E20.06094
G0 F3000 X89.145 Y87.337
G1 F1500 X89.731 Y86.88 E20.09802
G1 X90.345 Y86.452 E20.13536
G1 X91.001 Y86.092 E20.17269
G1 X91.691 Y85.804 E20.20999
G1 X92.408 Y85.592 E20.24729
G1 X93.144 Y85.457 E20.28463
G1 X94.036 Y85.4 E20.32922
G1 X94.364 Y85.4 E20.34558
G1 X95.111 Y85.44 E20.3829
G1 X95.849 Y85.559 E20.4202
G1 X96.571 Y85.757 E20.45755
G1 X97.267 Y86.03 E20.49485
G1 X97.93 Y86.377 E20.53218
G1 X98.553 Y86.792 E20.56953
G1 X99.316 Y87.452 E20.61986
G1 X100.153 Y88.29 E20.67895
G1 X100.377 Y88.464 E20.6931
G1 X100.916 Y88.983 E20.73043
G1 X101.395 Y89.558 E20.76777
G1 X101.397 Y89.56 E20.76791
G1 X109.538 Y81.419 E21.3423
G1 X110.095 Y80.919 E21.37964
G1 X110.701 Y80.482 E21.41692
G1 X111.351 Y80.111 E21.45426
G1 X112.037 Y79.812 E21.49159
G1 X112.751 Y79.588 E21.52893
G1 X113.484 Y79.441 E21.56622
G1 X114.488 Y79.369 E21.61644
G1 X114.654 Y79.369 E21.62472
G1 X115.401 Y79.409 E21.66204
G1 X116.139 Y79.528 E21.69934
G1 X116.861 Y79.726 E21.73669
G1 X117.557 Y79.999 E21.77399
G1 X118.22 Y80.346 E21.81132
G1 X118.843 Y80.761 E21.84867
G1 X119.604 Y81.419 E21.89886
G1 X140.652 Y102.467 E23.38391
G1 X141.152 Y103.024 E23.42125
G1 X141.589 Y103.63 E23.45853
G1 X141.96 Y104.28 E23.49587
G1 X142.259 Y104.966 E23.5332
G1 X142.483 Y105.68 E23.57053
G1 X142.63 Y106.413 E23.60783
G1 X142.702 Y107.417 E23.65805
G1 X142.702 Y107.583 E23.66633
G1 X142.662 Y108.33 E23.70365
G1 X142.543 Y109.068 E23.74095
G1 X142.345 Y109.79 E23.7783
G1 X142.072 Y110.486 E23.8156
G1 X141.725 Y111.149 E23.85293
G1 X141.31 Y111.772 E23.89028
G1 X140.652 Y112.533 E23.94047
G1 X112.533 Y140.652 E25.92442
G1 X111.976 Y141.152 E25.96176
G1 X111.37 Y141.589 E25.99903
G1 X110.72 Y141.96 E26.03637
G1 X110.034 Y142.259 E26.07371
G1 X109.32 Y142.483 E26.11104
G1 X108.587 Y142.63 E26.14834
G1 X107.583 Y142.702 E26.19856
G1 X107.417 Y142.702 E26.20684
G1 X106.67 Y142.662 E26.24416
G1 X105.932 Y142.543 E26.28145
G1 X105.21 Y142.345 E26.3188
G1 X104.514 Y142.072 E26.3561
G1 X103.851 Y141.725 E26.39344
G1 X103.228 Y141.31 E26.43078
G1 X102.467 Y140.652 E26.48097
G1 X81.419 Y119.604 E27.96602
G1 X80.919 Y119.047 E28.00337
G1 X80.482 Y118.441 E28.04064
G1 X80.111 Y117.791 E28.07798
G1 X79.812 Y117.105 E28.11531
G1 X79.588 Y116.391 E28.15265
G1 X79.441 Y115.658 E28.18995
G1 X79.369 Y114.654 E28.24016
G1 X79.369 Y114.488 E28.24845
G1 X79.409 Y113.741 E28.28577
G1 X79.528 Y113.003 E28.32306
G1 X79.726 Y112.281 E28.36041
G1 X79.999 Y111.585 E28.39771
G1 X80.346 Y110.922 E28.43505
G1 X80.761 Y110.299 E28.47239
G1 X81.419 Y109.538 E28.52258
G1 X89.605 Y101.352 E29.10015
G1 X89.22 Y101.055 E29.12441
G1 X88.842 Y100.705 E29.15011
G1 X87.451 Y99.315 E29.24822
G1 X86.951 Y98.758 E29.28556
G1 X86.513 Y98.152 E29.32286
G1 X86.142 Y97.502 E29.3602
G1 X85.843 Y96.816 E29.39754
G1 X85.619 Y96.103 E29.43482
G1 X85.472 Y95.369 E29.47217
G1 X85.399 Y94.363 E29.52249
G1 X85.399 Y94.035 E29.53885
G1 X85.439 Y93.288 E29.57618
G1 X85.558 Y92.55 E29.61347
G1 X85.756 Y91.828 E29.65082
G1 X86.029 Y91.132 E29.68812
G1 X86.376 Y90.469 E29.72545
G1 X86.791 Y89.846 E29.7628
G1 X87.176 Y89.375 E29.79315
G1 X88.227 Y88.197 E29.87191
G1 X88.754 Y87.666 E29.90923
G1 X89.145 Y87.337 E29.93473
G0 F3000 X89.391 Y87.653
G1 F1500 X89.977 Y87.196 E29.9718
G1 X90.574 Y86.781 E30.00808
G1 X91.212 Y86.435 E30.04429
G1 X91.885 Y86.16 E30.08056
G1 X92.583 Y85.962 E30.11676
G1 X93.3 Y85.841 E30.15303
G1 X94.036 Y85.8 E30.18981
G1 X94.364 Y85.8 E30.20617
G1 X95.089 Y85.84 E30.2424
G1 X95.806 Y85.959 E30.27866
G1 X96.505 Y86.157 E30.3149
G1 X97.178 Y86.43 E30.35114
G1 X97.817 Y86.775 E30.38737
G1 X98.414 Y87.189 E30.42361
G1 X99.033 Y87.735 E30.46479
G1 X99.887 Y88.589 E30.52505
G1 X100.163 Y88.808 E30.54262
G1 X100.68 Y89.318 E30.57885
G1 X101.137 Y89.882 E30.61507
G1 X101.334 Y90.189 E30.63327
G1 X109.821 Y81.702 E31.23207
G1 X110.362 Y81.218 E31.26829
G1 X110.953 Y80.795 E31.30455
G1 X111.587 Y80.441 E31.34077
G1 X112.256 Y80.158 E31.37701
G1 X112.952 Y79.95 E31.41326
G1 X113.667 Y79.82 E31.44951
G1 X114.488 Y79.769 E31.49055
G1 X114.654 Y79.769 E31.49883
G1 X115.379 Y79.809 E31.53506
G1 X116.096 Y79.928 E31.57132
G1 X116.795 Y80.126 E31.60756
G1 X117.468 Y80.399 E31.6438
G1 X118.107 Y80.744 E31.68003
G1 X118.704 Y81.158 E31.71627
G1 X119.321 Y81.702 E31.75731
G1 X140.369 Y102.75 E33.24236
G1 X140.853 Y103.291 E33.27858
G1 X141.276 Y103.882 E33.31484
G1 X141.63 Y104.516 E33.35106
G1 X141.913 Y105.185 E33.3873
G1 X142.121 Y105.881 E33.42354
G1 X142.251 Y106.596 E33.4598
G1 X142.302 Y107.417 E33.50084
G1 X142.302 Y107.583 E33.50912
G1 X142.262 Y108.308 E33.54535
G1 X142.143 Y109.025 E33.58161
G1 X141.945 Y109.724 E33.61785
G1 X141.672 Y110.397 E33.65408
G1 X141.327 Y111.036 E33.69031
G1 X140.913 Y111.633 E33.72656
G1 X140.369 Y112.25 E33.7676
G1 X112.25 Y140.369 E35.75155
G1 X111.709 Y140.853 E35.78776
G1 X111.118 Y141.276 E35.82402
G1 X110.484 Y141.63 E35.86025
G1 X109.815 Y141.913 E35.89649
G1 X109.119 Y142.121 E35.93273
G1 X108.404 Y142.251 E35.96898
G1 X107.583 Y142.302 E36.01002
G1 X107.417 Y142.302 E36.0183
G1 X106.692 Y142.262 E36.05453
G1 X105.975 Y142.143 E36.09079
G1 X105.276 Y141.945 E36.12704
G1 X104.603 Y141.672 E36.16327
G1 X103.964 Y141.327 E36.1995
G1 X103.367 Y140.913 E36.23574
G1 X102.75 Y140.369 E36.27678
G1 X81.702 Y119.321 E37.76183
G1 X81.218 Y118.78 E37.79805
G1 X80.795 Y118.189 E37.83431
G1 X80.441 Y117.555 E37.87053
G1 X80.158 Y116.886 E37.90677
G1 X79.95 Y116.19 E37.94302
G1 X79.82 Y115.475 E37.97927
G1 X79.769 Y114.654 E38.02031
G1 X79.769 Y114.488 E38.02859
G1 X79.809 Y113.763 E38.06482
G1 X79.928 Y113.046 E38.10108
G1 X80.126 Y112.347 E38.13732
G1 X80.399 Y111.674 E38.17356
G1 X80.744 Y111.035 E38.20979
G1 X81.158 Y110.438 E38.24603
G1 X81.702 Y109.821 E38.28707
G1 X90.226 Y101.297 E38.88848
G1 X89.817 Y101.023 E38.91305
G1 X89.125 Y100.422 E38.95877
G1 X87.734 Y99.032 E39.05688
G1 X87.249 Y98.491 E39.09313
G1 X86.827 Y97.9 E39.12936
G1 X86.472 Y97.266 E39.16561
G1 X86.189 Y96.597 E39.20185
G1 X85.981 Y95.901 E39.23809
G1 X85.851 Y95.186 E39.27435
G1 X85.799 Y94.363 E39.31549
G1 X85.799 Y94.035 E39.33185
G1 X85.839 Y93.31 E39.36808
G1 X85.958 Y92.593 E39.40434
G1 X86.156 Y91.894 E39.44058
G1 X86.429 Y91.221 E39.47682
G1 X86.774 Y90.582 E39.51305
G1 X87.188 Y89.985 E39.54929
G1 X87.474 Y89.641 E39.57161
G1 X88.525 Y88.463 E39.65037
G1 X89.038 Y87.949 E39.6866
G1 X89.391 Y87.653 E39.70959
G0 F3000 X89.637 Y87.968
G1 F1500 X90.223 Y87.511 E39.74666
G1 X90.802 Y87.11 E39.7818
G1 X91.423 Y86.778 E39.81693
G1 X92.077 Y86.518 E39.85204
G1 X92.756 Y86.334 E39.88714
G1 X93.452 Y86.228 E39.92226
G1 X94.036 Y86.2 E39.95143
G1 X94.364 Y86.2 E39.9678
G1 X95.067 Y86.24 E40.00293
G1 X95.761 Y86.359 E40.03806
G1 X96.436 Y86.557 E40.07315
G1 X97.085 Y86.829 E40.10826
G1 X97.699 Y87.174 E40.1434
G1 X98.27 Y87.585 E40.1785
G1 X98.75 Y88.018 E40.21075
G1 X99.617 Y88.886 E40.27195
G1 X99.946 Y89.151 E40.29303
G1 X100.441 Y89.651 E40.32813
G1 X100.876 Y90.205 E40.36327
G1 X101.245 Y90.804 E40.39837
G1 X101.258 Y90.831 E40.39987
G1 X110.104 Y81.985 E41.024
G1 X110.629 Y81.516 E41.05912
G1 X111.204 Y81.11 E41.09424
G1 X111.822 Y80.772 E41.12938
G1 X112.473 Y80.505 E41.16449
G1 X113.151 Y80.315 E41.19961
G1 X113.846 Y80.202 E41.23474
G1 X114.488 Y80.169 E41.26681
G1 X114.654 Y80.169 E41.2751
G1 X115.357 Y80.209 E41.31023
G1 X116.051 Y80.328 E41.34536
G1 X116.726 Y80.526 E41.38045
G1 X117.375 Y80.798 E41.41556
G1 X117.989 Y81.143 E41.45069
G1 X118.56 Y81.554 E41.48579
G1 X119.038 Y81.985 E41.5179
G1 X140.086 Y103.033 E43.00295
G1 X140.555 Y103.558 E43.03808
G1 X140.961 Y104.133 E43.07319
G1 X141.299 Y104.751 E43.10834
G1 X141.566 Y105.402 E43.14344
G1 X141.756 Y106.08 E43.17857
G1 X141.869 Y106.775 E43.2137
G1 X141.902 Y107.417 E43.24577
G1 X141.902 Y107.583 E43.25405
G1 X141.862 Y108.286 E43.28918
G1 X141.743 Y108.98 E43.32431
G1 X141.545 Y109.655 E43.3594
G1 X141.273 Y110.304 E43.39451
G1 X140.928 Y110.918 E43.42965
G1 X140.517 Y111.489 E43.46475
G1 X140.086 Y111.967 E43.49686
G1 X111.967 Y140.086 E45.48081
G1 X111.442 Y140.555 E45.51593
G1 X110.867 Y140.961 E45.55104
G1 X110.249 Y141.299 E45.58619
G1 X109.598 Y141.566 E45.62129
G1 X108.92 Y141.756 E45.65642
G1 X108.225 Y141.869 E45.69155
G1 X107.583 Y141.902 E45.72362
G1 X107.417 Y141.902 E45.7319
G1 X106.714 Y141.862 E45.76703
G1 X106.02 Y141.743 E45.80216
G1 X105.345 Y141.545 E45.83726
G1 X104.696 Y141.273 E45.87236
G1 X104.082 Y140.928 E45.9075
G1 X103.511 Y140.517 E45.9426
G1 X103.033 Y140.086 E45.97471
G1 X81.985 Y119.038 E47.45976
G1 X81.516 Y118.513 E47.49488
G1 X81.11 Y117.938 E47.53
G1 X80.772 Y117.32 E47.56514
G1 X80.505 Y116.669 E47.60025
G1 X80.315 Y115.991 E47.63537
G1 X80.202 Y115.296 E47.6705
