;FLAVOR:Marlin
;TIME:6798
;Filament used: 3.39081m
;Layer height: 0.2
;MINX:66
;MINY:49.981
;MINZ:0.2
;MAXX:169.017
;MAXY:172.7
;MAXZ:3.8
;Generated with Cura_SteamEngine 5.2.1
M140 S60
M105
M190 S60
M104 S205
M105
M109 S205
M82 ;absolute extrusion mode
; Ender 3 Custom Start G-code
G92 E0 ; Reset Extruder
G28 ; Home all axes
G1 Z2.0 F3000 ; Move Z Axis up little to prevent scratching of Heat Bed
G1 X0.1 Y20 Z0.3 F5000.0 ; Move to start position
G1 X0.1 Y200.0 Z0.3 F1500.0 E15 ; Draw the first line
G1 X0.4 Y200.0 Z0.3 F5000.0 ; Move to side a little
G1 X0.4 Y20 Z0.3 F1500.0 E30 ; Draw the second line
G92 E0 ; Reset Extruder
G1 Z2.0 F3000 ; Move Z Axis up little to prevent scratching of Heat Bed
G1 X5 Y20 Z0.3 F5000.0 ; Move over to prevent blob squish
G92 E0
G92 E0
G1 F2700 E-5
;LAYER_COUNT:19
;LAYER:0
M107
G0 F6000 X69.221 Y69.255 Z0.2
;TYPE:SKIRT
G1 F2700 E0
G1 F1200 X70.154 Y68.416 E0.04173
G1 X71.261 Y67.53 E0.08889
G1 X73.228 Y65.899 E0.17388
G1 X75.118 Y64.239 E0.25755
G1 X76.984 Y62.506 E0.34225
G1 X78.74 Y60.779 E0.42416
G1 X80.504 Y58.943 E0.50885
G1 X82.203 Y57.071 E0.59293
G1 X83.961 Y55.016 E0.68288
G1 X84.701 Y54.124 E0.72143
G1 X85.33 Y53.429 E0.7526
G1 X86.017 Y52.789 E0.78383
G1 X86.755 Y52.211 E0.81501
G1 X87.539 Y51.697 E0.84619
G1 X88.365 Y51.252 E0.8774
G1 X89.226 Y50.879 E0.90861
G1 X90.115 Y50.581 E0.93979
G1 X91.026 Y50.359 E0.97098
G1 X91.953 Y50.216 E1.00217
G1 X92.795 Y50.155 E1.03025
G1 X93.492 Y50.138 E1.05344
G1 X107.611 Y50.139 E1.52304
G1 X108.316 Y50.149 E1.54649
G1 X108.939 Y50.176 E1.56723
G1 X110.045 Y50.255 E1.60411
G1 X112.663 Y50.404 E1.69133
G1 X115.148 Y50.475 E1.77401
G1 X117.673 Y50.475 E1.858
G1 X120.198 Y50.404 E1.94201
G1 X122.742 Y50.261 E2.02676
G1 X124.147 Y50.143 E2.07365
G1 X124.306 Y50.136 E2.07895
G1 X125.528 Y50.031 E2.11974
G1 X126.163 Y49.994 E2.1409
G1 X126.792 Y49.981 E2.16182
G1 X140.912 Y49.982 E2.63145
G1 X141.614 Y49.992 E2.65481
G1 X142.55 Y50.045 E2.68599
G1 X143.478 Y50.178 E2.71717
G1 X144.392 Y50.39 E2.74837
G1 X145.285 Y50.678 E2.77958
G1 X146.149 Y51.042 E2.81077
G1 X146.98 Y51.478 E2.84198
G1 X147.77 Y51.983 E2.87316
G1 X148.514 Y52.553 E2.90434
G1 X149.207 Y53.185 E2.93553
G1 X149.812 Y53.836 E2.96509
G1 X150.235 Y54.33 E2.98672
G1 X151.141 Y55.419 E3.03384
G1 X152.832 Y57.341 E3.11898
G1 X154.527 Y59.162 E3.20173
G1 X156.301 Y60.961 E3.28576
G1 X158.111 Y62.696 E3.36915
G1 X159.983 Y64.392 E3.45317
G1 X161.908 Y66.039 E3.53743
G1 X164.006 Y67.732 E3.6271
G1 X164.796 Y68.352 E3.6605
G1 X165.509 Y68.962 E3.69171
G1 X166.167 Y69.63 E3.72289
G1 X166.765 Y70.352 E3.75407
G1 X167.3 Y71.122 E3.78526
G1 X167.768 Y71.935 E3.81646
G1 X168.165 Y72.785 E3.84766
G1 X168.487 Y73.666 E3.87886
G1 X168.734 Y74.571 E3.91006
G1 X168.902 Y75.493 E3.94123
G1 X169.002 Y76.667 E3.98042
G1 X169.017 Y77.33 E4.00248
G1 X169.017 Y91.42 E4.47111
G1 X169 Y93.57 E4.54262
G1 X169 Y141.189 E6.12644
G1 X169.017 Y143.221 E6.19403
G1 X169.016 Y157.415 E6.66612
G1 X169.006 Y158.142 E6.6903
G1 X168.953 Y159.079 E6.72152
G1 X168.821 Y160.007 E6.75269
G1 X168.61 Y160.921 E6.78389
G1 X168.321 Y161.813 E6.81508
G1 X167.958 Y162.678 E6.84628
G1 X167.523 Y163.509 E6.87748
G1 X167.018 Y164.299 E6.90866
G1 X166.448 Y165.044 E6.93986
G1 X165.817 Y165.738 E6.97106
G1 X165.128 Y166.375 E7.00227
G1 X164.388 Y166.951 E7.03346
G1 X163.602 Y167.462 E7.06464
G1 X162.775 Y167.904 E7.09583
G1 X161.913 Y168.274 E7.12703
G1 X161.023 Y168.569 E7.15821
G1 X160.111 Y168.788 E7.18941
G1 X159.184 Y168.928 E7.22059
G1 X158.316 Y168.987 E7.24953
G1 X157.687 Y169 E7.27045
G1 X152.038 Y169 E7.45834
G1 X149.43 Y169.037 E7.54509
G1 X146.909 Y169.144 E7.62901
G1 X144.414 Y169.321 E7.71221
G1 X141.914 Y169.569 E7.79576
G1 X139.421 Y169.888 E7.87936
G1 X136.928 Y170.279 E7.96329
G1 X134.438 Y170.742 E8.04753
G1 X131.974 Y171.272 E8.13135
G1 X129.574 Y171.86 E8.21354
G1 X129.134 Y171.982 E8.22873
G1 X127.777 Y172.336 E8.27537
G1 X126.861 Y172.534 E8.30654
G1 X125.93 Y172.652 E8.33775
G1 X125.316 Y172.687 E8.35821
G1 X124.687 Y172.7 E8.37913
G1 X110.724 Y172.7 E8.84354
G1 X109.805 Y172.685 E8.87411
G1 X108.869 Y172.628 E8.9053
G1 X107.941 Y172.492 E8.9365
G1 X107.066 Y172.288 E8.96638
G1 X104.247 Y171.549 E9.06331
G1 X101.797 Y170.986 E9.14692
G1 X99.379 Y170.503 E9.22893
G1 X96.84 Y170.069 E9.31461
G1 X94.392 Y169.72 E9.39685
G1 X91.882 Y169.436 E9.48087
G1 X89.366 Y169.222 E9.56485
G1 X86.893 Y169.083 E9.64723
G1 X82.964 Y169 E9.77794
G1 X77.566 Y168.999 E9.95748
G1 X76.868 Y168.989 E9.9807
G1 X75.932 Y168.935 E10.01188
G1 X75.004 Y168.803 E10.04306
G1 X74.09 Y168.591 E10.07426
G1 X73.198 Y168.302 E10.10545
G1 X72.333 Y167.939 E10.13665
G1 X71.503 Y167.503 E10.16783
G1 X70.712 Y166.998 E10.19905
G1 X69.968 Y166.427 E10.23024
G1 X69.275 Y165.795 E10.26143
G1 X68.638 Y165.107 E10.29262
G1 X68.063 Y164.366 E10.32381
G1 X67.552 Y163.58 E10.355
G1 X67.11 Y162.752 E10.38621
G1 X66.741 Y161.89 E10.4174
G1 X66.446 Y161 E10.44859
G1 X66.228 Y160.088 E10.47977
G1 X66.088 Y159.16 E10.51099
G1 X66.03 Y158.288 E10.54006
G1 X66.017 Y157.658 E10.56101
G1 X66.017 Y143.31 E11.03823
G1 X66.003 Y142.452 E11.06677
G1 X66.008 Y142.283 E11.07239
G1 X66 Y141.25 E11.10675
G1 X66 Y94.063 E12.6762
G1 X66.017 Y91.913 E12.74771
G1 X66.018 Y77.55 E13.22543
G1 X66.028 Y76.848 E13.24878
G1 X66.081 Y75.912 E13.27996
G1 X66.214 Y74.984 E13.31114
G1 X66.426 Y74.07 E13.34235
G1 X66.714 Y73.177 E13.37355
G1 X67.078 Y72.313 E13.40474
G1 X67.514 Y71.482 E13.43595
G1 X68.019 Y70.692 E13.46713
G1 X68.589 Y69.948 E13.49831
G1 X69.221 Y69.255 E13.5295
G0 F6000 X69.613 Y69.429
G1 F1200 X70.404 Y68.728 E13.56466
G1 X71.516 Y67.838 E13.61203
G1 X73.501 Y66.192 E13.6978
G1 X75.371 Y64.55 E13.78057
G1 X77.253 Y62.801 E13.86602
G1 X79.026 Y61.058 E13.94871
G1 X80.805 Y59.206 E14.03413
G1 X82.496 Y57.343 E14.11781
G1 X84.288 Y55.249 E14.20948
G1 X85.009 Y54.38 E14.24703
G1 X85.627 Y53.697 E14.27767
G1 X86.302 Y53.071 E14.30829
G1 X87.029 Y52.506 E14.33891
G1 X87.802 Y52.006 E14.36953
G1 X88.616 Y51.575 E14.40017
G1 X89.464 Y51.217 E14.43078
G1 X90.339 Y50.933 E14.46138
G1 X91.237 Y50.726 E14.49203
G1 X92.148 Y50.598 E14.52263
G1 X92.809 Y50.555 E14.54466
G1 X93.492 Y50.538 E14.56738
G1 X107.605 Y50.539 E15.03678
G1 X108.31 Y50.549 E15.06023
G1 X108.911 Y50.575 E15.08024
G1 X109.996 Y50.652 E15.11642
G1 X112.628 Y50.802 E15.2041
G1 X115.172 Y50.875 E15.28875
G1 X117.684 Y50.875 E15.3723
G1 X120.231 Y50.804 E15.45705
G1 X122.725 Y50.663 E15.54013
G1 X124.18 Y50.541 E15.58869
G1 X124.336 Y50.535 E15.59388
G1 X125.562 Y50.429 E15.63481
G1 X126.174 Y50.394 E15.6552
G1 X126.792 Y50.381 E15.67576
G1 X140.755 Y50.381 E16.14017
G1 X141.608 Y50.392 E16.16855
G1 X142.527 Y50.445 E16.19916
G1 X143.438 Y50.578 E16.22978
G1 X144.334 Y50.789 E16.2604
G1 X145.209 Y51.077 E16.29104
G1 X146.055 Y51.44 E16.32166
G1 X146.866 Y51.875 E16.35227
G1 X147.637 Y52.379 E16.3829
G1 X148.361 Y52.947 E16.41351
G1 X149.033 Y53.577 E16.44415
G1 X149.509 Y54.097 E16.46759
G1 X150.032 Y54.709 E16.49437
G1 X150.865 Y55.711 E16.53771
G1 X152.523 Y57.595 E16.62118
G1 X154.233 Y59.433 E16.70468
G1 X156.04 Y61.265 E16.79026
G1 X157.848 Y62.999 E16.87358
G1 X159.7 Y64.677 E16.95671
G1 X161.663 Y66.356 E17.04262
G1 X163.749 Y68.039 E17.13177
G1 X164.549 Y68.667 E17.16559
G1 X165.248 Y69.266 E17.19621
G1 X165.893 Y69.923 E17.22683
G1 X166.477 Y70.634 E17.25744
G1 X166.999 Y71.393 E17.28807
G1 X167.452 Y72.195 E17.31871
G1 X167.834 Y73.032 E17.34931
G1 X168.141 Y73.9 E17.37993
G1 X168.373 Y74.791 E17.41056
G1 X168.526 Y75.699 E17.44118
G1 X168.602 Y76.679 E17.47387
G1 X168.617 Y77.33 E17.49553
G1 X168.617 Y91.417 E17.96407
G1 X168.6 Y93.567 E18.03558
G1 X168.6 Y141.192 E19.61959
G1 X168.617 Y143.224 E19.68718
G1 X168.616 Y157.41 E20.15901
G1 X168.606 Y158.137 E20.18319
G1 X168.553 Y159.056 E20.21381
G1 X168.421 Y159.967 E20.24442
G1 X168.21 Y160.863 E20.27504
G1 X167.923 Y161.738 E20.30567
G1 X167.56 Y162.584 E20.33629
G1 X167.126 Y163.396 E20.36691
G1 X166.622 Y164.167 E20.39755
G1 X166.054 Y164.891 E20.42815
G1 X165.425 Y165.563 E20.45877
G1 X164.74 Y166.178 E20.48939
G1 X164.004 Y166.731 E20.52001
G1 X163.223 Y167.219 E20.55064
G1 X162.403 Y167.637 E20.58125
G1 X161.549 Y167.982 E20.61188
G1 X160.669 Y168.251 E20.64249
G1 X159.768 Y168.444 E20.67314
G1 X158.855 Y168.557 E20.70373
G1 X158.305 Y168.587 E20.72205
G1 X157.687 Y168.6 E20.74261
G1 X152.032 Y168.6 E20.9307
G1 X149.407 Y168.637 E21.01802
G1 X146.899 Y168.744 E21.10151
G1 X144.379 Y168.922 E21.18553
G1 X141.864 Y169.171 E21.26959
G1 X139.375 Y169.49 E21.35305
G1 X136.823 Y169.891 E21.43897
G1 X134.392 Y170.343 E21.52121
G1 X131.9 Y170.879 E21.60599
G1 X129.437 Y171.483 E21.69034
G1 X128.872 Y171.638 E21.70983
G1 X127.677 Y171.949 E21.7509
G1 X126.777 Y172.142 E21.78151
G1 X125.863 Y172.256 E21.81215
G1 X125.305 Y172.287 E21.83074
G1 X124.687 Y172.3 E21.85129
G1 X110.724 Y172.3 E22.31571
G1 X109.812 Y172.285 E22.34604
G1 X108.893 Y172.229 E22.37667
G1 X107.982 Y172.093 E22.4073
G1 X107.173 Y171.902 E22.43495
G1 X104.364 Y171.167 E22.53152
G1 X101.859 Y170.591 E22.61701
G1 X99.418 Y170.103 E22.69981
G1 X96.922 Y169.676 E22.78403
G1 X94.427 Y169.321 E22.86785
G1 X91.925 Y169.037 E22.9516
G1 X89.389 Y168.822 E23.03625
G1 X86.923 Y168.683 E23.1184
G1 X82.972 Y168.6 E23.24984
G1 X77.572 Y168.599 E23.42945
G1 X76.874 Y168.589 E23.45266
G1 X75.955 Y168.536 E23.48328
G1 X75.044 Y168.403 E23.5139
G1 X74.148 Y168.192 E23.54452
G1 X73.274 Y167.904 E23.57513
G1 X72.427 Y167.541 E23.60577
G1 X71.616 Y167.106 E23.63638
G1 X70.846 Y166.602 E23.66699
G1 X70.122 Y166.033 E23.69762
G1 X69.45 Y165.403 E23.72826
G1 X68.835 Y164.718 E23.75888
G1 X68.282 Y163.982 E23.78949
G1 X67.795 Y163.201 E23.82011
G1 X67.378 Y162.38 E23.85073
G1 X67.033 Y161.526 E23.88137
G1 X66.764 Y160.646 E23.91197
G1 X66.572 Y159.745 E23.94261
G1 X66.459 Y158.832 E23.97321
G1 X66.43 Y158.277 E23.9917
G1 X66.417 Y157.658 E24.01229
G1 X66.417 Y143.303 E24.48974
G1 X66.403 Y142.445 E24.51828
G1 X66.4 Y94.066 E26.12737
G1 X66.417 Y91.916 E26.19888
G1 X66.418 Y77.556 E26.6765
G1 X66.428 Y76.854 E26.69985
G1 X66.481 Y75.935 E26.73047
G1 X66.614 Y75.024 E26.76109
G1 X66.825 Y74.128 E26.7917
G1 X67.113 Y73.253 E26.82234
G1 X67.476 Y72.407 E26.85296
G1 X67.911 Y71.596 E26.88357
G1 X68.415 Y70.825 E26.91421
G1 X68.983 Y70.101 E26.94481
G1 X69.613 Y69.429 E26.97545
G0 F6000 X70.004 Y69.608
G1 F1200 X70.654 Y69.041 E27.00414
G1 X71.765 Y68.152 E27.05147
G1 X73.738 Y66.516 E27.13671
G1 X75.644 Y64.842 E27.22109
G1 X77.523 Y63.096 E27.3064
G1 X79.329 Y61.32 E27.39064
G1 X81.089 Y59.488 E27.47514
G1 X82.798 Y57.606 E27.55969
G1 X84.587 Y55.515 E27.65122
G1 X85.317 Y54.635 E27.68925
G1 X85.924 Y53.966 E27.71929
G1 X86.588 Y53.354 E27.74933
G1 X87.303 Y52.803 E27.77935
G1 X88.064 Y52.317 E27.80938
G1 X88.865 Y51.9 E27.83942
G1 X89.7 Y51.556 E27.86945
G1 X90.562 Y51.287 E27.89949
G1 X91.445 Y51.095 E27.92954
G1 X92.341 Y50.982 E27.95958
G1 X92.822 Y50.955 E27.9756
G1 X93.492 Y50.938 E27.9979
G1 X107.6 Y50.939 E28.46713
G1 X108.305 Y50.949 E28.49058
G1 X108.882 Y50.974 E28.50979
G1 X110.01 Y51.054 E28.5474
G1 X112.596 Y51.202 E28.63355
G1 X115.16 Y51.275 E28.71887
G1 X117.695 Y51.275 E28.80318
G1 X120.23 Y51.204 E28.88753
G1 X122.781 Y51.061 E28.97251
G1 X124.214 Y50.94 E29.02034
G1 X124.371 Y50.934 E29.02556
G1 X125.597 Y50.828 E29.06649
G1 X126.185 Y50.794 E29.08608
G1 X126.792 Y50.781 E29.10628
G1 X140.755 Y50.781 E29.57069
G1 X141.602 Y50.792 E29.59886
G1 X142.504 Y50.845 E29.62891
G1 X143.397 Y50.977 E29.65894
G1 X144.275 Y51.188 E29.68897
G1 X145.131 Y51.476 E29.71901
G1 X145.959 Y51.838 E29.74907
G1 X146.751 Y52.272 E29.77911
G1 X147.501 Y52.775 E29.80914
G1 X148.204 Y53.341 E29.83916
G1 X148.854 Y53.968 E29.8692
G1 X149.205 Y54.357 E29.88662
G1 X149.724 Y54.965 E29.91321
G1 X150.558 Y55.968 E29.9566
G1 X152.201 Y57.836 E30.03934
G1 X153.955 Y59.72 E30.12495
G1 X155.761 Y61.552 E30.21052
G1 X157.549 Y63.267 E30.29292
G1 X159.455 Y64.993 E30.37844
G1 X161.397 Y66.655 E30.46346
G1 X163.492 Y68.345 E30.55299
G1 X164.302 Y68.981 E30.58724
G1 X164.987 Y69.57 E30.61729
G1 X165.618 Y70.216 E30.64732
G1 X166.189 Y70.916 E30.67737
G1 X166.695 Y71.664 E30.7074
G1 X167.134 Y72.453 E30.73743
G1 X167.501 Y73.278 E30.76747
G1 X167.794 Y74.133 E30.79753
G1 X168.01 Y75.01 E30.82757
G1 X168.147 Y75.902 E30.85758
G1 X168.202 Y76.691 E30.88389
G1 X168.217 Y77.33 E30.90515
G1 X168.217 Y91.414 E31.37358
G1 X168.2 Y93.564 E31.4451
G1 X168.2 Y141.196 E33.02934
G1 X168.217 Y143.228 E33.09693
G1 X168.216 Y157.404 E33.56843
G1 X168.206 Y158.131 E33.59261
G1 X168.154 Y159.033 E33.62266
G1 X168.022 Y159.926 E33.65268
G1 X167.811 Y160.805 E33.68275
G1 X167.524 Y161.661 E33.71278
G1 X167.162 Y162.488 E33.7428
G1 X166.728 Y163.28 E33.77284
G1 X166.226 Y164.031 E33.80289
G1 X165.66 Y164.734 E33.8329
G1 X165.033 Y165.385 E33.86297
G1 X164.352 Y165.977 E33.89298
G1 X163.621 Y166.507 E33.92301
G1 X162.845 Y166.97 E33.95306
G1 X162.032 Y167.363 E33.9831
G1 X161.187 Y167.683 E34.01315
G1 X160.318 Y167.926 E34.04316
G1 X159.43 Y168.091 E34.0732
G1 X158.294 Y168.187 E34.11112
G1 X157.687 Y168.2 E34.13131
G1 X152.026 Y168.2 E34.3196
G1 X149.42 Y168.237 E34.40628
G1 X146.855 Y168.346 E34.49167
G1 X144.348 Y168.524 E34.57527
G1 X141.807 Y168.775 E34.66019
G1 X139.299 Y169.096 E34.74429
G1 X136.794 Y169.49 E34.82863
G1 X134.307 Y169.952 E34.91276
G1 X131.793 Y170.493 E34.99829
G1 X129.372 Y171.086 E35.0812
G1 X128.921 Y171.211 E35.09676
G1 X127.576 Y171.562 E35.143
G1 X126.693 Y171.751 E35.17303
G1 X125.796 Y171.86 E35.20308
G1 X125.294 Y171.887 E35.2198
G1 X124.687 Y171.9 E35.24
G1 X110.724 Y171.9 E35.70441
G1 X109.819 Y171.885 E35.73451
G1 X108.918 Y171.829 E35.76454
G1 X108.025 Y171.693 E35.79458
G1 X107.28 Y171.517 E35.82004
G1 X106.941 Y171.423 E35.83174
G1 X104.482 Y170.784 E35.91625
G1 X101.956 Y170.203 E36.00246
G1 X99.499 Y169.711 E36.0858
G1 X96.973 Y169.279 E36.17103
G1 X94.491 Y168.927 E36.25441
G1 X91.932 Y168.636 E36.34007
G1 X89.445 Y168.425 E36.42309
G1 X86.926 Y168.283 E36.507
G1 X82.981 Y168.2 E36.63824
G1 X77.578 Y168.199 E36.81795
G1 X76.88 Y168.189 E36.84117
G1 X75.978 Y168.136 E36.87122
G1 X75.085 Y168.004 E36.90124
G1 X74.207 Y167.793 E36.93128
G1 X73.351 Y167.505 E36.96131
G1 X72.524 Y167.143 E36.99134
G1 X71.732 Y166.708 E37.02139
G1 X70.981 Y166.206 E37.05144
G1 X70.278 Y165.639 E37.08148
G1 X69.628 Y165.012 E37.11152
G1 X69.036 Y164.33 E37.14155
G1 X68.506 Y163.599 E37.17158
G1 X68.044 Y162.823 E37.20162
G1 X67.651 Y162.01 E37.23166
G1 X67.333 Y161.165 E37.26169
G1 X67.09 Y160.295 E37.29173
G1 X66.925 Y159.407 E37.32177
G1 X66.83 Y158.266 E37.35985
G1 X66.817 Y157.658 E37.38008
G1 X66.817 Y143.296 E37.85776
G1 X66.803 Y142.438 E37.8863
G1 X66.808 Y142.281 E37.89153
G1 X66.8 Y141.244 E37.92602
G1 X66.8 Y94.069 E39.49506
G1 X66.817 Y91.919 E39.56658
G1 X66.818 Y77.562 E40.04409
G1 X66.828 Y76.86 E40.06744
G1 X66.881 Y75.958 E40.09749
G1 X67.013 Y75.065 E40.12752
G1 X67.224 Y74.187 E40.15755
G1 X67.512 Y73.331 E40.18759
G1 X67.874 Y72.503 E40.21765
G1 X68.308 Y71.711 E40.24769
G1 X68.811 Y70.961 E40.27772
G1 X69.377 Y70.258 E40.30774
G1 X70.004 Y69.608 E40.33778
G1 F2700 E35.33778
;MESH:cable_tie_mount.stl(26)
G0 F6000 X77.431 Y76.335
G0 X91.417 Y91.4
;TYPE:WALL-INNER
G1 F2700 E40.33778
G1 F1200 X91.417 Y77.6 E40.79677
G1 X77.617 Y77.6 E41.25576
G1 X77.617 Y91.4 E41.71475
G1 X91.417 Y91.4 E42.17374
G0 F6000 X91.817 Y91.8
;TYPE:WALL-OUTER
G1 F1200 X91.817 Y77.2 E42.65933
G1 X77.217 Y77.2 E43.14493
G1 X77.217 Y91.8 E43.63053
G1 X91.817 Y91.8 E44.11613
G0 F6000 X91.547 Y91.53
G0 X91.317 Y91.04
G0 X91.057 Y91.04
;TYPE:SKIN
G1 F1200 X91.057 Y77.96 E44.55117
G1 X77.977 Y77.96 E44.98621
G1 X77.977 Y91.04 E45.42126
G1 X91.057 Y91.04 E45.8563
G0 F6000 X91.317 Y91.04
G0 X91.317 Y78.411
G0 X90.856 Y78.411
G1 F1200 X90.605 Y78.16 E45.86811
G0 F6000 X90.039 Y78.16
G1 F1200 X90.856 Y78.977 E45.90653
G0 F6000 X90.856 Y79.543
G1 F1200 X89.473 Y78.16 E45.97159
G0 F6000 X88.908 Y78.16
G1 F1200 X90.856 Y80.108 E46.06321
G0 F6000 X90.856 Y80.674
G1 F1200 X88.342 Y78.16 E46.18147
G0 F6000 X87.776 Y78.16
