;FLAVOR:RepRap
;TIME:583
;Generated with Cura_SteamEngine 2.3.1
M190 S60
M104 S220
M109 S220
G28 ;Home
G1 Z15.0 F6000 ;Move the platform down 15mm
;Prime the extruder
G92 E0
G1 F200 E3
G92 E0
;LAYER_COUNT:90
;LAYER:0
M107
G1 F1500 E-6.5
G0 F3600 X104.77 Y104.77 Z.3
;TYPE:WALL-INNER
G1 F1500 E0
G1 F1800 X105.893 Y103.849 E0.07246
G1 X107.171 Y103.165 E0.14478
G1 X108.557 Y102.745 E0.21703
G1 X110 Y102.603 E0.28937
G1 X111.443 Y102.745 E0.36171
G1 X112.831 Y103.166 E0.43407
G1 X114.106 Y103.847 E0.50619
G1 X115.231 Y104.77 E0.57878
G1 X116.15 Y105.893 E0.65118
G1 X116.834 Y107.171 E0.7235
G1 X117.254 Y108.557 E0.79575
G1 X117.397 Y110 E0.8681
G1 X117.254 Y111.443 E0.94044
G1 X116.833 Y112.831 E1.0128
G1 X116.152 Y114.107 E1.08496
G1 X115.231 Y115.231 E1.15746
G1 X114.107 Y116.152 E1.22996
G1 X112.831 Y116.833 E1.30211
G1 X111.443 Y117.254 E1.37448
G1 X110 Y117.397 E1.44682
G1 X108.557 Y117.254 E1.51917
G1 X107.171 Y116.834 E1.59142
G1 X105.893 Y116.15 E1.66374
G1 X104.77 Y115.231 E1.73613
G1 X103.847 Y114.106 E1.80873
G1 X103.166 Y112.831 E1.88085
G1 X102.745 Y111.443 E1.95321
G1 X102.603 Y110 E2.02555
G1 X102.745 Y108.557 E2.09789
G1 X103.165 Y107.171 E2.17014
G1 X103.849 Y105.893 E2.24246
G1 X104.77 Y104.77 E2.31492
G0 F3600 X104.486 Y104.486
;TYPE:WALL-OUTER
G1 F1800 X105.671 Y103.513 E2.39141
G1 X107.016 Y102.794 E2.4675
G1 X108.477 Y102.351 E2.54367
G1 X110 Y102.201 E2.62002
G1 X111.523 Y102.351 E2.69637
G1 X112.984 Y102.794 E2.77254
G1 X114.33 Y103.513 E2.84867
G1 X115.515 Y104.486 E2.92516
G1 X116.486 Y105.671 E3.0016
G1 X117.205 Y107.016 E3.07768
G1 X117.648 Y108.477 E3.15385
G1 X117.799 Y110 E3.23021
G1 X117.648 Y111.523 E3.30656
G1 X117.205 Y112.984 E3.38273
G1 X116.486 Y114.33 E3.45886
G1 X115.515 Y115.515 E3.53529
G1 X114.33 Y116.486 E3.61173
G1 X112.984 Y117.205 E3.68786
G1 X111.523 Y117.648 E3.76402
G1 X110 Y117.799 E3.84038
G1 X108.477 Y117.648 E3.91674
G1 X107.016 Y117.205 E3.9929
G1 X105.671 Y116.486 E4.06899
G1 X104.486 Y115.515 E4.14542
G1 X103.513 Y114.33 E4.22192
G1 X102.794 Y112.984 E4.29805
G1 X102.351 Y111.523 E4.37422
G1 X102.201 Y110 E4.45057
G1 X102.351 Y108.477 E4.52692
G1 X102.794 Y107.016 E4.60309
G1 X103.513 Y105.671 E4.67917
G1 X104.486 Y104.486 E4.75567
G0 F3600 X104.897 Y104.897
;TYPE:SKIN
G1 F1800 X115.102 Y115.102 E5.47569
G0 X115.172 Y115.172
G0 F3600 X115.358 Y114.792
G1 F1800 X105.209 Y104.643 E6.19175
G0 X105.139 Y104.573
G0 F3600 X105.52 Y104.388
G1 F1800 X115.612 Y114.481 E6.90383
G0 X115.682 Y114.551
G0 F3600 X115.867 Y114.17
G1 F1800 X105.83 Y104.133 E7.612
G0 X105.76 Y104.063
G0 F3600 X106.168 Y103.905
G1 F1800 X116.094 Y113.832 E8.31237
G0 X116.164 Y113.902
G0 F3600 X116.292 Y113.463
G1 F1800 X106.536 Y103.707 E9.00071
G0 X106.466 Y103.637
G0 F3600 X106.904 Y103.51
G1 F1800 X116.489 Y113.095 E9.67698
G0 X116.559 Y113.165
G0 F3600 X116.679 Y112.719
G1 F1800 X107.278 Y103.318 E10.34027
G0 X107.208 Y103.248
G0 F3600 X107.712 Y103.187
G1 F1800 X116.811 Y112.285 E10.98222
G0 X116.881 Y112.355
G0 F3600 X116.942 Y111.851
G1 F1800 X108.147 Y103.056 E11.60275
G0 X108.077 Y102.986
G0 F3600 X108.581 Y102.925
G1 F1800 X117.074 Y111.417 E12.20195
G0 X117.144 Y111.487
G0 F3600 X117.126 Y110.904
G1 F1800 X109.095 Y102.873 E12.76858
G0 X109.025 Y102.803
G0 F3600 X109.61 Y102.822
G1 F1800 X117.176 Y110.388 E13.3024
G0 X117.246 Y110.458
G0 F3600 X117.2 Y109.846
G1 F1800 X110.153 Y102.799 E13.7996
G0 X110.083 Y102.729
G0 F3600 X110.781 Y102.861
G1 F1800 X117.138 Y109.219 E14.24816
G0 X117.208 Y109.289
G0 F3600 X117.077 Y108.591
G1 F1800 X111.407 Y102.922 E14.64817
G0 X111.337 Y102.852
G0 F3600 X112.218 Y103.167
G1 F1800 X116.831 Y107.78 E14.97364
G0 X116.901 Y107.85
G0 F3600 X116.449 Y106.833
G1 F1800 X113.163 Y103.547 E15.20549
G0 X113.093 Y103.477
G0 F3600 X114.977 Y104.795
G1 F1800 X115.204 Y105.022 E15.22151
G0 F3600 X114.791 Y115.357
G1 F1800 X104.642 Y105.208 E15.93757
G0 X104.572 Y105.138
G0 F3600 X104.388 Y105.519
G1 F1800 X114.48 Y115.611 E16.64962
G0 X114.55 Y115.681
G0 F3600 X114.169 Y115.866
G1 F1800 X104.132 Y105.829 E17.35778
G0 X104.062 Y105.759
G0 F3600 X103.905 Y106.167
G1 F1800 X113.831 Y116.094 E18.05815
G0 X113.901 Y116.164
G0 F3600 X113.463 Y116.291
G1 F1800 X103.707 Y106.535 E18.74649
G0 X103.637 Y106.465
G0 F3600 X103.509 Y106.903
G1 F1800 X113.094 Y116.488 E19.42276
G0 X113.164 Y116.558
G0 F3600 X112.719 Y116.678
G1 F1800 X103.318 Y107.277 E20.08605
G0 X103.248 Y107.207
G0 F3600 X103.186 Y107.712
G1 F1800 X112.285 Y116.81 E20.728
G0 X112.355 Y116.88
G0 F3600 X111.85 Y116.942
G1 F1800 X103.055 Y108.147 E21.34854
G0 X102.985 Y108.077
G0 F3600 X102.924 Y108.581
G1 F1800 X111.416 Y117.073 E21.94769
G0 X111.486 Y117.143
G0 F3600 X110.903 Y117.125
G1 F1800 X102.872 Y109.095 E22.51429
G0 X102.802 Y109.025
G0 F3600 X102.821 Y109.61
G1 F1800 X110.387 Y117.176 E23.04811
G0 X110.457 Y117.246
G0 F3600 X109.845 Y117.199
G1 F1800 X102.799 Y110.153 E23.54524
G0 X102.729 Y110.083
G0 F3600 X102.86 Y110.78
G1 F1800 X109.218 Y117.137 E23.9938
G0 X109.288 Y117.207
G0 F3600 X108.591 Y117.076
G1 F1800 X102.921 Y111.406 E24.39385
G0 X102.851 Y111.336
G0 F3600 X103.166 Y112.217
G1 F1800 X107.78 Y116.831 E24.71939
G0 X107.85 Y116.901
G0 F3600 X106.832 Y116.449
G1 F1800 X103.546 Y113.163 E24.95124
G0 X103.476 Y113.093
G0 F3600 X104.794 Y114.976
G1 F1800 X105.021 Y115.203 E24.96725
G0 F3600 X105.161 Y115.035
;TIME_ELAPSED:26.375363
;LAYER:1
M106 S255
G0 F5400 X104.77 Y115.231 Z.5
;TYPE:WALL-INNER
G1 F2700 X103.847 Y114.106 E25.01565
G1 X103.166 Y112.831 E25.06373
G1 X102.745 Y111.443 E25.11197
G1 X102.603 Y110 E25.1602
G1 X102.745 Y108.557 E25.20842
G1 X103.165 Y107.171 E25.25659
G1 X103.849 Y105.893 E25.3048
G1 X104.77 Y104.77 E25.35311
G1 X105.893 Y103.849 E25.40141
G1 X107.171 Y103.165 E25.44963
G1 X108.557 Y102.745 E25.49779
G1 X110 Y102.603 E25.54602
G1 X111.443 Y102.745 E25.59425
G1 X112.831 Y103.166 E25.64249
G1 X114.106 Y103.847 E25.69057
G1 X115.231 Y104.77 E25.73897
G1 X116.15 Y105.893 E25.78723
G1 X116.834 Y107.171 E25.83544
G1 X117.254 Y108.557 E25.88361
G1 X117.397 Y110 E25.93184
G1 X117.254 Y111.443 E25.98007
G1 X116.833 Y112.831 E26.02831
G1 X116.152 Y114.107 E26.07642
G1 X115.231 Y115.231 E26.12475
G1 X114.107 Y116.152 E26.17308
G1 X112.831 Y116.833 E26.22119
G1 X111.443 Y117.254 E26.26943
G1 X110 Y117.397 E26.31766
G1 X108.557 Y117.254 E26.36589
G1 X107.171 Y116.834 E26.41405
G1 X105.893 Y116.15 E26.46227
G1 X104.77 Y115.231 E26.51053
G0 F5400 X104.486 Y115.515
;TYPE:WALL-OUTER
G1 F1800 X103.513 Y114.33 E26.56153
G1 X102.794 Y112.984 E26.61228
G1 X102.351 Y111.523 E26.66306
G1 X102.201 Y110 E26.71396
G1 X102.351 Y108.477 E26.76486
G1 X102.794 Y107.016 E26.81564
G1 X103.513 Y105.671 E26.86636
G1 X104.486 Y104.486 E26.91736
G1 X105.671 Y103.513 E26.96836
G1 X107.016 Y102.794 E27.01908
G1 X108.477 Y102.351 E27.06986
G1 X110 Y102.201 E27.12076
G1 X111.523 Y102.351 E27.17166
G1 X112.984 Y102.794 E27.22244
G1 X114.33 Y103.513 E27.2732
G1 X115.515 Y104.486 E27.32419
G1 X116.486 Y105.671 E27.37515
G1 X117.205 Y107.016 E27.42587
G1 X117.648 Y108.477 E27.47665
G1 X117.799 Y110 E27.52755
G1 X117.648 Y111.523 E27.57846
G1 X117.205 Y112.984 E27.62924
G1 X116.486 Y114.33 E27.67999
G1 X115.515 Y115.515 E27.73095
G1 X114.33 Y116.486 E27.7819
G1 X112.984 Y117.205 E27.83266
G1 X111.523 Y117.648 E27.88343
G1 X110 Y117.799 E27.93434
G1 X108.477 Y117.648 E27.98524
G1 X107.016 Y117.205 E28.03602
G1 X105.671 Y116.486 E28.08674
G1 X104.486 Y115.515 E28.1377
G0 F5400 X104.925 Y115.126
;TYPE:SKIN
G1 F1800 X115.125 Y104.926 E28.61748
G0 X115.195 Y104.856
G0 F5400 X114.82 Y104.665
G1 F1800 X104.665 Y114.819 E29.09511
G0 X104.595 Y114.889
G0 F5400 X104.411 Y114.508
G1 F1800 X114.509 Y104.41 E29.57009
G0 X114.579 Y104.34
G0 F5400 X114.198 Y104.156
G1 F1800 X104.156 Y114.197 E30.04241
G0 X104.086 Y114.267
G0 F5400 X103.922 Y113.866
G1 F1800 X113.866 Y103.922 E30.51015
G0 X113.936 Y103.852
G0 F5400 X113.498 Y103.724
G1 F1800 X103.725 Y113.497 E30.96984
G0 X103.655 Y113.567
G0 F5400 X103.528 Y113.128
G1 F1800 X113.129 Y103.528 E31.42142
G0 X113.199 Y103.458
G0 F5400 X112.76 Y103.331
G1 F1800 X103.332 Y112.759 E31.86488
G0 X103.262 Y112.829
G0 F5400 X103.2 Y112.325
G1 F1800 X112.326 Y103.2 E32.29412
G0 X112.396 Y103.13
G0 F5400 X111.892 Y103.067
G1 F1800 X103.068 Y111.891 E32.70917
G0 X102.998 Y111.961
G0 F5400 X102.937 Y111.457
G1 F1800 X111.458 Y102.936 E33.10997
G0 X111.528 Y102.866
G0 F5400 X110.952 Y102.876
G1 F1800 X102.877 Y110.951 E33.4898
G0 X102.807 Y111.021
G0 F5400 X102.827 Y110.435
G1 F1800 X110.436 Y102.826 E33.8477
G0 X110.506 Y102.756
G0 F5400 X109.904 Y102.793
G1 F1800 X102.794 Y109.903 E34.18213
G0 X102.724 Y109.973
G0 F5400 X102.855 Y109.276
G1 F1800 X109.277 Y102.854 E34.4842
G0 X109.347 Y102.784
G0 F5400 X108.65 Y102.915
G1 F1800 X102.916 Y108.649 E34.75391
G0 X102.846 Y108.719
G0 F5400 X103.144 Y107.856
G1 F1800 X107.857 Y103.143 E34.9756
G0 X107.927 Y103.073
G0 F5400 X106.949 Y103.485
G1 F1800 X103.486 Y106.948 E35.13849
G0 X103.416 Y107.018
G0 F5400 X104.563 Y105.305
G1 F1800 X105.306 Y104.562 E35.17344
G0 X105.376 Y104.492
G0 F5400 X115.38 Y105.237
G1 F1800 X105.236 Y115.38 E35.65056
G0 X105.166 Y115.45
G0 F5400 X105.548 Y115.634
G1 F1800 X115.633 Y105.549 E36.12492
G0 X115.703 Y105.479
G0 F5400 X115.888 Y105.86
G1 F1800 X105.859 Y115.889 E36.59666
G0 X105.789 Y115.959
G0 F5400 X106.202 Y116.111
G1 F1800 X116.111 Y106.203 E37.06272
G0 X116.181 Y106.133
G0 F5400 X116.308 Y106.571
G1 F1800 X106.57 Y116.309 E37.52077
G0 X106.5 Y116.379
G0 F5400 X106.938 Y116.507
G1 F1800 X116.506 Y106.939 E37.97082
G0 X116.576 Y106.869
G0 F5400 X116.691 Y107.319
G1 F1800 X107.319 Y116.692 E38.41167
G0 X107.249 Y116.762
G0 F5400 X107.753 Y116.823
G1 F1800 X116.823 Y107.753 E38.8383
G0 X116.893 Y107.683
G0 F5400 X116.954 Y108.188
G1 F1800 X108.187 Y116.955 E39.25067
G0 X108.117 Y117.025
G0 F5400 X108.627 Y117.08
G1 F1800 X117.079 Y108.628 E39.64822
G0 X117.149 Y108.558
G0 F5400 X117.13 Y109.144
G1 F1800 X109.143 Y117.13 E40.02389
G0 X109.073 Y117.2
G0 F5400 X109.658 Y117.181
G1 F1800 X117.181 Y109.658 E40.37774
G0 X117.251 Y109.588
G0 F5400 X117.193 Y110.211
G1 F1800 X110.211 Y117.194 E40.70618
G0 X110.141 Y117.264
G0 F5400 X110.838 Y117.132
G1 F1800 X117.132 Y110.838 E41.00223
G0 X117.202 Y110.768
G0 F5400 X117.053 Y111.483
G1 F1800 X111.482 Y117.054 E41.26427
G0 X111.412 Y117.124
G0 F5400 X112.294 Y116.808
G1 F1800 X116.807 Y112.294 E41.47657
G0 X116.877 Y112.224
G0 F5400 X116.391 Y113.277
G1 F1800 X113.276 Y116.391 E41.62307
G0 X113.206 Y116.461
G0 F5400 X113.091 Y116.242
;TIME_ELAPSED:43.719878
;LAYER:2
G0 F7200 X112.831 Y116.833 Z.7
;TYPE:WALL-INNER
G1 F3600 X111.443 Y117.254 E41.67131
G1 X110 Y117.397 E41.71954
G1 X108.557 Y117.254 E41.76777
G1 X107.171 Y116.834 E41.81594
G1 X105.893 Y116.15 E41.86415
G1 X104.77 Y115.231 E41.91242
G1 X103.847 Y114.106 E41.96081
G1 X103.166 Y112.831 E42.00889
G1 X102.745 Y111.443 E42.05713
G1 X102.603 Y110 E42.10536
G1 X102.745 Y108.557 E42.15359
G1 X103.165 Y107.171 E42.20175
G1 X103.849 Y105.893 E42.24997
G1 X104.77 Y104.77 E42.29827
G1 X105.893 Y103.849 E42.34658
G1 X107.171 Y103.165 E42.39479
G1 X108.557 Y102.745 E42.44296
G1 X110 Y102.603 E42.49118
G1 X111.443 Y102.745 E42.53941
G1 X112.831 Y103.166 E42.58765
G1 X114.106 Y103.847 E42.63573
G1 X115.231 Y104.77 E42.68413
G1 X116.15 Y105.893 E42.73239
G1 X116.834 Y107.171 E42.7806
G1 X117.254 Y108.557 E42.82877
G1 X117.397 Y110 E42.877
G1 X117.254 Y111.443 E42.92523
G1 X116.833 Y112.831 E42.97347
G1 X116.152 Y114.107 E43.02158
G1 X115.231 Y115.231 E43.06991
G1 X114.107 Y116.152 E43.11824
G1 X112.831 Y116.833 E43.16635
G0 F7200 X112.984 Y117.205
;TYPE:WALL-OUTER
G1 F1800 X111.523 Y117.648 E43.21713
G1 X110 Y117.799 E43.26803
G1 X108.477 Y117.648 E43.31893
G1 X107.016 Y117.205 E43.36971
G1 X105.671 Y116.486 E43.42044
G1 X104.486 Y115.515 E43.47139
G1 X103.513 Y114.33 E43.52239
G1 X102.794 Y112.984 E43.57314
G1 X102.351 Y111.523 E43.62392
G1 X102.201 Y110 E43.67482
G1 X102.351 Y108.477 E43.72572
G1 X102.794 Y107.016 E43.7765
G1 X103.513 Y105.671 E43.82723
G1 X104.486 Y104.486 E43.87822
G1 X105.671 Y103.513 E43.92922
G1 X107.016 Y102.794 E43.97995
G1 X108.477 Y102.351 E44.03072
G1 X110 Y102.201 E44.08162
G1 X111.523 Y102.351 E44.13252
G1 X112.984 Y102.794 E44.1833
G1 X114.33 Y103.513 E44.23406
G1 X115.515 Y104.486 E44.28505
G1 X116.486 Y105.671 E44.33601
G1 X117.205 Y107.016 E44.38673
G1 X117.648 Y108.477 E44.43751
G1 X117.799 Y110 E44.48842
G1 X117.648 Y111.523 E44.53932
G1 X117.205 Y112.984 E44.5901
G1 X116.486 Y114.33 E44.64085
G1 X115.515 Y115.515 E44.69181
G1 X114.33 Y116.486 E44.74276
G1 X112.984 Y117.205 E44.79352
G0 F7200 X112.719 Y116.678
;TYPE:SKIN
G1 F1800 X103.318 Y107.277 E45.23571
G0 X103.248 Y107.207
G0 F7200 X103.509 Y106.903
G1 F1800 X113.094 Y116.488 E45.68656
G0 X113.164 Y116.558
G0 F7200 X113.463 Y116.291
G1 F1800 X103.707 Y106.535 E46.14545
G0 X103.637 Y106.465
G0 F7200 X103.905 Y106.167
G1 F1800 X113.831 Y116.094 E46.61236
G0 X113.901 Y116.164
G0 F7200 X114.169 Y115.866
G1 F1800 X104.132 Y105.829 E47.08447
G0 X104.062 Y105.759
G0 F7200 X104.388 Y105.519
G1 F1800 X114.48 Y115.611 E47.55917
G0 X114.55 Y115.681
G0 F7200 X114.791 Y115.357
G1 F1800 X104.642 Y105.208 E48.03655
G0 X104.572 Y105.138
G0 F7200 X104.897 Y104.897
G1 F1800 X115.102 Y115.102 E48.51656
G0 X115.172 Y115.172
G0 F7200 X115.358 Y114.792
G1 F1800 X105.209 Y104.643 E48.99394
G0 X105.139 Y104.573
G0 F7200 X105.52 Y104.388
G1 F1800 X115.612 Y114.481 E49.46866
G0 X115.682 Y114.551
G0 F7200 X115.867 Y114.17
G1 F1800 X105.83 Y104.133 E49.94077
G0 X105.76 Y104.063
G0 F7200 X106.168 Y103.905
G1 F1800 X116.094 Y113.832 E50.40768
G0 X116.164 Y113.902
G0 F7200 X116.292 Y113.463
G1 F1800 X106.536 Y103.707 E50.86657
G0 X106.466 Y103.637
G0 F7200 X106.904 Y103.51
G1 F1800 X116.489 Y113.095 E51.31742
G0 X116.559 Y113.165
G0 F7200 X116.679 Y112.719
G1 F1800 X107.278 Y103.318 E51.75962
G0 X107.208 Y103.248
G0 F7200 X107.712 Y103.187
G1 F1800 X116.811 Y112.285 E52.18758
G0 X116.881 Y112.355
G0 F7200 X116.942 Y111.851
G1 F1800 X108.147 Y103.056 E52.60127
G0 X108.077 Y102.986
G0 F7200 X108.581 Y102.925
G1 F1800 X117.074 Y111.417 E53.00073
G0 X117.144 Y111.487
G0 F7200 X117.126 Y110.904
G1 F1800 X109.095 Y102.873 E53.37849
G0 X109.025 Y102.803
G0 F7200 X109.61 Y102.822
G1 F1800 X117.176 Y110.388 E53.73437
G0 X117.246 Y110.458
G0 F7200 X117.2 Y109.846
G1 F1800 X110.153 Y102.799 E54.06584
G0 X110.083 Y102.729
G0 F7200 X110.781 Y102.861
G1 F1800 X117.138 Y109.219 E54.36487
G0 X117.208 Y109.289
G0 F7200 X117.077 Y108.591
G1 F1800 X111.407 Y102.922 E54.63155
G0 X111.337 Y102.852
G0 F7200 X112.218 Y103.167
G1 F1800 X116.831 Y107.78 E54.84853
G0 X116.901 Y107.85
G0 F7200 X116.449 Y106.833
G1 F1800 X113.163 Y103.547 E55.00309
G0 X113.093 Y103.477
G0 F7200 X114.977 Y104.795
G1 F1800 X115.204 Y105.022 E55.01377
G0 F7200 X112.285 Y116.81
G1 F1800 X103.186 Y107.712 E55.44174
G0 X103.116 Y107.642
G0 F7200 X103.055 Y108.147
G1 F1800 X111.85 Y116.942 E55.85543
G0 X111.92 Y117.012
G0 F7200 X111.416 Y117.073
G1 F1800 X102.924 Y108.581 E56.25487
G0 X102.854 Y108.511
G0 F7200 X102.872 Y109.095
G1 F1800 X110.903 Y117.125 E56.6326
G0 X110.973 Y117.195
G0 F7200 X110.387 Y117.176
G1 F1800 X102.821 Y109.61 E56.98848
G0 X102.751 Y109.54
G0 F7200 X102.799 Y110.153
G1 F1800 X109.845 Y117.199 E57.3199
G0 X109.915 Y117.269
G0 F7200 X109.218 Y117.137
G1 F1800 X102.86 Y110.78 E57.61894
G0 X102.79 Y110.71
G0 F7200 X102.921 Y111.406
G1 F1800 X108.591 Y117.076 E57.88564
G0 X108.661 Y117.146
G0 F7200 X107.78 Y116.831
G1 F1800 X103.166 Y112.217 E58.10266
G0 X103.096 Y112.147
G0 F7200 X103.546 Y113.163
G1 F1800 X106.832 Y116.449 E58.25723
G0 X106.902 Y116.519
G0 F7200 X105.021 Y115.203
G1 F1800 X104.794 Y114.976 E58.26791
G0 F7200 X104.966 Y114.84
;TIME_ELAPSED:60.875507
;LAYER:3
G0 X104.77 Y115.231 Z.9
;TYPE:WALL-INNER
G1 F3600 X103.847 Y114.106 E58.3163
G1 X103.166 Y112.831 E58.36438
G1 X102.745 Y111.443 E58.41262
G1 X102.603 Y110 E58.46085
G1 X102.745 Y108.557 E58.50908
G1 X103.165 Y107.171 E58.55724
G1 X103.849 Y105.893 E58.60546
G1 X104.77 Y104.77 E58.65376
