;FLAVOR:RepRap
;TIME:2515
;Generated with Cura_SteamEngine 2.3.1
M190 S60
M104 S207
M109 S207
G28 ;Home
G1 Z15.0 F6000 ;Move the platform down 15mm
;Prime the extruder
G92 E0
G1 F200 E3
G92 E0
;LAYER_COUNT:54
;LAYER:0
M107
G1 F1500 E-6.5
G0 F2800 X80.217 Y63.887 Z.3
;TYPE:WALL-INNER
G1 F1500 E0
G1 F1800 X80.433 Y63.642 E0.0163
G1 X80.642 Y63.433 E0.03104
G1 X80.889 Y63.216 E0.04744
G1 X81.119 Y63.038 E0.06195
G1 X81.389 Y62.855 E0.07823
G1 X81.653 Y62.7 E0.0935
G1 X81.935 Y62.558 E0.10925
G1 X82.207 Y62.441 E0.12402
G1 X82.516 Y62.332 E0.14037
G1 X82.805 Y62.249 E0.15537
G1 X83.112 Y62.182 E0.17105
G1 X83.412 Y62.136 E0.18619
G1 X83.729 Y62.109 E0.20206
G1 X84.036 Y62.101 E0.21739
G1 X84.353 Y62.114 E0.23321
G1 X84.672 Y62.146 E0.24921
G1 X84.958 Y62.195 E0.26369
G1 X85.272 Y62.269 E0.27978
G1 X85.559 Y62.355 E0.29473
G1 X85.859 Y62.468 E0.31072
G1 X86.136 Y62.591 E0.32584
G1 X86.408 Y62.733 E0.34115
G1 X86.679 Y62.898 E0.35698
G1 X86.931 Y63.074 E0.37231
G1 X87.184 Y63.276 E0.38847
G1 X87.41 Y63.482 E0.40372
G1 X87.816 Y63.9 E0.43279
G1 X90.184 Y63.9 E0.55093
G1 X90.592 Y63.48 E0.58015
G1 X90.821 Y63.272 E0.59558
G1 X91.073 Y63.072 E0.61163
G1 X91.321 Y62.899 E0.62672
G1 X91.603 Y62.727 E0.6432
G1 X91.876 Y62.585 E0.65855
G1 X92.163 Y62.459 E0.67419
G1 X92.45 Y62.353 E0.68945
G1 X92.777 Y62.256 E0.70647
G1 X93.067 Y62.19 E0.72131
G1 X93.37 Y62.142 E0.73661
G1 X93.679 Y62.112 E0.7521
G1 X94 Y62.1 E0.76813
G1 X94.322 Y62.112 E0.7842
G1 X94.631 Y62.142 E0.79969
G1 X94.934 Y62.19 E0.815
G1 X95.224 Y62.256 E0.82983
G1 X95.551 Y62.353 E0.84685
G1 X95.838 Y62.459 E0.86211
G1 X96.125 Y62.585 E0.87775
G1 X96.398 Y62.727 E0.8931
G1 X96.68 Y62.899 E0.90958
G1 X96.928 Y63.072 E0.92467
G1 X97.18 Y63.272 E0.94072
G1 X97.409 Y63.48 E0.95615
G1 X97.817 Y63.9 E0.98537
G1 X132.184 Y63.9 E2.69994
G1 X132.59 Y63.482 E2.72902
G1 X132.816 Y63.276 E2.74427
G1 X133.069 Y63.074 E2.76042
G1 X133.321 Y62.898 E2.77576
G1 X133.592 Y62.733 E2.79159
G1 X133.864 Y62.591 E2.8069
G1 X134.141 Y62.468 E2.82202
G1 X134.441 Y62.355 E2.83801
G1 X134.728 Y62.269 E2.85296
G1 X135.042 Y62.195 E2.86905
G1 X135.328 Y62.146 E2.88353
G1 X135.647 Y62.114 E2.89952
G1 X135.964 Y62.101 E2.91535
G1 X136.271 Y62.109 E2.93067
G1 X136.588 Y62.136 E2.94655
G1 X136.888 Y62.182 E2.96169
G1 X137.195 Y62.249 E2.97737
G1 X137.484 Y62.332 E2.99237
G1 X137.793 Y62.441 E3.00871
G1 X138.065 Y62.558 E3.02349
G1 X138.347 Y62.7 E3.03924
G1 X138.611 Y62.855 E3.05451
G1 X138.881 Y63.038 E3.07078
G1 X139.111 Y63.216 E3.08529
G1 X139.358 Y63.433 E3.1017
G1 X139.567 Y63.642 E3.11644
G1 X139.783 Y63.887 E3.13274
G1 X139.962 Y64.119 E3.14736
G1 X140.145 Y64.389 E3.16363
G1 X140.303 Y64.658 E3.17919
G1 X140.437 Y64.924 E3.19405
G1 X140.565 Y65.222 E3.21023
G1 X140.668 Y65.516 E3.22578
G1 X140.753 Y65.811 E3.24109
G1 X140.819 Y66.116 E3.25666
G1 X140.864 Y66.412 E3.2716
G1 X140.892 Y66.735 E3.28777
G1 X140.899 Y67.032 E3.30259
G1 X140.887 Y67.346 E3.31827
G1 X140.854 Y67.672 E3.33462
G1 X140.805 Y67.958 E3.3491
G1 X140.731 Y68.272 E3.36519
G1 X140.649 Y68.548 E3.37955
G1 X140.532 Y68.859 E3.39613
G1 X140.409 Y69.136 E3.41125
G1 X140.265 Y69.411 E3.42674
G1 X140.102 Y69.679 E3.44239
G1 X139.926 Y69.931 E3.45772
G1 X139.726 Y70.181 E3.4737
G1 X139.518 Y70.41 E3.48913
G1 X139.1 Y70.816 E3.5182
G1 X139.1 Y115.184 E5.73173
G1 X139.518 Y115.59 E5.7608
G1 X139.724 Y115.816 E5.77606
G1 X139.926 Y116.069 E5.79221
G1 X140.102 Y116.321 E5.80755
G1 X140.265 Y116.589 E5.8232
G1 X140.409 Y116.864 E5.83868
G1 X140.536 Y117.15 E5.8543
G1 X140.64 Y117.425 E5.86896
G1 X140.731 Y117.728 E5.88475
G1 X140.805 Y118.042 E5.90084
G1 X140.853 Y118.323 E5.91506
G1 X140.886 Y118.642 E5.93106
G1 X140.899 Y118.957 E5.94679
G1 X140.892 Y119.265 E5.96216
G1 X140.864 Y119.587 E5.97829
G1 X140.819 Y119.884 E5.99327
G1 X140.753 Y120.189 E6.00884
G1 X140.668 Y120.484 E6.02416
G1 X140.56 Y120.791 E6.0404
G1 X140.444 Y121.061 E6.05506
G1 X140.303 Y121.342 E6.07074
G1 X140.145 Y121.611 E6.08631
G1 X139.962 Y121.881 E6.10258
G1 X139.784 Y122.111 E6.11709
G1 X139.567 Y122.358 E6.13349
G1 X139.357 Y122.568 E6.14831
G1 X139.114 Y122.782 E6.16446
G1 X138.881 Y122.962 E6.17915
G1 X138.611 Y123.145 E6.19543
G1 X138.347 Y123.3 E6.2107
G1 X138.065 Y123.442 E6.22645
G1 X137.793 Y123.559 E6.24122
G1 X137.484 Y123.668 E6.25757
G1 X137.195 Y123.751 E6.27257
G1 X136.888 Y123.818 E6.28825
G1 X136.588 Y123.864 E6.30339
G1 X136.271 Y123.891 E6.31926
G1 X135.964 Y123.899 E6.33458
G1 X135.647 Y123.886 E6.35041
G1 X135.328 Y123.854 E6.36641
G1 X135.042 Y123.805 E6.38088
G1 X134.728 Y123.731 E6.39698
G1 X134.441 Y123.645 E6.41193
G1 X134.141 Y123.532 E6.42792
G1 X133.856 Y123.405 E6.44349
G1 X133.592 Y123.267 E6.45835
G1 X133.318 Y123.1 E6.47436
G1 X133.066 Y122.924 E6.48969
G1 X132.816 Y122.724 E6.50566
G1 X132.59 Y122.518 E6.52092
G1 X132.185 Y122.099 E6.54999
G1 X101.249 Y122.099 E8.0934
G1 X100.856 Y122.112 E8.11301
G1 X100.454 Y122.148 E8.13315
G1 X100.053 Y122.21 E8.15339
G1 X99.659 Y122.296 E8.17351
G1 X99.272 Y122.405 E8.19357
G1 X98.889 Y122.538 E8.2138
G1 X98.518 Y122.695 E8.2339
G1 X98.156 Y122.874 E8.25405
G1 X97.805 Y123.074 E8.2742
G1 X97.466 Y123.297 E8.29444
G1 X97.145 Y123.539 E8.3145
G1 X96.837 Y123.799 E8.33461
G1 X96.545 Y124.079 E8.35479
G1 X96.272 Y124.376 E8.37492
G1 X96.016 Y124.688 E8.39505
G1 X95.781 Y125.017 E8.41522
G1 X95.566 Y125.359 E8.43538
G1 X95.373 Y125.713 E8.45549
G1 X95.201 Y126.078 E8.47562
G1 X95.052 Y126.454 E8.4958
G1 X94.929 Y126.829 E8.51549
G1 X88.05 Y150.214 E9.73161
G1 X88.338 Y150.721 E9.7607
G1 X88.476 Y151.004 E9.7764
G1 X88.595 Y151.297 E9.79218
G1 X88.694 Y151.594 E9.8078
G1 X88.776 Y151.901 E9.82365
G1 X88.833 Y152.188 E9.83825
G1 X88.877 Y152.522 E9.85506
G1 X88.897 Y152.81 E9.86946
G1 X88.899 Y153.119 E9.88488
G1 X88.881 Y153.432 E9.90052
G1 X88.844 Y153.743 E9.91614
G1 X88.786 Y154.049 E9.93168
G1 X88.706 Y154.369 E9.94814
G1 X88.616 Y154.645 E9.96262
G1 X88.493 Y154.956 E9.97931
G1 X88.367 Y155.222 E9.99399
G1 X88.214 Y155.501 E10.00987
G1 X88.045 Y155.765 E10.02551
G1 X87.873 Y156.001 E10.04007
G1 X87.653 Y156.266 E10.05726
G1 X87.454 Y156.475 E10.07166
G1 X87.227 Y156.686 E10.08712
G1 X86.97 Y156.897 E10.10371
G1 X86.732 Y157.067 E10.1183
G1 X86.452 Y157.241 E10.13475
G1 X86.191 Y157.382 E10.14955
G1 X85.897 Y157.517 E10.16569
G1 X85.607 Y157.629 E10.1812
G1 X85.309 Y157.722 E10.19677
G1 X85.014 Y157.793 E10.21191
G1 X84.707 Y157.848 E10.22747
G1 X84.393 Y157.883 E10.24323
G1 X84.069 Y157.899 E10.25941
G1 X83.763 Y157.893 E10.27468
G1 X83.461 Y157.87 E10.28979
G1 X83.157 Y157.826 E10.30512
G1 X82.833 Y157.758 E10.32164
G1 X82.551 Y157.68 E10.33623
G1 X82.24 Y157.571 E10.35267
G1 X81.953 Y157.451 E10.36819
G1 X81.677 Y157.314 E10.38357
G1 X81.401 Y157.154 E10.39948
G1 X81.168 Y156.997 E10.4135
G1 X80.903 Y156.794 E10.43015
G1 X80.669 Y156.591 E10.44561
G1 X80.442 Y156.367 E10.46152
G1 X80.243 Y156.143 E10.47647
G1 X80.039 Y155.883 E10.49296
G1 X79.866 Y155.631 E10.50821
G1 X79.707 Y155.361 E10.52384
G1 X79.569 Y155.092 E10.53892
G1 X79.445 Y154.802 E10.55466
G1 X79.336 Y154.502 E10.57058
G1 X79.255 Y154.222 E10.58512
G1 X79.184 Y153.899 E10.60162
G1 X79.137 Y153.593 E10.61707
G1 X79.11 Y153.297 E10.6319
G1 X79.101 Y152.979 E10.64777
G1 X79.113 Y152.656 E10.66389
G1 X79.146 Y152.339 E10.67979
G1 X79.194 Y152.05 E10.69441
G1 X79.265 Y151.742 E10.71018
G1 X79.358 Y151.435 E10.72618
G1 X79.457 Y151.166 E10.74048
G1 X79.597 Y150.851 E10.75768
G1 X79.733 Y150.592 E10.77228
G1 X79.891 Y150.331 E10.7875
G1 X80.081 Y150.059 E10.80405
G1 X80.273 Y149.82 E10.81935
G1 X80.479 Y149.592 E10.83468
G1 X80.901 Y149.185 E10.86393
G1 X80.901 Y70.815 E14.77382
G1 X80.477 Y70.405 E14.80325
G1 X80.274 Y70.181 E14.81833
G1 X80.074 Y69.931 E14.8343
G1 X79.894 Y69.673 E14.85
G1 X79.736 Y69.413 E14.86517
G1 X79.591 Y69.136 E14.88077
G1 X79.468 Y68.859 E14.89589
G1 X79.351 Y68.548 E14.91247
G1 X79.269 Y68.272 E14.92684
G1 X79.195 Y67.958 E14.94293
G1 X79.146 Y67.672 E14.95741
G1 X79.113 Y67.347 E14.9737
G1 X79.101 Y67.037 E14.98918
G1 X79.108 Y66.735 E15.00425
G1 X79.136 Y66.412 E15.02043
G1 X79.181 Y66.116 E15.03537
G1 X79.247 Y65.811 E15.05093
G1 X79.332 Y65.516 E15.06625
G1 X79.435 Y65.222 E15.08179
G1 X79.563 Y64.924 E15.09797
G1 X79.697 Y64.658 E15.11283
G1 X79.855 Y64.389 E15.1284
G1 X80.038 Y64.119 E15.14467
G1 X80.217 Y63.887 E15.15929
G0 F2800 X80.294 Y63.95
G0 X82.135 Y65.49
G0 X82.212 Y65.553
G1 F1800 X82.058 Y65.767 E15.17244
G1 X81.932 Y65.996 E15.18548
G1 X81.83 Y66.238 E15.19858
G1 X81.758 Y66.491 E15.21171
G1 X81.715 Y66.749 E15.22476
G1 X81.7 Y67.009 E15.23775
G1 X81.716 Y67.273 E15.25095
G1 X81.762 Y67.532 E15.26407
G1 X81.837 Y67.785 E15.27723
G1 X81.941 Y68.025 E15.29028
G1 X82.071 Y68.254 E15.30342
G1 X82.228 Y68.467 E15.31662
G1 X82.405 Y68.657 E15.32958
G1 X82.604 Y68.83 E15.34273
G1 X82.823 Y68.976 E15.35586
G1 X83.055 Y69.098 E15.36894
G1 X83.3 Y69.191 E15.38202
G1 X83.554 Y69.258 E15.39512
G1 X83.816 Y69.293 E15.40831
G1 X84.078 Y69.299 E15.42138
G1 X84.337 Y69.275 E15.43436
G1 X84.594 Y69.223 E15.44744
G1 X84.846 Y69.141 E15.46066
G1 X85.084 Y69.03 E15.47376
G1 X85.309 Y68.894 E15.48688
G1 X85.516 Y68.731 E15.50003
G1 X85.703 Y68.548 E15.51308
G1 X85.867 Y68.344 E15.52614
G1 X86.01 Y68.123 E15.53927
G1 X86.124 Y67.884 E15.55248
G1 X86.211 Y67.639 E15.56545
G1 X86.27 Y67.382 E15.57861
G1 X86.298 Y67.12 E15.59175
G1 X86.297 Y66.858 E15.60482
G1 X86.265 Y66.598 E15.61789
G1 X86.205 Y66.34 E15.63111
G1 X86.114 Y66.095 E15.64415
G1 X86 Y65.861 E15.65713
G1 X85.855 Y65.639 E15.67036
G1 X85.687 Y65.436 E15.68351
G1 X85.498 Y65.255 E15.69657
G1 X85.289 Y65.095 E15.7097
G1 X85.065 Y64.962 E15.72269
G1 X84.826 Y64.852 E15.73582
G1 X84.574 Y64.772 E15.74901
G1 X84.315 Y64.722 E15.76217
G1 X84.055 Y64.7 E15.77519
G1 X83.793 Y64.71 E15.78827
G1 X83.533 Y64.748 E15.80138
G1 X83.278 Y64.817 E15.81456
G1 X83.034 Y64.913 E15.82764
G1 X82.804 Y65.037 E15.84068
G1 X82.588 Y65.184 E15.85371
G1 X82.39 Y65.358 E15.86686
G1 X82.212 Y65.553 E15.88003
G0 F2800 X82.135 Y65.49
G0 X81.719 Y66.483
G0 X81.677 Y67.277
G0 X81.906 Y68.042
G0 X82.378 Y68.685
G0 X83.039 Y69.134
G0 X87.585 Y70.585
G0 X87.655 Y70.655
G1 F1800 X87.491 Y70.844 E15.89252
G1 X87.355 Y71.049 E15.90479
G1 X87.244 Y71.272 E15.91722
G1 X87.164 Y71.51 E15.92975
G1 X87.116 Y71.751 E15.94201
G1 X87.1 Y71.979 E15.95341
G1 X87.1 Y114.021 E18.05089
G1 X87.116 Y114.249 E18.06229
G1 X87.164 Y114.49 E18.07455
G1 X87.244 Y114.728 E18.08708
G1 X87.355 Y114.951 E18.09951
G1 X87.491 Y115.156 E18.11178
G1 X87.655 Y115.345 E18.12427
G1 X87.844 Y115.509 E18.13675
G1 X88.049 Y115.645 E18.14902
G1 X88.272 Y115.756 E18.16145
G1 X88.51 Y115.836 E18.17398
G1 X88.751 Y115.884 E18.18624
G1 X89 Y115.902 E18.19869
G1 X89.25 Y115.884 E18.2112
G1 X89.491 Y115.836 E18.22346
G1 X89.729 Y115.756 E18.23598
G1 X89.952 Y115.645 E18.24841
G1 X90.157 Y115.509 E18.26069
G1 X90.346 Y115.345 E18.27317
G1 X90.51 Y115.156 E18.28565
G1 X90.646 Y114.951 E18.29793
G1 X90.757 Y114.728 E18.31036
G1 X90.837 Y114.49 E18.32288
G1 X90.885 Y114.249 E18.33514
G1 X90.901 Y114.021 E18.34654
G1 X90.901 Y71.979 E20.44403
G1 X90.885 Y71.751 E20.45543
G1 X90.837 Y71.51 E20.46769
G1 X90.757 Y71.272 E20.48022
G1 X90.646 Y71.049 E20.49265
G1 X90.51 Y70.844 E20.50492
G1 X90.346 Y70.655 E20.5174
G1 X90.157 Y70.491 E20.52989
G1 X89.952 Y70.355 E20.54216
G1 X89.729 Y70.244 E20.55459
G1 X89.491 Y70.164 E20.56712
G1 X89.247 Y70.115 E20.57953
G1 X89 Y70.1 E20.59188
G1 X88.754 Y70.115 E20.60417
G1 X88.51 Y70.164 E20.61659
G1 X88.272 Y70.244 E20.62912
G1 X88.049 Y70.355 E20.64154
G1 X87.844 Y70.491 E20.65382
G1 X87.655 Y70.655 E20.6663
G0 F2800 X87.585 Y70.585
G0 X88.5 Y70.126
G0 X89.252 Y70.076
G0 X89.972 Y70.321
G0 X97.111 Y73.421
G0 X97.208 Y73.443
G1 F1800 X97.148 Y73.759 E20.68235
G1 X97.112 Y74.079 E20.69841
G1 X97.101 Y74.39 E20.71394
G1 X97.101 Y111.61 E22.57085
G1 X97.112 Y111.921 E22.58638
G1 X97.148 Y112.241 E22.60244
G1 X97.208 Y112.557 E22.61849
G1 X97.292 Y112.867 E22.63451
G1 X97.397 Y113.17 E22.65051
G1 X97.526 Y113.466 E22.66662
G1 X97.676 Y113.749 E22.6826
G1 X97.847 Y114.023 E22.69871
G1 X98.039 Y114.281 E22.71476
G1 X98.247 Y114.524 E22.73072
G1 X98.476 Y114.753 E22.74688
G1 X98.719 Y114.961 E22.76283
G1 X98.977 Y115.152 E22.77885
G1 X99.25 Y115.324 E22.79495
G1 X99.534 Y115.474 E22.81097
G1 X99.83 Y115.603 E22.82708
G1 X100.133 Y115.708 E22.84308
G1 X100.443 Y115.792 E22.8591
G1 X100.759 Y115.852 E22.87515
G1 X101.079 Y115.888 E22.89121
G1 X101.389 Y115.9 E22.90669
G1 X128.612 Y115.9 E24.26485
G1 X128.921 Y115.888 E24.28028
G1 X129.241 Y115.852 E24.29635
G1 X129.557 Y115.792 E24.31239
G1 X129.867 Y115.708 E24.32842
G1 X130.17 Y115.603 E24.34441
G1 X130.466 Y115.474 E24.36052
G1 X130.75 Y115.324 E24.37655
G1 X131.023 Y115.152 E24.39265
G1 X131.281 Y114.961 E24.40866
G1 X131.524 Y114.753 E24.42462
G1 X131.753 Y114.524 E24.44078
G1 X131.961 Y114.281 E24.45673
G1 X132.153 Y114.023 E24.47278
G1 X132.324 Y113.749 E24.48889
G1 X132.474 Y113.466 E24.50487
G1 X132.603 Y113.17 E24.52098
G1 X132.708 Y112.867 E24.53698
G1 X132.792 Y112.557 E24.553
G1 X132.852 Y112.241 E24.56905
G1 X132.888 Y111.921 E24.58512
G1 X132.899 Y111.61 E24.60064
G1 X132.899 Y74.39 E26.45755
G1 X132.888 Y74.079 E26.47308
G1 X132.852 Y73.759 E26.48915
G1 X132.792 Y73.443 E26.50519
G1 X132.708 Y73.133 E26.52122
G1 X132.603 Y72.83 E26.53721
G1 X132.474 Y72.534 E26.55332
G1 X132.324 Y72.25 E26.56935
G1 X132.152 Y71.977 E26.58545
G1 X131.961 Y71.719 E26.60146
G1 X131.753 Y71.476 E26.61742
G1 X131.524 Y71.247 E26.63358
G1 X131.281 Y71.039 E26.64953
G1 X131.023 Y70.848 E26.66555
G1 X130.75 Y70.676 E26.68165
G1 X130.466 Y70.526 E26.69767
G1 X130.17 Y70.397 E26.71378
G1 X129.867 Y70.292 E26.72978
G1 X129.557 Y70.208 E26.7458
G1 X129.241 Y70.148 E26.76185
G1 X128.921 Y70.112 E26.77791
G1 X128.611 Y70.101 E26.79339
G1 X101.39 Y70.101 E28.15145
G1 X101.079 Y70.112 E28.16698
G1 X100.759 Y70.148 E28.18304
G1 X100.443 Y70.208 E28.19909
G1 X100.133 Y70.292 E28.21511
G1 X99.83 Y70.397 E28.23111
G1 X99.534 Y70.526 E28.24722
G1 X99.25 Y70.676 E28.26324
G1 X98.977 Y70.848 E28.27934
G1 X98.719 Y71.039 E28.29536
G1 X98.476 Y71.247 E28.31132
G1 X98.247 Y71.476 E28.32747
G1 X98.039 Y71.719 E28.34343
G1 X97.848 Y71.977 E28.35945
G1 X97.676 Y72.25 E28.37554
G1 X97.526 Y72.534 E28.39157
G1 X97.397 Y72.83 E28.40768
G1 X97.292 Y73.133 E28.42367
G1 X97.208 Y73.443 E28.4397
G0 F2800 X97.111 Y73.421
G0 X90.875 Y114.5
G0 X84.328 Y150.622
G0 X84.315 Y150.721
G1 F1800 X84.055 Y150.699 E28.45272
G1 X83.793 Y150.709 E28.4658
G1 X83.533 Y150.747 E28.47891
G1 X83.278 Y150.816 E28.49209
G1 X83.034 Y150.912 E28.50517
G1 X82.804 Y151.036 E28.5182
G1 X82.588 Y151.183 E28.53124
G1 X82.39 Y151.357 E28.54439
G1 X82.212 Y151.552 E28.55756
G1 X82.058 Y151.766 E28.57071
G1 X81.932 Y151.995 E28.58376
G1 X81.83 Y152.237 E28.59686
G1 X81.758 Y152.49 E28.60998
G1 X81.715 Y152.748 E28.62303
G1 X81.7 Y153.01 E28.63612
G1 X81.716 Y153.272 E28.64922
G1 X81.762 Y153.531 E28.66234
G1 X81.837 Y153.784 E28.67551
G1 X81.941 Y154.024 E28.68856
G1 X82.071 Y154.253 E28.70169
G1 X82.228 Y154.466 E28.7149
G1 X82.405 Y154.656 E28.72785
G1 X82.604 Y154.829 E28.74101
G1 X82.823 Y154.975 E28.75414
G1 X83.055 Y155.097 E28.76721
G1 X83.3 Y155.19 E28.78029
G1 X83.554 Y155.257 E28.79339
G1 X83.816 Y155.292 E28.80658
G1 X84.078 Y155.298 E28.81966
G1 X84.337 Y155.274 E28.83263
G1 X84.594 Y155.222 E28.84571
G1 X84.846 Y155.14 E28.85894
G1 X85.084 Y155.029 E28.87204
G1 X85.309 Y154.893 E28.88515
G1 X85.516 Y154.73 E28.8983
G1 X85.703 Y154.547 E28.91135
G1 X85.867 Y154.343 E28.92441
G1 X86.01 Y154.122 E28.93754
G1 X86.124 Y153.883 E28.95075
G1 X86.211 Y153.638 E28.96373
G1 X86.27 Y153.381 E28.97688
G1 X86.298 Y153.119 E28.99003
G1 X86.297 Y152.857 E29.0031
G1 X86.265 Y152.597 E29.01617
G1 X86.205 Y152.339 E29.02938
G1 X86.114 Y152.094 E29.04242
G1 X86 Y151.86 E29.05541
G1 X85.855 Y151.638 E29.06864
G1 X85.687 Y151.435 E29.08178
G1 X85.498 Y151.254 E29.09484
G1 X85.289 Y151.094 E29.10797
G1 X85.065 Y150.961 E29.12097
G1 X84.826 Y150.851 E29.13409
G1 X84.574 Y150.771 E29.14728
