;FLAVOR:Marlin
;TIME:644
;Filament used: 0.179916m
;Layer height: 0.1
;Generated with Cura_SteamEngine master
M190 S50
M104 S207
M109 S207
G21 ;metric values
G90 ;absolute positioning
M82 ;set extruder to absolute mode
M107 ;start with the fan off
G28 X0 Y0 ;move X/Y to min endstops
G28 Z0 ;move Z to min endstops
G1 Z15.0 F9000 ;move the platform down 15mm
G92 E0 ;zero the extruded length
G1 F200 E3 ;extrude 3mm of feed stock
G92 E0 ;zero the extruded length again
G1 F9000
;Put printing message on LCD screen
M117 Printing...
;LAYER_COUNT:138
;LAYER:0
M107
G0 F2700 X101.248 Y100.536 Z0.3
;TYPE:SKIRT
G1 F1350 X101.703 Y100.115 E0.03093
G1 X102.192 Y99.767 E0.06087
G1 X102.89 Y99.333 E0.10188
G1 X103.655 Y98.947 E0.14463
G1 X104.444 Y98.634 E0.18697
G1 X105.296 Y98.385 E0.23126
G1 X106.071 Y98.234 E0.27065
G1 X106.9 Y98.146 E0.31224
G1 X107.819 Y98.129 E0.3581
G1 X108.438 Y98.157 E0.38901
G1 X108.771 Y98.206 E0.4058
G1 X109.521 Y98.343 E0.44384
G1 X110.306 Y98.557 E0.48443
G1 X111.168 Y98.872 E0.53022
G1 X111.734 Y99.121 E0.56107
G1 X112.032 Y99.29 E0.57816
G1 X112.763 Y99.739 E0.62096
G1 X113.269 Y100.096 E0.65186
G1 X113.611 Y100.401 E0.67472
G1 X114.421 Y101.195 E0.73131
G1 X114.988 Y101.864 E0.77506
G1 X115.392 Y102.439 E0.81012
G1 X115.777 Y103.09 E0.84785
G1 X116.061 Y103.671 E0.88012
G1 X116.297 Y104.244 E0.91103
G1 X116.398 Y104.583 E0.92868
G1 X116.694 Y105.734 E0.98797
G1 X116.809 Y106.343 E1.01889
G1 X116.844 Y107.042 E1.05381
G1 X116.811 Y108.454 E1.12427
G1 X116.756 Y109.071 E1.15518
G1 X116.631 Y109.649 E1.18468
G1 X116.423 Y110.384 E1.22279
G1 X116.216 Y110.968 E1.2537
G1 X116.057 Y111.301 E1.27211
G1 X115.511 Y112.345 E1.33089
G1 X115.19 Y112.875 E1.3618
G1 X114.741 Y113.424 E1.39719
G1 X113.764 Y114.454 E1.46801
G1 X113.309 Y114.875 E1.49894
G1 X112.82 Y115.225 E1.52894
G1 X112.114 Y115.665 E1.57044
G1 X111.345 Y116.053 E1.61342
G1 X110.561 Y116.364 E1.6555
G1 X109.972 Y116.555 E1.68639
G1 X109.269 Y116.678 E1.72199
G1 X107.572 Y116.848 E1.80708
G1 X106.953 Y116.87 E1.83798
G1 X106.234 Y116.794 E1.87405
G1 X105.482 Y116.657 E1.91219
G1 X104.881 Y116.507 E1.94309
G1 X104.51 Y116.372 E1.96279
G1 X103.386 Y115.908 E2.02346
G1 X102.83 Y115.635 E2.05436
G1 X102.443 Y115.388 E2.07726
G1 X101.75 Y114.897 E2.11964
G1 X101.08 Y114.323 E2.16365
G1 X100.489 Y113.714 E2.20599
G1 X100.088 Y113.242 E2.23689
G1 X99.906 Y112.981 E2.25276
G1 X99.398 Y112.197 E2.29937
G1 X99.095 Y111.657 E2.33026
G1 X98.896 Y111.174 E2.35632
G1 X98.457 Y109.921 E2.42256
G1 X98.29 Y109.325 E2.45344
G1 X98.208 Y108.784 E2.48074
G1 X98.137 Y108.03 E2.51852
G1 X98.132 Y107.194 E2.56023
G1 X98.208 Y106.252 E2.60738
G1 X98.297 Y105.639 E2.63829
G1 X98.376 Y105.321 E2.65463
G1 X98.58 Y104.606 E2.69173
G1 X98.788 Y104.023 E2.72261
G1 X98.943 Y103.699 E2.74053
G1 X99.489 Y102.655 E2.79931
G1 X99.81 Y102.125 E2.83022
G1 X100.263 Y101.572 E2.86589
G1 X101.248 Y100.536 E2.9372
G0 F2700 X101.538 Y100.811
G1 F1350 X101.975 Y100.41 E2.96679
G1 X102.404 Y100.106 E2.99303
G1 X103.102 Y99.672 E3.03403
G1 X103.803 Y99.319 E3.07319
G1 X104.592 Y99.006 E3.11554
G1 X105.373 Y98.777 E3.15614
G1 X106.148 Y98.626 E3.19553
G1 X106.908 Y98.546 E3.23366
G1 X107.827 Y98.529 E3.27952
G1 X108.699 Y98.6 E3.32316
G1 X109.449 Y98.737 E3.3612
G1 X110.168 Y98.932 E3.39837
G1 X111.03 Y99.247 E3.44415
G1 X111.823 Y99.631 E3.48811
G1 X112.554 Y100.08 E3.53091
G1 X113.037 Y100.423 E3.56047
G1 X113.331 Y100.687 E3.58018
G1 X114.141 Y101.481 E3.63677
G1 X114.661 Y102.093 E3.67683
G1 X115.065 Y102.668 E3.71189
G1 X115.418 Y103.266 E3.74654
G1 X115.702 Y103.847 E3.7788
G1 X115.926 Y104.396 E3.80838
G1 X116.01 Y104.683 E3.8233
G1 X116.306 Y105.834 E3.8826
G1 X116.415 Y106.417 E3.91219
G1 X116.444 Y107.033 E3.94295
G1 X116.411 Y108.445 E4.01342
G1 X116.357 Y109.035 E4.04297
G1 X116.246 Y109.54 E4.06877
G1 X116.038 Y110.275 E4.10688
G1 X115.838 Y110.833 E4.13645
G1 X115.703 Y111.116 E4.1521
G1 X115.157 Y112.16 E4.21087
G1 X114.847 Y112.666 E4.24048
G1 X114.45 Y113.149 E4.27167
G1 X113.473 Y114.179 E4.3425
G1 X113.037 Y114.581 E4.37209
G1 X112.608 Y114.885 E4.39832
G1 X111.902 Y115.325 E4.43982
G1 X111.197 Y115.681 E4.47922
G1 X110.413 Y115.992 E4.5213
G1 X109.849 Y116.173 E4.55085
G1 X109.23 Y116.28 E4.58219
G1 X107.533 Y116.45 E4.66728
G1 X106.94 Y116.469 E4.69688
G1 X106.305 Y116.401 E4.72874
G1 X105.553 Y116.264 E4.76688
G1 X104.979 Y116.118 E4.79643
G1 X104.663 Y116.002 E4.81322
G1 X103.539 Y115.538 E4.87389
G1 X103.007 Y115.275 E4.9035
G1 X102.674 Y115.061 E4.92324
G1 X101.981 Y114.57 E4.96562
G1 X101.367 Y114.044 E5.00595
G1 X100.776 Y113.435 E5.04829
G1 X100.241 Y112.764 E5.09111
G1 X99.733 Y111.98 E5.13771
G1 X99.445 Y111.461 E5.16732
G1 X99.273 Y111.042 E5.18992
G1 X98.834 Y109.789 E5.25616
G1 X98.677 Y109.217 E5.28575
G1 X98.606 Y108.746 E5.30952
G1 X98.535 Y107.992 E5.3473
G1 X98.53 Y107.226 E5.38552
G1 X98.606 Y106.284 E5.43267
G1 X98.761 Y105.431 E5.47592
G1 X98.965 Y104.716 E5.51301
G1 X99.166 Y104.158 E5.5426
G1 X99.297 Y103.884 E5.55776
G1 X99.843 Y102.84 E5.61653
G1 X100.153 Y102.334 E5.64614
G1 X100.553 Y101.847 E5.67758
G1 X101.538 Y100.811 E5.7489
G0 F2700 X101.828 Y101.087
G1 F1350 X102.246 Y100.706 E5.77712
G1 X102.615 Y100.446 E5.79964
G1 X103.313 Y100.012 E5.84064
G1 X103.95 Y99.691 E5.87623
G1 X104.739 Y99.378 E5.91858
G1 X105.449 Y99.17 E5.95549
G1 X106.224 Y99.019 E5.99488
G1 X106.915 Y98.946 E6.02955
G1 X107.834 Y98.929 E6.0754
G1 X108.627 Y98.993 E6.1151
G1 X109.377 Y99.13 E6.15313
G1 X110.031 Y99.308 E6.18695
G1 X110.893 Y99.623 E6.23273
G1 X111.614 Y99.972 E6.2727
G1 X112.345 Y100.421 E6.3155
G1 X112.804 Y100.75 E6.34367
G1 X113.051 Y100.973 E6.36027
G1 X113.861 Y101.767 E6.41686
G1 X114.334 Y102.323 E6.45328
G1 X114.738 Y102.898 E6.48834
G1 X115.059 Y103.441 E6.51981
G1 X115.343 Y104.022 E6.55207
G1 X115.623 Y104.783 E6.59253
G1 X115.919 Y105.934 E6.65182
G1 X116.021 Y106.49 E6.68002
G1 X116.044 Y107.023 E6.70664
G1 X116.011 Y108.435 E6.7771
G1 X115.958 Y108.998 E6.80532
G1 X115.861 Y109.431 E6.82745
G1 X115.653 Y110.166 E6.86556
G1 X115.349 Y110.931 E6.90663
G1 X114.803 Y111.975 E6.96541
G1 X114.506 Y112.456 E6.99361
G1 X114.16 Y112.874 E7.02069
G1 X113.183 Y113.904 E7.09151
G1 X112.766 Y114.285 E7.11969
G1 X112.397 Y114.546 E7.14224
G1 X111.691 Y114.986 E7.18374
G1 X111.05 Y115.309 E7.21956
G1 X110.266 Y115.62 E7.26163
G1 X109.727 Y115.791 E7.28985
G1 X109.19 Y115.882 E7.31702
G1 X107.493 Y116.052 E7.40211
G1 X106.928 Y116.069 E7.43031
G1 X106.377 Y116.007 E7.45797
G1 X105.625 Y115.87 E7.4961
G1 X104.816 Y115.632 E7.53818
G1 X103.692 Y115.168 E7.59884
G1 X103.186 Y114.916 E7.62705
G1 X102.906 Y114.735 E7.64368
G1 X102.213 Y114.244 E7.68605
G1 X101.654 Y113.766 E7.72275
G1 X101.063 Y113.157 E7.76508
G1 X100.577 Y112.546 E7.80403
G1 X100.069 Y111.762 E7.85064
G1 X99.796 Y111.267 E7.87884
G1 X99.651 Y110.91 E7.89807
G1 X99.212 Y109.657 E7.96431
G1 X99.063 Y109.111 E7.99254
G1 X99.005 Y108.709 E8.0128
G1 X98.934 Y107.955 E8.05059
G1 X98.929 Y107.258 E8.08536
G1 X99.005 Y106.316 E8.13251
G1 X99.145 Y105.541 E8.1718
G1 X99.349 Y104.826 E8.2089
G1 X99.651 Y104.069 E8.24956
G1 X100.197 Y103.025 E8.30834
G1 X100.494 Y102.544 E8.33654
G1 X100.843 Y102.123 E8.36382
G1 X101.828 Y101.087 E8.43514
G0 F2700 X102.118 Y101.362
G1 F1350 X102.515 Y101.002 E8.46188
G1 X102.826 Y100.786 E8.48077
G1 X103.524 Y100.352 E8.52178
G1 X104.098 Y100.063 E8.55384
G1 X104.887 Y99.75 E8.59619
G1 X105.526 Y99.562 E8.62942
G1 X106.301 Y99.411 E8.66881
G1 X106.922 Y99.346 E8.69996
G1 X107.841 Y99.329 E8.74582
G1 X108.555 Y99.387 E8.78156
G1 X109.305 Y99.524 E8.81959
G1 X109.894 Y99.684 E8.85004
G1 X110.756 Y99.999 E8.89583
G1 X111.404 Y100.312 E8.93173
G1 X112.135 Y100.761 E8.97453
G1 X112.57 Y101.075 E9.0013
G1 X112.771 Y101.258 E9.01486
G1 X113.581 Y102.052 E9.07145
G1 X114.007 Y102.553 E9.10426
G1 X114.411 Y103.128 E9.13932
G1 X114.699 Y103.617 E9.16763
G1 X114.983 Y104.198 E9.19989
G1 X115.236 Y104.882 E9.23628
G1 X115.532 Y106.033 E9.29557
G1 X115.626 Y106.561 E9.32233
G1 X115.644 Y107.014 E9.34494
G1 X115.611 Y108.426 E9.41541
G1 X115.559 Y108.96 E9.44218
G1 X115.476 Y109.322 E9.4607
G1 X115.268 Y110.057 E9.49881
G1 X114.994 Y110.745 E9.53576
G1 X114.448 Y111.789 E9.59454
G1 X114.165 Y112.245 E9.62131
G1 X113.87 Y112.598 E9.64427
G1 X112.893 Y113.628 E9.71509
G1 X112.496 Y113.989 E9.74186
G1 X112.185 Y114.206 E9.76078
G1 X111.479 Y114.646 E9.80229
G1 X110.902 Y114.937 E9.83453
G1 X110.118 Y115.248 E9.8766
G1 X109.607 Y115.408 E9.90332
G1 X109.15 Y115.484 E9.92643
G1 X107.453 Y115.654 E10.01152
G1 X106.917 Y115.668 E10.03827
G1 X106.449 Y115.614 E10.06177
G1 X105.697 Y115.477 E10.09991
G1 X104.968 Y115.263 E10.13781
G1 X103.844 Y114.799 E10.19848
G1 X103.365 Y114.558 E10.22523
G1 X103.137 Y114.408 E10.23885
G1 X102.444 Y113.917 E10.28122
G1 X101.942 Y113.487 E10.3142
G1 X101.351 Y112.878 E10.35653
G1 X100.913 Y112.329 E10.39157
G1 X100.405 Y111.545 E10.43818
G1 X100.147 Y111.074 E10.46497
G1 X100.028 Y110.777 E10.48094
G1 X99.589 Y109.524 E10.54717
G1 X99.45 Y109.006 E10.57393
G1 X99.403 Y108.671 E10.59081
G1 X99.332 Y107.917 E10.62859
G1 X99.328 Y107.29 E10.65987
G1 X99.404 Y106.348 E10.70702
G1 X99.53 Y105.65 E10.74241
G1 X99.734 Y104.935 E10.7795
G1 X100.006 Y104.255 E10.81604
G1 X100.552 Y103.211 E10.87482
G1 X100.835 Y102.755 E10.9016
G1 X101.133 Y102.398 E10.9248
G1 X102.118 Y101.362 E10.99612
G0 F2700 X102.408 Y101.638
G1 F1350 X102.784 Y101.3 E11.02134
G1 X103.037 Y101.125 E11.03669
G1 X103.735 Y100.691 E11.07769
G1 X104.245 Y100.435 E11.10616
G1 X105.034 Y100.122 E11.14851
G1 X105.602 Y99.955 E11.17805
G1 X106.377 Y99.804 E11.21744
G1 X106.93 Y99.746 E11.24518
G1 X107.849 Y99.729 E11.29104
G1 X108.483 Y99.78 E11.32277
G1 X109.233 Y99.917 E11.36081
G1 X109.756 Y100.059 E11.38784
G1 X110.618 Y100.374 E11.43363
G1 X111.195 Y100.653 E11.46561
G1 X111.926 Y101.102 E11.50841
G1 X112.491 Y101.544 E11.54419
G1 X113.301 Y102.338 E11.60078
G1 X113.679 Y102.783 E11.62991
G1 X114.083 Y103.358 E11.66497
G1 X114.34 Y103.793 E11.69018
G1 X114.624 Y104.374 E11.72244
G1 X114.848 Y104.982 E11.75477
G1 X115.144 Y106.133 E11.81406
G1 X115.231 Y106.631 E11.83928
G1 X115.244 Y107.005 E11.85795
G1 X115.211 Y108.417 E11.92842
G1 X115.159 Y108.92 E11.95365
G1 X115.091 Y109.213 E11.96865
G1 X114.883 Y109.948 E12.00676
G1 X114.64 Y110.56 E12.03961
G1 X114.094 Y111.604 E12.09839
G1 X113.825 Y112.032 E12.12361
G1 X113.58 Y112.323 E12.14259
G1 X112.603 Y113.353 E12.21342
G1 X112.227 Y113.691 E12.23864
G1 X111.974 Y113.867 E12.25402
G1 X111.268 Y114.307 E12.29552
G1 X110.755 Y114.566 E12.32419
G1 X109.971 Y114.877 E12.36627
G1 X109.488 Y115.025 E12.39147
G1 X109.11 Y115.086 E12.41057
G1 X107.413 Y115.256 E12.49566
G1 X106.908 Y115.267 E12.52086
G1 X106.52 Y115.22 E12.54036
G1 X105.768 Y115.083 E12.5785
G1 X105.121 Y114.893 E12.61214
G1 X103.997 Y114.429 E12.67281
G1 X103.368 Y114.082 E12.70864
G1 X102.675 Y113.591 E12.75102
G1 X102.229 Y113.209 E12.78031
G1 X101.638 Y112.6 E12.82265
G1 X101.248 Y112.111 E12.85386
G1 X100.74 Y111.327 E12.90046
G1 X100.5 Y110.882 E12.92569
G1 X100.406 Y110.645 E12.93841
G1 X99.967 Y109.392 E13.00465
G1 X99.838 Y108.903 E13.02988
G1 X99.801 Y108.634 E13.04342
G1 X99.73 Y107.88 E13.08121
G1 X99.726 Y107.323 E13.109
G1 X99.802 Y106.381 E13.15615
G1 X99.915 Y105.76 E13.18764
G1 X100.119 Y105.045 E13.22473
G1 X100.36 Y104.44 E13.25722
G1 X100.906 Y103.396 E13.316
G1 X101.175 Y102.968 E13.34122
G1 X101.423 Y102.674 E13.36041
G1 X102.408 Y101.638 E13.43173
G1 F1500 E6.93173
G0 F2700 X104.108 Y103.495
G0 X104.975 Y104.44
G0 X104.703 Y104.798
G0 X104.637 Y104.724
;TYPE:WALL-INNER
G1 F1500 E13.43173
G1 F1350 X105.079 Y104.319 E13.46164
G1 X105.309 Y104.176 E13.47515
G1 X105.711 Y103.926 E13.49877
G1 X106.082 Y103.782 E13.51862
G1 X106.396 Y103.659 E13.53545
G1 X106.926 Y103.559 E13.56236
G1 X107.114 Y103.523 E13.57191
G1 X107.793 Y103.519 E13.60578
G1 X107.853 Y103.518 E13.60877
G1 X108.573 Y103.65 E13.64529
G1 X108.7 Y103.698 E13.65207
G1 X109.266 Y103.915 E13.68231
G1 X109.493 Y104.054 E13.69559
G1 X109.891 Y104.297 E13.71885
G1 X110.369 Y104.729 E13.751
G1 X110.437 Y104.791 E13.75559
G1 X110.555 Y104.946 E13.76531
G1 X110.901 Y105.4 E13.79379
G1 X111.227 Y106.057 E13.83038
G1 X111.431 Y106.77 E13.86738
G1 X111.498 Y107.5 E13.90395
G1 X111.432 Y108.228 E13.94042
G1 X111.228 Y108.942 E13.97747
G1 X110.902 Y109.599 E14.01406
G1 X110.567 Y110.044 E14.04185
G1 X110.458 Y110.189 E14.0509
G1 X110.371 Y110.268 E14.05676
G1 X109.921 Y110.681 E14.08723
G1 X109.495 Y110.946 E14.11226
G1 X109.289 Y111.074 E14.12436
G1 X108.702 Y111.302 E14.15578
G1 X108.604 Y111.341 E14.16104
G1 X107.886 Y111.477 E14.1975
G1 X107.796 Y111.477 E14.20199
G1 X107.147 Y111.482 E14.23437
G1 X106.964 Y111.449 E14.24365
G1 X106.427 Y111.35 E14.27089
G1 X106.123 Y111.234 E14.28712
G1 X105.734 Y111.085 E14.3079
G1 X105.345 Y110.848 E14.33063
G1 X105.109 Y110.703 E14.34445
G1 X104.666 Y110.302 E14.37426
G1 X104.563 Y110.209 E14.38118
G1 X104.118 Y109.625 E14.41781
G1 X104.096 Y109.597 E14.41959
G1 X104.088 Y109.58 E14.42053
G1 X103.774 Y108.946 E14.45582
G1 X103.728 Y108.786 E14.46413
G1 X103.569 Y108.23 E14.49298
G1 X103.543 Y107.937 E14.50766
G1 X103.502 Y107.499 E14.5296
G1 X103.541 Y107.064 E14.55139
G1 X103.568 Y106.772 E14.56602
G1 X103.727 Y106.213 E14.59502
G1 X103.772 Y106.058 E14.60307
G1 X104.087 Y105.423 E14.63843
G1 X104.098 Y105.401 E14.63966
G1 X104.116 Y105.378 E14.64112
G1 X104.542 Y104.811 E14.6765
G1 X104.637 Y104.724 E14.68293
G0 F2700 X104.83 Y104.934
G1 F1350 X104.782 Y104.996 E14.68471
G1 X104.35 Y105.553 E14.71067
G1 X104.05 Y106.188 E14.736
G1 X104.001 Y106.291 E14.73834
G1 X103.876 Y106.842 E14.75936
G1 X103.82 Y107.089 E14.7685
G1 X103.82 Y107.499 E14.78364
G1 X103.82 Y107.91 E14.79874
G1 X103.876 Y108.161 E14.808
G1 X103.999 Y108.708 E14.82873
G1 X104.049 Y108.814 E14.8318
G1 X104.35 Y109.448 E14.85793
G1 X104.8 Y110.022 E14.88401
G1 X104.855 Y110.092 E14.88552
G1 X105.307 Y110.46 E14.90621
G1 X105.49 Y110.609 E14.91354
G1 X105.875 Y110.802 E14.92936
G1 X106.221 Y110.975 E14.94345
G1 X106.501 Y111.044 E14.95382
G1 X107.014 Y111.17 E14.97338
G1 X107.155 Y111.173 E14.97674
G1 X107.794 Y111.192 E15.00036
G1 X107.829 Y111.186 E15.00066
G1 X108.548 Y111.048 E15.02712
G1 X108.598 Y111.038 E15.02859
G1 X109.165 Y110.79 E15.05041
G1 X109.348 Y110.71 E15.05626
G1 X109.734 Y110.426 E15.07387
G1 X110.2 Y110.083 E15.09411
G1 X110.2 Y109.901 E15.10188
G1 X110.2 Y105.112 E15.3408
G1 X110.2 Y104.917 E15.34821
G1 X109.704 Y104.552 E15.36982
G1 X109.349 Y104.291 E15.38595
G1 X109.142 Y104.201 E15.39305
G1 X108.599 Y103.963 E15.41407
G1 X108.517 Y103.948 E15.4155
G1 X107.795 Y103.809 E15.44298
G1 X107.123 Y103.829 E15.46697
G1 X106.978 Y103.834 E15.47196
G1 X106.476 Y103.963 E15.491
G1 X106.184 Y104.039 E15.50187
G1 X105.856 Y104.207 E15.51528
G1 X105.457 Y104.412 E15.53174
G1 X105.28 Y104.559 E15.5391
G1 X104.83 Y104.934 E15.56086
G0 F2700 X105.119 Y105.214
;TYPE:WALL-OUTER
G1 F1350 X104.693 Y105.764 E15.59556
G1 X104.381 Y106.422 E15.63189
G1 X104.22 Y107.134 E15.66831
G1 X104.22 Y107.866 E15.70483
G1 X104.38 Y108.577 E15.74119
G1 X104.692 Y109.236 E15.77757
G1 X105.142 Y109.81 E15.81396
G1 X105.708 Y110.271 E15.85038
G1 X106.36 Y110.597 E15.88674
G1 X107.068 Y110.771 E15.92312
G1 X107.762 Y110.791 E15.95775
G1 X108.479 Y110.654 E15.99417
G1 X109.147 Y110.361 E16.03056
G1 X109.8 Y109.881 E16.071
G1 X109.8 Y105.119 E16.30857
G1 X109.148 Y104.64 E16.34894
G1 X108.48 Y104.347 E16.38533
G1 X107.763 Y104.21 E16.42175
G1 X107.035 Y104.232 E16.45808
G1 X106.327 Y104.415 E16.49457
G1 X105.679 Y104.748 E16.53092
G1 X105.119 Y105.214 E16.56726
G0 F2700 X104.997 Y105.372
G0 X104.603 Y105.065
G0 X104.616 Y104.878
G0 X104.245 Y104.541
G1 F1350 X104.837 Y103.998 E16.60734
G1 X105.531 Y103.567 E16.6481
G1 X106.284 Y103.273 E16.68843
G1 X107.075 Y103.123 E16.72859
G1 X107.886 Y103.118 E16.76905
G1 X108.686 Y103.265 E16.80963
G1 X109.441 Y103.553 E16.84995
G1 X110.132 Y103.976 E16.89037
G1 X110.731 Y104.517 E16.93064
G1 X111.243 Y105.189 E16.97279
G1 X111.603 Y105.915 E17.01322
