;FLAVOR:Marlin
;TIME:4485
;Filament used: 1.7243m
;Layer height: 0.1
;Generated with Cura_SteamEngine master
M190 S50
M104 S207
M109 S207
G21 ;metric values
G90 ;absolute positioning
M82 ;set extruder to absolute mode
M107 ;start with the fan off
G28 X0 Y0 ;move X/Y to min endstops
G28 Z0 ;move Z to min endstops
G1 Z15.0 F9000 ;move the platform down 15mm
G92 E0 ;zero the extruded length
G1 F200 E3 ;extrude 3mm of feed stock
G92 E0 ;zero the extruded length again
G1 F9000
;Put printing message on LCD screen
M117 Printing...
;LAYER_COUNT:248
;LAYER:0
M107
G0 F2700 X90.681 Y90.944 Z0.3
;TYPE:SKIRT
G1 F1350 X92.221 Y89.543 E0.10387
G1 X92.424 Y89.372 E0.11711
G1 X93.499 Y88.53 E0.18523
G1 X93.729 Y88.364 E0.19939
G1 X95.544 Y87.16 E0.30805
G1 X95.959 Y86.923 E0.33189
G1 X98.417 Y85.727 E0.46827
G1 X98.88 Y85.54 E0.49318
G1 X101.527 Y84.68 E0.63203
G1 X101.998 Y84.562 E0.65626
G1 X104.058 Y84.189 E0.7607
G1 X104.318 Y84.151 E0.77381
G1 X105.672 Y84.007 E0.84175
G1 X105.944 Y83.989 E0.85535
G1 X108.096 Y83.924 E0.96276
G1 X108.586 Y83.942 E0.98722
G1 X111.328 Y84.234 E1.12479
G1 X111.819 Y84.321 E1.14967
G1 X114.52 Y84.995 E1.28856
G1 X114.995 Y85.149 E1.31347
G1 X117.576 Y86.19 E1.45231
G1 X118.027 Y86.41 E1.47735
G1 X120.447 Y87.805 E1.61671
G1 X120.867 Y88.088 E1.64197
G1 X123.071 Y89.812 E1.78157
G1 X123.429 Y90.133 E1.80556
G1 X124.905 Y91.645 E1.91098
G1 X125.085 Y91.844 E1.92437
G1 X125.942 Y92.864 E1.99083
G1 X126.109 Y93.078 E2.00438
G1 X127.354 Y94.809 E2.11075
G1 X127.61 Y95.221 E2.13495
G1 X128.915 Y97.675 E2.27362
G1 X129.112 Y98.115 E2.29767
G1 X129.832 Y100.06 E2.40114
G1 X129.866 Y100.155 E2.40618
G1 X130.116 Y100.893 E2.44505
G1 X130.228 Y101.302 E2.46621
G1 X130.786 Y103.937 E2.60058
G1 X130.855 Y104.427 E2.62527
G1 X131.057 Y107.263 E2.76712
G1 X131.056 Y107.781 E2.79296
G1 X130.849 Y110.613 E2.93463
G1 X130.78 Y111.103 E2.95931
G1 X130.212 Y113.761 E3.09492
G1 X130.074 Y114.239 E3.11974
G1 X129.122 Y116.857 E3.25872
G1 X128.918 Y117.317 E3.28382
G1 X127.608 Y119.781 E3.42305
G1 X127.342 Y120.206 E3.44806
G1 X125.708 Y122.457 E3.58683
G1 X125.379 Y122.848 E3.61232
G1 X123.395 Y124.894 E3.75451
G1 X123.025 Y125.226 E3.77931
G1 X120.86 Y126.915 E3.9163
G1 X120.447 Y127.194 E3.94117
G1 X118.066 Y128.57 E4.07837
G1 X117.634 Y128.782 E4.10238
G1 X115.672 Y129.589 E4.20822
G1 X115.418 Y129.683 E4.22173
G1 X114.116 Y130.107 E4.29004
G1 X113.848 Y130.183 E4.30394
G1 X111.742 Y130.693 E4.41205
G1 X111.268 Y130.775 E4.43605
G1 X108.529 Y131.06 E4.57343
G1 X108.026 Y131.077 E4.59854
G1 X105.253 Y130.977 E4.73698
G1 X104.76 Y130.925 E4.76171
G1 X102.03 Y130.445 E4.9
G1 X101.559 Y130.329 E4.9242
G1 X99.528 Y129.681 E5.03056
G1 X99.28 Y129.591 E5.04372
G1 X98.073 Y129.106 E5.10862
G1 X97.815 Y128.991 E5.12271
G1 X95.836 Y128.009 E5.23293
G1 X95.417 Y127.765 E5.25712
G1 X93.124 Y126.212 E5.39529
G1 X92.731 Y125.903 E5.42023
G1 X90.678 Y124.05 E5.55821
G1 X90.333 Y123.693 E5.58297
G1 X88.575 Y121.6 E5.71934
G1 X88.278 Y121.192 E5.74452
G1 X86.744 Y118.735 E5.88903
G1 X86.504 Y118.281 E5.91465
G1 X85.376 Y115.724 E6.05408
G1 X85.208 Y115.259 E6.07875
G1 X84.457 Y112.629 E6.2152
G1 X84.353 Y112.138 E6.24024
G1 X83.967 Y109.368 E6.37977
G1 X83.933 Y108.867 E6.40483
G1 X83.936 Y106.078 E6.54397
G1 X83.972 Y105.577 E6.56903
G1 X84.361 Y102.83 E6.70744
G1 X84.464 Y102.345 E6.73218
G1 X85.228 Y99.675 E6.87073
G1 X85.402 Y99.198 E6.89606
G1 X86.549 Y96.628 E7.03647
G1 X86.785 Y96.184 E7.06156
G1 X88.264 Y93.823 E7.20055
G1 X88.56 Y93.417 E7.22562
G1 X90.349 Y91.29 E7.36428
G1 X90.681 Y90.944 E7.3882
G0 F2700 X90.951 Y91.24
G1 F1350 X92.491 Y89.839 E7.49207
G1 X92.671 Y89.687 E7.50383
G1 X93.746 Y88.845 E7.57195
G1 X93.95 Y88.697 E7.58452
G1 X95.765 Y87.493 E7.69319
G1 X96.134 Y87.283 E7.71437
G1 X98.592 Y86.087 E7.85075
G1 X99.003 Y85.921 E7.87286
G1 X101.65 Y85.061 E8.01171
G1 X102.069 Y84.955 E8.03328
G1 X104.129 Y84.582 E8.13772
G1 X104.361 Y84.549 E8.14941
G1 X105.715 Y84.405 E8.21735
G1 X105.956 Y84.388 E8.2294
G1 X108.108 Y84.323 E8.33681
G1 X108.544 Y84.34 E8.35858
G1 X111.286 Y84.632 E8.49615
G1 X111.722 Y84.709 E8.51824
G1 X114.423 Y85.383 E8.65713
G1 X114.845 Y85.52 E8.67926
G1 X117.426 Y86.561 E8.81811
G1 X117.827 Y86.757 E8.84038
G1 X120.247 Y88.152 E8.97973
G1 X120.621 Y88.404 E9.00223
G1 X122.825 Y90.128 E9.14183
G1 X123.143 Y90.413 E9.16314
G1 X124.619 Y91.925 E9.26856
G1 X124.779 Y92.102 E9.28046
G1 X125.636 Y93.122 E9.34692
G1 X125.784 Y93.312 E9.35894
G1 X127.029 Y95.043 E9.46532
G1 X127.256 Y95.409 E9.4868
G1 X128.561 Y97.863 E9.62547
G1 X128.737 Y98.254 E9.64686
G1 X129.457 Y100.199 E9.75033
G1 X129.487 Y100.283 E9.75478
G1 X129.737 Y101.021 E9.79366
G1 X129.837 Y101.385 E9.81249
G1 X130.395 Y104.02 E9.94687
G1 X130.456 Y104.456 E9.96883
G1 X130.658 Y107.292 E10.11068
G1 X130.657 Y107.752 E10.13363
G1 X130.45 Y110.584 E10.27529
G1 X130.388 Y111.02 E10.29726
G1 X129.82 Y113.678 E10.43287
G1 X129.698 Y114.103 E10.45493
G1 X128.746 Y116.721 E10.59391
G1 X128.564 Y117.129 E10.61619
G1 X127.254 Y119.593 E10.75542
G1 X127.019 Y119.971 E10.77762
G1 X125.385 Y122.222 E10.9164
G1 X125.092 Y122.57 E10.93909
G1 X123.108 Y124.616 E11.08128
G1 X122.779 Y124.911 E11.10332
G1 X120.614 Y126.6 E11.24032
G1 X120.247 Y126.848 E11.26241
G1 X117.866 Y128.224 E11.39961
G1 X117.482 Y128.412 E11.42094
G1 X115.52 Y129.219 E11.52678
G1 X115.294 Y129.303 E11.53881
G1 X113.992 Y129.727 E11.60713
G1 X113.754 Y129.794 E11.61946
G1 X111.648 Y130.304 E11.72757
G1 X111.226 Y130.377 E11.74894
G1 X108.487 Y130.662 E11.88632
G1 X108.041 Y130.677 E11.90859
G1 X105.268 Y130.577 E12.04702
G1 X104.829 Y130.531 E12.06904
G1 X102.099 Y130.051 E12.20733
G1 X101.68 Y129.948 E12.22886
G1 X99.649 Y129.3 E12.33522
G1 X99.429 Y129.22 E12.3469
G1 X98.222 Y128.735 E12.41179
G1 X97.993 Y128.632 E12.42432
G1 X96.014 Y127.65 E12.53454
G1 X95.642 Y127.434 E12.556
G1 X93.349 Y125.881 E12.69417
G1 X92.999 Y125.606 E12.71638
G1 X90.946 Y123.753 E12.85435
G1 X90.64 Y123.436 E12.87633
G1 X88.882 Y121.343 E13.0127
G1 X88.618 Y120.98 E13.03509
G1 X87.084 Y118.523 E13.1796
G1 X86.87 Y118.12 E13.20237
G1 X85.742 Y115.563 E13.3418
G1 X85.593 Y115.15 E13.3637
G1 X84.842 Y112.52 E13.50016
G1 X84.75 Y112.083 E13.52244
G1 X84.364 Y109.313 E13.66197
G1 X84.333 Y108.868 E13.68422
G1 X84.336 Y106.079 E13.82337
G1 X84.368 Y105.633 E13.84568
G1 X84.757 Y102.886 E13.98409
G1 X84.848 Y102.455 E14.00607
G1 X85.612 Y99.785 E14.14462
G1 X85.767 Y99.361 E14.16714
G1 X86.914 Y96.791 E14.30755
G1 X87.124 Y96.396 E14.32987
G1 X88.603 Y94.035 E14.46887
G1 X88.866 Y93.674 E14.49115
G1 X90.655 Y91.547 E14.62981
G1 X90.951 Y91.24 E14.65109
G1 F1500 E8.15109
G0 F2700 X92.672 Y93.089
G0 X93.532 Y94.042
G0 X93.589 Y94.098
G0 X93.518 Y94.029
;TYPE:WALL-INNER
G1 F1500 E14.65109
G1 F1350 X95.53 Y92.216 E14.7862
G1 X97.778 Y90.7 E14.92148
G1 X100.216 Y89.511 E15.0568
G1 X102.779 Y88.678 E15.19126
G1 X105.446 Y88.209 E15.32636
G1 X108.153 Y88.113 E15.46149
G1 X110.848 Y88.397 E15.59669
G1 X113.471 Y89.051 E15.73156
G1 X115.982 Y90.065 E15.86666
G1 X118.32 Y91.416 E16.00138
G1 X120.453 Y93.082 E16.13641
G1 X122.335 Y95.03 E16.27154
G1 X123.928 Y97.223 E16.40677
G1 X125.198 Y99.612 E16.54175
G1 X126.123 Y102.153 E16.67666
G1 X126.685 Y104.799 E16.81162
G1 X126.874 Y107.5 E16.9467
G1 X126.685 Y110.201 E17.08178
G1 X126.123 Y112.847 E17.21674
G1 X125.198 Y115.388 E17.35165
G1 X123.928 Y117.777 E17.48663
G1 X122.335 Y119.97 E17.62186
G1 X120.453 Y121.918 E17.75699
G1 X118.32 Y123.584 E17.89202
G1 X115.982 Y124.935 E18.02674
G1 X113.471 Y125.949 E18.16184
G1 X110.848 Y126.603 E18.29671
G1 X108.153 Y126.887 E18.43191
G1 X105.446 Y126.791 E18.56704
G1 X102.779 Y126.322 E18.70214
G1 X100.216 Y125.489 E18.8366
G1 X97.778 Y124.3 E18.97192
G1 X95.53 Y122.784 E19.1072
G1 X93.518 Y120.971 E19.24231
G1 X91.783 Y118.905 E19.37691
G1 X90.348 Y116.604 E19.5122
G1 X89.247 Y114.136 E19.64703
G1 X88.501 Y111.531 E19.78222
G1 X88.124 Y108.853 E19.91714
G1 X88.124 Y106.147 E20.05214
G1 X88.501 Y103.469 E20.18707
G1 X89.247 Y100.864 E20.32226
G1 X90.348 Y98.396 E20.45708
G1 X91.783 Y96.095 E20.59237
G1 X93.518 Y94.029 E20.72697
G0 F2700 X93.589 Y94.098
G0 X103.078 Y104.131
G0 X103.151 Y104.199
G1 F1350 X103.049 Y104.331 E20.73529
G1 X102.399 Y105.273 E20.79239
G1 X102.329 Y105.422 E20.80061
G1 X101.924 Y106.491 E20.85764
G1 X101.887 Y106.651 E20.86583
G1 X101.75 Y107.789 E20.92302
G1 X101.75 Y107.954 E20.93125
G1 X101.886 Y109.093 E20.98848
G1 X101.923 Y109.253 E20.99667
G1 X102.328 Y110.322 E21.0537
G1 X102.398 Y110.471 E21.06191
G1 X103.138 Y111.534 E21.12653
G1 X104.123 Y112.405 E21.19213
G1 X105.286 Y113.014 E21.25763
G1 X106.549 Y113.33 E21.32258
G1 X106.713 Y113.339 E21.33078
G1 X107.858 Y113.34 E21.3879
G1 X108.021 Y113.313 E21.39614
G1 X109.132 Y113.039 E21.45323
G1 X109.285 Y112.977 E21.46147
G1 X110.297 Y112.447 E21.51846
G1 X110.434 Y112.352 E21.52678
G1 X111.287 Y111.598 E21.58358
G1 X111.402 Y111.479 E21.59183
G1 X112.051 Y110.537 E21.6489
G1 X112.137 Y110.395 E21.65719
G1 X112.594 Y109.179 E21.722
G1 X112.751 Y107.872 E21.78767
G1 X112.595 Y106.568 E21.85319
G1 X112.132 Y105.336 E21.91885
G1 X111.404 Y104.27 E21.98326
G1 X111.289 Y104.149 E21.99158
G1 X110.435 Y103.394 E22.04845
G1 X110.298 Y103.299 E22.05677
G1 X109.286 Y102.769 E22.11376
G1 X109.133 Y102.707 E22.122
G1 X108.022 Y102.433 E22.17909
G1 X107.859 Y102.406 E22.18733
G1 X106.712 Y102.405 E22.24456
G1 X106.545 Y102.416 E22.25291
G1 X105.287 Y102.729 E22.31758
G1 X104.123 Y103.34 E22.38317
G1 X103.151 Y104.199 E22.44788
G0 F2700 X103.444 Y104.474
;TYPE:WALL-OUTER
G1 F1350 X103.372 Y104.567 E22.45375
G1 X102.747 Y105.473 E22.50866
G1 X102.698 Y105.578 E22.51445
G1 X102.308 Y106.607 E22.56935
G1 X102.282 Y106.72 E22.57513
G1 X102.15 Y107.813 E22.63006
G1 X102.15 Y107.93 E22.63589
G1 X102.281 Y109.024 E22.69086
G1 X102.307 Y109.137 E22.69665
G1 X102.697 Y110.166 E22.75155
G1 X102.746 Y110.271 E22.75733
G1 X103.439 Y111.266 E22.81782
G1 X104.352 Y112.073 E22.87862
G1 X105.429 Y112.638 E22.93929
G1 X106.608 Y112.933 E22.99993
G1 X106.724 Y112.939 E23.00572
G1 X107.825 Y112.94 E23.06065
G1 X107.94 Y112.921 E23.06647
G1 X109.008 Y112.658 E23.12134
G1 X109.116 Y112.614 E23.12716
G1 X110.09 Y112.104 E23.18201
G1 X110.187 Y112.037 E23.18789
G1 X111.01 Y111.309 E23.24271
G1 X111.091 Y111.225 E23.24853
G1 X111.715 Y110.319 E23.30342
G1 X111.776 Y110.219 E23.30926
G1 X112.203 Y109.083 E23.36981
G1 X112.348 Y107.872 E23.43066
G1 X112.204 Y106.663 E23.4914
G1 X111.775 Y105.522 E23.55222
G1 X111.092 Y104.522 E23.61263
G1 X111.011 Y104.437 E23.61849
G1 X110.188 Y103.709 E23.67331
G1 X110.091 Y103.642 E23.67919
G1 X109.117 Y103.132 E23.73404
G1 X109.009 Y103.088 E23.73986
G1 X107.941 Y102.825 E23.79473
G1 X107.826 Y102.806 E23.80055
G1 X106.725 Y102.805 E23.85548
G1 X106.607 Y102.813 E23.86138
G1 X105.43 Y103.106 E23.92189
G1 X104.352 Y103.672 E23.98264
G1 X103.444 Y104.474 E24.04308
G0 F2700 X103.372 Y104.567
G0 X103.325 Y104.635
G0 X102.915 Y104.351
G0 X91.863 Y96.153
G0 X91.458 Y95.861
G1 F1350 X93.232 Y93.748 E24.18072
G1 X95.286 Y91.898 E24.31863
G1 X97.576 Y90.353 E24.45645
G1 X100.062 Y89.141 E24.59443
G1 X102.684 Y88.289 E24.73198
G1 X105.406 Y87.81 E24.86987
G1 X108.167 Y87.712 E25.0077
G1 X110.916 Y88.002 E25.14561
G1 X113.596 Y88.67 E25.28341
G1 X116.154 Y89.703 E25.42104
G1 X118.544 Y91.084 E25.55875
G1 X120.724 Y92.787 E25.69676
G1 X122.642 Y94.772 E25.83447
G1 X124.267 Y97.009 E25.97241
G1 X125.565 Y99.45 E26.11034
G1 X126.507 Y102.039 E26.24779
G1 X127.082 Y104.745 E26.38581
G1 X127.275 Y107.5 E26.5236
G1 X127.082 Y110.255 E26.66138
G1 X126.507 Y112.961 E26.7994
G1 X125.565 Y115.55 E26.93685
G1 X124.267 Y117.991 E27.07478
G1 X122.642 Y120.228 E27.21272
G1 X120.724 Y122.213 E27.35043
G1 X118.544 Y123.916 E27.48844
G1 X116.154 Y125.297 E27.62615
G1 X113.596 Y126.33 E27.76378
G1 X110.916 Y126.998 E27.90158
G1 X108.167 Y127.288 E28.03949
G1 X105.406 Y127.19 E28.17732
G1 X102.684 Y126.711 E28.31521
G1 X100.062 Y125.859 E28.45276
G1 X97.576 Y124.647 E28.59074
G1 X95.286 Y123.102 E28.72856
G1 X93.232 Y121.252 E28.86647
G1 X91.458 Y119.139 E29.00411
G1 X89.994 Y116.793 E29.14208
G1 X88.869 Y114.269 E29.27994
G1 X88.109 Y111.618 E29.41753
G1 X87.724 Y108.881 E29.55542
G1 X87.724 Y106.119 E29.69322
G1 X88.109 Y103.382 E29.83111
G1 X88.869 Y100.731 E29.9687
G1 X89.994 Y98.207 E30.10656
G1 X91.458 Y95.861 E30.24453
G0 F2700 X91.586 Y95.708
G0 X91.967 Y96.03
G0 X93.417 Y120.57
;TYPE:SKIN
G1 F1350 X94.088 Y121.241 E30.29187
G1 X94.158 Y121.311
G0 F2700 X96.906 Y123.494
G1 F1350 X91.462 Y118.05 E30.67597
G1 X91.392 Y117.98
G0 F2700 X90.524 Y116.546
G1 F1350 X98.361 Y124.382 E31.22888
G1 X98.431 Y124.452
G0 F2700 X99.465 Y124.921
G1 F1350 X90.058 Y115.514 E31.8926
G1 X89.988 Y115.444
G0 F2700 X89.603 Y114.493
G1 F1350 X100.501 Y125.391 E32.66151
G1 X100.571 Y125.461
G0 F2700 X101.339 Y125.664
G1 F1350 X89.281 Y113.605 E33.5123
G1 X89.211 Y113.535
G0 F2700 X89.054 Y112.813
G1 F1350 X102.177 Y125.936 E34.4382
G1 X102.247 Y126.006
G0 F2700 X102.98 Y126.173
G1 F1350 X88.827 Y112.02 E35.43677
G1 X88.757 Y111.95
G0 F2700 X88.645 Y111.273
G1 F1350 X103.666 Y126.294 E36.49658
G1 X103.736 Y126.364
G0 F2700 X104.352 Y126.414
G1 F1350 X88.553 Y110.614 E37.61132
G1 X88.483 Y110.544
G0 F2700 X88.46 Y109.956
G1 F1350 X105.039 Y126.535 E38.78106
G1 X105.109 Y126.605
G0 F2700 X105.687 Y126.618
G1 F1350 X88.367 Y109.298 E40.00308
G1 X88.297 Y109.228
G0 F2700 X88.303 Y108.668
G1 F1350 X106.273 Y126.638 E41.27096
G1 X106.343 Y126.708
G0 F2700 X106.86 Y126.659
G1 F1350 X88.303 Y108.102 E42.58026
G1 X88.233 Y108.032
G0 F2700 X88.303 Y107.536
G1 F1350 X107.446 Y126.68 E43.93093
G1 X107.516 Y126.75
G0 F2700 X108.033 Y126.701
G1 F1350 X88.303 Y106.971 E45.32299
G1 X88.233 Y106.901
G0 F2700 X88.303 Y106.405
G1 F1350 X108.559 Y126.661 E46.75216
G1 X108.629 Y126.731
G0 F2700 X109.071 Y126.608
G1 F1350 X88.342 Y105.878 E48.21474
G1 X88.272 Y105.808
G0 F2700 X88.412 Y105.382
G1 F1350 X109.583 Y126.553 E49.70847
G1 X109.653 Y126.623
G0 F2700 X110.095 Y126.499
G1 F1350 X88.482 Y104.887 E51.23335
G1 X88.412 Y104.817
G0 F2700 X88.552 Y104.391
G1 F1350 X110.607 Y126.446 E52.78945
G1 X110.677 Y126.516
G0 F2700 X111.084 Y126.357
G1 F1350 X88.621 Y103.895 E54.3743
G1 X88.551 Y103.825
G0 F2700 X88.703 Y103.411
G1 F1350 X111.536 Y126.244 E55.98529
G1 X111.606 Y126.314
G0 F2700 X111.989 Y126.131
G1 F1350 X88.829 Y102.971 E57.61935
G1 X88.759 Y102.901
G0 F2700 X88.955 Y102.531
G1 F1350 X112.441 Y126.018 E59.27645
G1 X112.511 Y126.088
G0 F2700 X112.895 Y125.906
G1 F1350 X89.081 Y102.092 E60.95666
G1 X89.011 Y102.022
G0 F2700 X89.207 Y101.652
G1 F1350 X113.347 Y125.792 E62.65987
G1 X113.417 Y125.862
G0 F2700 X113.758 Y125.638
G1 F1350 X89.333 Y101.212 E64.38322
G1 X89.263 Y101.142
G0 F2700 X89.475 Y100.789
G1 F1350 X114.161 Y125.475 E66.12495
G1 X114.231 Y125.545
G0 F2700 X114.564 Y125.312
G1 F1350 X89.65 Y100.398 E67.88276
G1 X89.58 Y100.328
G0 F2700 X89.825 Y100.007
G1 F1350 X114.967 Y125.15 E69.6567
G1 X115.037 Y125.22
G0 F2700 X115.37 Y124.987
G1 F1350 X89.999 Y99.616 E71.44676
G1 X89.929 Y99.546
G0 F2700 X90.173 Y99.224
G1 F1350 X115.773 Y124.824 E73.25298
G1 X115.843 Y124.894
G0 F2700 X116.145 Y124.631
G1 F1350 X104.122 Y112.608 E74.10127
G1 X104.052 Y112.538
G0 F2700 X105.278 Y113.197
G1 F1350 X116.504 Y124.423 E74.89333
G1 X116.574 Y124.493
G0 F2700 X116.862 Y124.216
G1 F1350 X106.032 Y113.385 E75.65748
G1 X105.962 Y113.315
G0 F2700 X106.731 Y113.519
G1 F1350 X117.221 Y124.009 E76.3976
G1 X117.291 Y124.079
G0 F2700 X117.579 Y123.802
G1 F1350 X107.297 Y113.519 E77.12309
G1 X107.227 Y113.449
G0 F2700 X107.862 Y113.519
G1 F1350 X117.938 Y123.595 E77.834
G1 X118.008 Y123.665
G0 F2700 X118.287 Y123.378
G1 F1350 X108.33 Y113.422 E78.53649
G1 X108.26 Y113.352
G0 F2700 X108.784 Y113.31
G1 F1350 X118.605 Y123.13 E79.22938
G1 X118.675 Y123.2
G0 F2700 X118.922 Y122.882
G1 F1350 X109.232 Y113.192 E79.91306
G1 X109.162 Y113.122
G0 F2700 X109.613 Y113.007
G1 F1350 X119.24 Y122.634 E80.5923
G1 X119.31 Y122.704
G0 F2700 X119.558 Y122.386
G1 F1350 X109.984 Y112.813 E81.26776
