;FLAVOR:Marlin
;TIME:5442
;Filament used: 3.22546m
;Layer height: 0.2
;MINX:96.518
;MINY:57.841
;MINZ:0.2
;MAXX:176.424
;MAXY:131.902
;MAXZ:14
;Generated with Cura_SteamEngine 5.2.1
M140 S60
M105
M190 S60
M104 S205
M105
M109 S205
M82 ;absolute extrusion mode
; Ender 3 Custom Start G-code
G92 E0 ; Reset Extruder
G28 ; Home all axes
G1 Z2.0 F3000 ; Move Z Axis up little to prevent scratching of Heat Bed
G1 X0.1 Y20 Z0.3 F5000.0 ; Move to start position
G1 X0.1 Y200.0 Z0.3 F1500.0 E15 ; Draw the first line
G1 X0.4 Y200.0 Z0.3 F5000.0 ; Move to side a little
G1 X0.4 Y20 Z0.3 F1500.0 E30 ; Draw the second line
G92 E0 ; Reset Extruder
G1 Z2.0 F3000 ; Move Z Axis up little to prevent scratching of Heat Bed
G1 X5 Y20 Z0.3 F5000.0 ; Move over to prevent blob squish
G92 E0
G92 E0
G1 F2700 E-5
;LAYER_COUNT:70
;LAYER:0
M107
G0 F6000 X105.78 Y63.578 Z0.2
;TYPE:SKIRT
G1 F2700 E0
G1 F1200 X106.264 Y62.774 E0.03121
G1 X106.815 Y62.015 E0.06241
G1 X107.429 Y61.306 E0.0936
G1 X108.1 Y60.651 E0.12479
G1 X108.825 Y60.057 E0.15596
G1 X109.598 Y59.526 E0.18716
G1 X110.414 Y59.062 E0.21838
G1 X111.266 Y58.67 E0.24957
G1 X112.148 Y58.352 E0.28075
G1 X113.054 Y58.11 E0.31194
G1 X113.978 Y57.947 E0.34315
G1 X115.125 Y57.854 E0.38143
G1 X115.754 Y57.841 E0.40235
G1 X164.875 Y57.842 E2.03612
G1 X165.573 Y57.852 E2.05934
G1 X166.509 Y57.906 E2.09052
G1 X167.437 Y58.038 E2.1217
G1 X168.351 Y58.25 E2.15291
G1 X169.243 Y58.539 E2.18409
G1 X170.108 Y58.902 E2.21529
G1 X170.938 Y59.338 E2.24648
G1 X171.729 Y59.843 E2.27769
G1 X172.473 Y60.414 E2.30888
G1 X173.166 Y61.046 E2.34008
G1 X173.803 Y61.734 E2.37126
G1 X174.378 Y62.475 E2.40246
G1 X174.889 Y63.261 E2.43364
G1 X175.331 Y64.089 E2.46486
G1 X175.7 Y64.951 E2.49604
G1 X175.995 Y65.841 E2.52723
G1 X176.213 Y66.753 E2.55842
G1 X176.353 Y67.681 E2.58963
G1 X176.411 Y68.542 E2.61833
G1 X176.424 Y69.171 E2.63926
G1 X176.423 Y83.306 E3.10939
G1 X176.412 Y84.01 E3.13281
G1 X176.357 Y84.946 E3.16399
G1 X176.223 Y85.874 E3.19518
G1 X176.01 Y86.788 E3.22639
G1 X175.72 Y87.68 E3.25759
G1 X175.356 Y88.544 E3.28877
G1 X175.103 Y89.044 E3.30741
G1 X174.65 Y89.886 E3.33921
G1 X174.042 Y90.979 E3.38081
G1 X172.895 Y93.183 E3.46345
G1 X171.797 Y95.444 E3.54705
G1 X170.762 Y97.744 E3.63094
G1 X169.78 Y100.102 E3.71589
G1 X168.894 Y102.408 E3.79806
G1 X168.061 Y104.777 E3.88158
G1 X167.286 Y107.194 E3.966
G1 X166.592 Y109.589 E4.04893
G1 X166.055 Y111.63 E4.11913
G1 X165.778 Y112.526 E4.15032
G1 X165.425 Y113.395 E4.18152
G1 X165 Y114.231 E4.21271
G1 X164.506 Y115.028 E4.2439
G1 X163.945 Y115.78 E4.2751
G1 X163.322 Y116.481 E4.3063
G1 X162.642 Y117.127 E4.33749
G1 X161.909 Y117.712 E4.36868
G1 X161.129 Y118.233 E4.39988
G1 X160.308 Y118.685 E4.43105
G1 X159.383 Y119.093 E4.46468
G1 X158.232 Y119.538 E4.50572
G1 X157.677 Y119.744 E4.52541
G1 X155.335 Y120.691 E4.60943
G1 X153.033 Y121.699 E4.69302
G1 X150.769 Y122.766 E4.77626
G1 X148.539 Y123.896 E4.85941
G1 X146.285 Y125.12 E4.94472
G1 X144.133 Y126.369 E5.02748
G1 X141.982 Y127.698 E5.11157
G1 X139.883 Y129.078 E5.19512
G1 X139.367 Y129.438 E5.21605
G1 X138.539 Y129.999 E5.24932
G1 X137.741 Y130.491 E5.2805
G1 X136.904 Y130.914 E5.31169
G1 X136.034 Y131.264 E5.34288
G1 X135.137 Y131.538 E5.37407
G1 X134.22 Y131.735 E5.40527
G1 X133.289 Y131.853 E5.43648
G1 X132.704 Y131.887 E5.45597
G1 X132.041 Y131.902 E5.47803
G1 X110.936 Y131.901 E6.17998
G1 X110.238 Y131.892 E6.2032
G1 X109.302 Y131.84 E6.23438
G1 X108.373 Y131.708 E6.26559
G1 X107.459 Y131.498 E6.29678
G1 X106.566 Y131.211 E6.32798
G1 X105.701 Y130.848 E6.35918
G1 X104.87 Y130.414 E6.39036
G1 X104.079 Y129.91 E6.42156
G1 X103.334 Y129.34 E6.45276
G1 X102.64 Y128.709 E6.48395
G1 X102.003 Y128.022 E6.51511
G1 X101.426 Y127.282 E6.54632
G1 X100.914 Y126.496 E6.57752
G1 X100.471 Y125.669 E6.60873
G1 X100.1 Y124.808 E6.63991
G1 X99.804 Y123.918 E6.67111
G1 X99.585 Y123.006 E6.7023
G1 X99.444 Y122.079 E6.73349
G1 X99.384 Y121.182 E6.76339
G1 X99.324 Y118.899 E6.83935
G1 X99.197 Y116.325 E6.92506
G1 X99 Y113.812 E7.0089
G1 X98.735 Y111.322 E7.09219
G1 X98.396 Y108.82 E7.17617
G1 X97.988 Y106.333 E7.25999
G1 X97.511 Y103.862 E7.34369
G1 X96.893 Y101.103 E7.43773
G1 X96.76 Y100.405 E7.46136
G1 X96.704 Y100.048 E7.47338
G1 X96.635 Y99.525 E7.49093
G1 X96.58 Y99.016 E7.50796
G1 X96.518 Y97.63 E7.5541
G1 X96.525 Y97.252 E7.56668
G1 X96.549 Y96.705 E7.58489
G1 X96.588 Y96.135 E7.60389
G1 X96.692 Y95.203 E7.63508
G1 X96.843 Y94.393 E7.66249
G1 X97.074 Y93.457 E7.69455
G1 X97.22 Y92.96 E7.71178
G1 X97.442 Y92.285 E7.73541
G1 X97.75 Y91.477 E7.76417
G1 X98.924 Y88.681 E7.86503
G1 X99.831 Y86.325 E7.949
G1 X100.662 Y83.969 E8.03209
G1 X101.426 Y81.59 E8.1152
G1 X102.132 Y79.157 E8.19946
G1 X102.759 Y76.747 E8.28229
G1 X103.327 Y74.272 E8.36674
G1 X103.83 Y71.762 E8.45189
G1 X104.244 Y69.343 E8.53351
G1 X104.483 Y67.667 E8.58982
G1 X104.572 Y67.111 E8.60855
G1 X104.76 Y66.192 E8.63975
G1 X105.025 Y65.293 E8.67092
G1 X105.366 Y64.419 E8.70212
G1 X105.78 Y63.578 E8.7333
G0 F6000 X106.164 Y63.71
G1 F1200 X106.645 Y62.925 E8.76392
G1 X107.192 Y62.185 E8.79453
G1 X107.801 Y61.495 E8.82514
G1 X108.468 Y60.86 E8.85577
G1 X109.188 Y60.286 E8.8864
G1 X109.955 Y59.776 E8.91703
G1 X110.763 Y59.335 E8.94765
G1 X111.606 Y58.965 E8.97827
G1 X112.478 Y58.671 E9.00887
G1 X113.372 Y58.452 E9.03949
G1 X114.282 Y58.313 E9.07011
G1 X115.136 Y58.254 E9.09858
G1 X115.754 Y58.241 E9.11914
G1 X164.717 Y58.241 E10.74765
G1 X165.567 Y58.252 E10.77593
G1 X166.486 Y58.305 E10.80654
G1 X167.397 Y58.438 E10.83716
G1 X168.293 Y58.649 E10.86778
G1 X169.167 Y58.937 E10.89839
G1 X170.014 Y59.3 E10.92904
G1 X170.825 Y59.735 E10.95965
G1 X171.595 Y60.239 E10.99025
G1 X172.319 Y60.808 E11.02088
G1 X172.991 Y61.438 E11.05152
G1 X173.606 Y62.123 E11.08214
G1 X174.159 Y62.859 E11.11276
G1 X174.646 Y63.64 E11.14337
G1 X175.063 Y64.461 E11.174
G1 X175.408 Y65.315 E11.20463
G1 X175.677 Y66.195 E11.23524
G1 X175.869 Y67.096 E11.26588
G1 X175.982 Y68.009 E11.29647
G1 X176.011 Y68.553 E11.31459
G1 X176.024 Y69.171 E11.33515
G1 X176.023 Y83.3 E11.80509
G1 X176.012 Y84.004 E11.8285
G1 X175.957 Y84.923 E11.85912
G1 X175.823 Y85.834 E11.88975
G1 X175.611 Y86.729 E11.92034
G1 X175.322 Y87.603 E11.95096
G1 X174.751 Y88.855 E11.99673
G1 X174.376 Y89.553 E12.02308
G1 X173.695 Y90.778 E12.0697
G1 X172.545 Y92.988 E12.15256
G1 X171.43 Y95.284 E12.23745
G1 X170.399 Y97.575 E12.32101
G1 X169.413 Y99.941 E12.40627
G1 X168.516 Y102.28 E12.48959
G1 X167.678 Y104.659 E12.57348
G1 X166.898 Y107.096 E12.65858
G1 X166.201 Y109.502 E12.7419
G1 X165.668 Y111.528 E12.81157
G1 X165.395 Y112.407 E12.84219
G1 X165.047 Y113.26 E12.87283
G1 X164.627 Y114.079 E12.90344
G1 X164.137 Y114.858 E12.93405
G1 X163.581 Y115.592 E12.96468
G1 X162.964 Y116.275 E12.99529
G1 X162.29 Y116.902 E13.02591
G1 X161.564 Y117.468 E13.05653
G1 X160.791 Y117.969 E13.08716
G1 X159.978 Y118.401 E13.11778
G1 X159.238 Y118.72 E13.14459
G1 X157.525 Y119.374 E13.20557
G1 X155.204 Y120.313 E13.28885
G1 X152.882 Y121.33 E13.37316
G1 X150.555 Y122.426 E13.45871
G1 X148.346 Y123.545 E13.54107
G1 X146.099 Y124.765 E13.62611
G1 X143.944 Y126.016 E13.70899
G1 X141.758 Y127.367 E13.79446
G1 X139.639 Y128.76 E13.8788
G1 X139.143 Y129.106 E13.89892
G1 X138.315 Y129.667 E13.93218
G1 X137.531 Y130.15 E13.96281
G1 X136.708 Y130.563 E13.99344
G1 X135.852 Y130.903 E14.02407
G1 X134.971 Y131.168 E14.05467
G1 X134.069 Y131.355 E14.08531
G1 X133.155 Y131.463 E14.11592
G1 X132.692 Y131.487 E14.13134
G1 X132.041 Y131.502 E14.153
G1 X110.941 Y131.501 E14.85479
G1 X110.243 Y131.492 E14.87801
G1 X109.324 Y131.44 E14.90862
G1 X108.413 Y131.309 E14.93923
G1 X107.517 Y131.099 E14.96984
G1 X106.642 Y130.812 E15.00047
G1 X105.795 Y130.45 E15.03111
G1 X104.983 Y130.016 E15.06173
G1 X104.212 Y129.514 E15.09233
G1 X103.487 Y128.946 E15.12296
G1 X102.814 Y128.317 E15.1536
G1 X102.199 Y127.633 E15.18419
G1 X101.645 Y126.898 E15.21481
G1 X101.157 Y126.117 E15.24544
G1 X100.738 Y125.297 E15.27606
G1 X100.392 Y124.444 E15.30668
G1 X100.122 Y123.564 E15.33729
G1 X99.929 Y122.663 E15.36794
G1 X99.815 Y121.75 E15.39854
G1 X99.784 Y121.171 E15.41783
G1 X99.724 Y118.869 E15.49442
G1 X99.597 Y116.31 E15.57964
G1 X99.399 Y113.771 E15.66434
G1 X99.131 Y111.262 E15.74827
G1 X98.794 Y108.772 E15.83184
G1 X98.383 Y106.264 E15.91637
G1 X97.907 Y103.804 E15.99971
G1 X97.283 Y101.016 E16.09473
G1 X97.155 Y100.343 E16.11751
G1 X97.032 Y99.482 E16.14644
G1 X96.977 Y98.973 E16.16347
G1 X96.918 Y97.638 E16.20792
G1 X96.925 Y97.26 E16.22049
G1 X96.948 Y96.732 E16.23807
G1 X96.987 Y96.162 E16.25707
G1 X97.169 Y94.801 E16.30274
G1 X97.235 Y94.472 E16.3139
G1 X97.458 Y93.569 E16.34484
G1 X97.604 Y93.072 E16.36207
G1 X97.818 Y92.423 E16.3848
G1 X98.119 Y91.632 E16.41294
G1 X99.291 Y88.843 E16.51356
G1 X100.206 Y86.465 E16.59831
G1 X101.033 Y84.118 E16.68108
G1 X101.814 Y81.685 E16.76606
G1 X102.517 Y79.264 E16.84991
G1 X103.15 Y76.831 E16.93353
G1 X103.717 Y74.361 E17.01782
G1 X104.221 Y71.843 E17.10323
G1 X104.64 Y69.395 E17.18583
G1 X104.878 Y67.731 E17.24174
G1 X104.967 Y67.175 E17.26047
G1 X105.152 Y66.273 E17.2911
G1 X105.415 Y65.39 E17.32174
G1 X105.753 Y64.534 E17.35235
G1 X106.164 Y63.71 E17.38298
G0 F6000 X106.547 Y63.844
G1 F1200 X107.025 Y63.077 E17.41303
G1 X107.568 Y62.356 E17.44305
G1 X108.173 Y61.686 E17.47308
G1 X108.836 Y61.072 E17.50313
G1 X109.549 Y60.519 E17.53315
G1 X110.309 Y60.031 E17.56319
G1 X111.11 Y59.612 E17.59325
G1 X111.944 Y59.266 E17.62328
G1 X112.805 Y58.995 E17.65331
G1 X113.687 Y58.801 E17.68334
G1 X114.583 Y58.686 E17.71339
G1 X115.147 Y58.654 E17.73218
G1 X115.754 Y58.641 E17.75237
G1 X164.717 Y58.641 E19.38089
G1 X165.561 Y58.652 E19.40896
G1 X166.463 Y58.705 E19.43901
G1 X167.356 Y58.837 E19.46904
G1 X168.234 Y59.048 E19.49907
G1 X169.09 Y59.336 E19.52911
G1 X169.917 Y59.698 E19.55914
G1 X170.709 Y60.133 E19.58919
G1 X171.46 Y60.635 E19.61923
G1 X172.163 Y61.202 E19.64927
G1 X172.813 Y61.829 E19.67931
G1 X173.405 Y62.511 E19.70935
G1 X173.935 Y63.242 E19.73938
G1 X174.397 Y64.018 E19.76942
G1 X174.79 Y64.831 E19.79945
G1 X175.108 Y65.676 E19.82948
G1 X175.351 Y66.546 E19.85952
G1 X175.516 Y67.434 E19.88956
G1 X175.611 Y68.564 E19.92728
G1 X175.624 Y69.171 E19.94747
G1 X175.623 Y83.293 E20.41717
G1 X175.612 Y83.997 E20.44059
G1 X175.558 Y84.899 E20.47065
G1 X175.424 Y85.792 E20.50068
G1 X175.212 Y86.67 E20.53072
G1 X174.923 Y87.526 E20.56077
G1 X174.398 Y88.665 E20.60249
G1 X173.951 Y89.496 E20.63387
G1 X173.357 Y90.563 E20.67449
G1 X172.166 Y92.851 E20.76028
G1 X171.083 Y95.082 E20.84276
G1 X170.03 Y97.423 E20.92814
G1 X169.038 Y99.805 E21.01396
G1 X168.129 Y102.172 E21.09829
G1 X167.306 Y104.51 E21.18073
G1 X166.519 Y106.968 E21.26657
G1 X165.81 Y109.414 E21.35128
G1 X165.281 Y111.426 E21.42047
G1 X165.013 Y112.289 E21.45053
G1 X164.669 Y113.124 E21.48056
G1 X164.254 Y113.926 E21.5106
G1 X163.769 Y114.687 E21.54061
G1 X163.218 Y115.403 E21.57066
G1 X162.606 Y116.068 E21.60072
G1 X161.938 Y116.675 E21.63074
G1 X161.219 Y117.221 E21.66077
G1 X160.454 Y117.702 E21.69082
G1 X159.65 Y118.113 E21.72086
G1 X159.094 Y118.347 E21.74092
G1 X157.943 Y118.792 E21.78196
G1 X157.373 Y119.004 E21.80219
G1 X155.03 Y119.952 E21.88626
G1 X152.729 Y120.959 E21.9698
G1 X150.396 Y122.058 E22.05557
G1 X148.139 Y123.202 E22.13973
G1 X145.929 Y124.402 E22.22337
G1 X143.696 Y125.698 E22.30925
G1 X141.549 Y127.024 E22.39318
G1 X139.46 Y128.398 E22.47634
G1 X139.044 Y128.689 E22.49322
G1 X138.09 Y129.336 E22.53156
G1 X137.321 Y129.809 E22.56159
G1 X136.513 Y130.212 E22.59162
G1 X135.672 Y130.542 E22.62167
G1 X134.806 Y130.797 E22.6517
G1 X133.92 Y130.973 E22.68174
G1 X132.68 Y131.087 E22.72316
G1 X132.041 Y131.102 E22.74442
G1 X110.946 Y131.101 E23.44604
G1 X110.248 Y131.092 E23.46926
G1 X109.347 Y131.041 E23.49927
G1 X108.453 Y130.909 E23.52933
G1 X107.575 Y130.7 E23.55935
G1 X106.718 Y130.413 E23.58941
G1 X105.891 Y130.052 E23.61942
G1 X105.098 Y129.619 E23.64947
G1 X104.347 Y129.118 E23.6795
G1 X103.643 Y128.552 E23.70954
G1 X102.992 Y127.926 E23.73958
G1 X102.399 Y127.245 E23.76961
G1 X101.869 Y126.514 E23.79965
G1 X101.405 Y125.739 E23.82969
G1 X101.011 Y124.926 E23.85974
G1 X100.691 Y124.082 E23.88976
G1 X100.447 Y123.212 E23.91981
G1 X100.281 Y122.324 E23.94986
G1 X100.184 Y121.161 E23.98867
G1 X100.124 Y118.883 E24.06447
G1 X99.994 Y116.258 E24.15188
G1 X99.797 Y113.734 E24.23609
G1 X99.531 Y111.238 E24.31957
G1 X99.187 Y108.691 E24.40506
G1 X98.777 Y106.195 E24.48919
G1 X98.301 Y103.732 E24.57262
G1 X97.673 Y100.928 E24.66819
G1 X97.55 Y100.281 E24.6901
G1 X97.494 Y99.924 E24.70212
G1 X97.43 Y99.439 E24.71839
G1 X97.375 Y98.93 E24.73542
G1 X97.318 Y97.645 E24.7782
G1 X97.325 Y97.267 E24.79077
G1 X97.347 Y96.76 E24.80765
G1 X97.386 Y96.19 E24.82665
G1 X97.561 Y94.88 E24.87061
G1 X97.627 Y94.551 E24.88177
G1 X97.842 Y93.682 E24.91155
G1 X97.988 Y93.185 E24.92877
G1 X98.193 Y92.56 E24.95065
G1 X98.488 Y91.787 E24.97817
G1 X99.664 Y88.987 E25.07918
G1 X100.585 Y86.594 E25.16446
G1 X101.409 Y84.258 E25.24685
G1 X102.193 Y81.815 E25.33219
G1 X102.903 Y79.371 E25.41683
G1 X103.541 Y76.916 E25.5012
G1 X104.106 Y74.458 E25.58509
G1 X104.613 Y71.924 E25.67104
G1 X105.037 Y69.447 E25.75462
G1 X105.246 Y67.973 E25.80414
G1 X105.362 Y67.238 E25.82889
G1 X105.544 Y66.353 E25.85894
G1 X105.804 Y65.488 E25.88898
G1 X106.139 Y64.65 E25.91899
G1 X106.547 Y63.844 E25.94904
G1 F2700 E20.94904
;MESH:Thumbscrew_V2.stl
G0 F6000 X111.554 Y92.036
G0 X111.787 Y93.313
G0 X109.665 Y95.699
G0 X109.232 Y96.586
G0 X109.079 Y97.393
G0 X109.131 Y98.305
G0 X109.5 Y99.3
G0 X110.04 Y100.033
G0 X110.61 Y100.501
G0 X110.841 Y100.614
G0 X112.774 Y101.521
G1 F2700 E25.94904
G0 F6000 X112.754 Y101.283
;TYPE:WALL-INNER
G1 F933.9 X112.194 Y101.275 E25.97298
G1 F948.6 X111.867 Y101.231 E25.98686
G1 F950.5 X111.461 Y101.141 E26.00432
G1 F937.5 X110.909 Y100.926 E26.02954
G1 F935.7 X110.414 Y100.628 E26.05419
G1 F946.7 X110.198 Y100.46 E26.06572
G1 F948.6 X109.912 Y100.211 E26.08168
G1 F939.3 X109.52 Y99.742 E26.10765
G1 F948.6 X109.321 Y99.411 E26.1239
G1 F946.7 X109.195 Y99.172 E26.13529
G1 F933.9 X109 Y98.665 E26.15851
G1 F948.6 X108.923 Y98.334 E26.1728
G1 F958.1 X108.861 Y97.867 E26.19243
G1 F944.9 X108.867 Y97.321 E26.21549
G1 F950.5 X108.92 Y96.953 E26.23111
G1 F948.6 X108.998 Y96.613 E26.24578
G1 F933.9 X109.195 Y96.093 E26.26955
G1 F946.7 X109.324 Y95.852 E26.28107
G1 X109.51 Y95.543 E26.29628
G1 X109.703 Y95.299 E26.30939
G1 F948.6 X109.923 Y95.047 E26.32347
G1 F946.7 X110.185 Y94.816 E26.33819
G1 F944.9 X110.414 Y94.638 E26.35044
G1 F935.7 X110.893 Y94.347 E26.37435
G1 F950.5 X111.324 Y94.177 E26.39381
G1 F948.6 X111.563 Y94.103 E26.40433
G1 X111.889 Y94.032 E26.41837
G1 X112.196 Y93.991 E26.4314
G1 X112.753 Y93.984 E26.45484
G1 F965.8 X113.084 Y94.023 E26.46861
G1 F952.4 X113.529 Y94.115 E26.48766
G1 F937.5 X114.046 Y94.315 E26.51126
G1 F948.6 X114.306 Y94.455 E26.52368
G1 F952.4 X114.64 Y94.659 E26.54008
G1 F943 X115.097 Y95.043 E26.56535
G1 F941.2 X115.463 Y95.467 E26.5891
G1 F943 X115.81 Y96.054 E26.61796
G1 F954.3 X115.952 Y96.414 E26.63414
G1 F950.5 X116.043 Y96.696 E26.64659
G1 F935.7 X116.151 Y97.242 E26.67033
G1 X116.151 Y98.03 E26.70394
G1 F933.9 X116.042 Y98.571 E26.72753
G1 F948.6 X115.958 Y98.835 E26.73918
G1 F952.4 X115.821 Y99.191 E26.75517
G1 F948.6 X115.575 Y99.617 E26.77587
G1 F960 X115.362 Y99.914 E26.79106
G1 F952.4 X115.1 Y100.219 E26.80791
G1 F941.2 X114.664 Y100.593 E26.83227
G1 F952.4 X114.321 Y100.805 E26.84917
G1 X114.041 Y100.954 E26.86246
G1 X113.547 Y101.144 E26.88464
G1 F965.8 X113.138 Y101.232 E26.90193
G1 F948.6 X112.754 Y101.283 E26.91823
G0 F6000 X112.316 Y100.828
;TYPE:WALL-OUTER
G1 F1200 X111.946 Y100.789 E26.93061
G1 X111.489 Y100.669 E26.94632
G1 X111.082 Y100.504 E26.96093
G1 X110.75 Y100.306 E26.97378
G1 X110.485 Y100.113 E26.98469
G1 X110.211 Y99.867 E26.99694
G1 X109.922 Y99.523 E27.01188
G1 X109.71 Y99.186 E27.02512
G1 X109.57 Y98.897 E27.0358
G1 X109.468 Y98.626 E27.04543
G1 X109.365 Y98.256 E27.05821
G1 X109.309 Y97.81 E27.07316
G1 X109.318 Y97.401 E27.08676
G1 X109.362 Y97.031 E27.09916
G1 X109.459 Y96.669 E27.11162
