;FLAVOR:Marlin
;TIME:2844
;Filament used: 2.57681m
;Layer height: 0.15
;MINX:60.408
;MINY:76.353
;MINZ:0.3
;MAXX:107.608
;MAXY:123.552
;MAXZ:39.9
;Generated with Cura_SteamEngine 4.4.0
M140 S55
M105
M190 S55
M104 S207
M105
M109 S207
M82 ;absolute extrusion mode
G28 ;Home
G1 Z15.0 F6000 ;Move the platform down 15mm
;Prime the extruder
G92 E0
G1 F200 E3
G92 E0
G92 E0
G92 E0
G1 F1500 E-6.5
;LAYER_COUNT:265
;LAYER:0
M107 P1
G1 F600 Z1.3
G0 F3600 X61.802 Y77.124 Z1.3
;TYPE:SKIRT
G1 F600 Z0.3
G1 F1500 E0
G1 F1800 X62.248 Y76.826 E0.02676
G1 X62.734 Y76.598 E0.05354
G1 X63.248 Y76.445 E0.0803
G1 X63.916 Y76.363 E0.11388
G1 X64.237 Y76.354 E0.1299
G1 X64.338 Y76.353 E0.13494
G1 X72.208 Y76.353 E0.52757
G1 X72.725 Y76.36 E0.55337
G1 X72.956 Y76.371 E0.5649
G1 X74.198 Y76.468 E0.62706
G1 X74.312 Y76.479 E0.63277
G1 X75.21 Y76.578 E0.67784
G1 X75.808 Y76.695 E0.70824
G1 X76.481 Y76.888 E0.74317
G1 X76.532 Y76.903 E0.74583
G1 X77.11 Y77.078 E0.77595
G1 X77.16 Y77.094 E0.77857
G1 X77.775 Y77.29 E0.81078
G1 X78.328 Y77.518 E0.84062
G1 X78.902 Y77.813 E0.87282
G1 X78.948 Y77.837 E0.87541
G1 X79.583 Y78.175 E0.91129
G1 X79.643 Y78.208 E0.91471
G1 X80.144 Y78.487 E0.94332
G1 X80.611 Y78.797 E0.97128
G1 X81.103 Y79.182 E1.00245
G1 X81.165 Y79.232 E1.00643
G1 X81.635 Y79.617 E1.03674
G1 X81.681 Y79.655 E1.03971
G1 X82.119 Y80.026 E1.06835
G1 X82.283 Y80.174 E1.07937
G1 X83.167 Y81.021 E1.14045
G1 X83.222 Y81.074 E1.14426
G1 X103.1 Y100.953 E2.5468
G1 X103.132 Y100.986 E2.54909
G1 X103.52 Y101.384 E2.57682
G1 X103.678 Y101.558 E2.58855
G1 X104.461 Y102.474 E2.64867
G1 X104.506 Y102.527 E2.65214
G1 X104.677 Y102.735 E2.66557
G1 X104.703 Y102.767 E2.66763
G1 X105.098 Y103.259 E2.69911
G1 X105.429 Y103.749 E2.72861
G1 X105.804 Y104.416 E2.76678
G1 X105.84 Y104.481 E2.77049
G1 X106.022 Y104.821 E2.78973
G1 X106.042 Y104.86 E2.79192
G1 X106.424 Y105.595 E2.83324
G1 X106.658 Y106.156 E2.86357
G1 X106.901 Y106.914 E2.90328
G1 X106.918 Y106.967 E2.90606
G1 X107.03 Y107.336 E2.9253
G1 X107.043 Y107.38 E2.92758
G1 X107.262 Y108.136 E2.96685
G1 X107.382 Y108.737 E2.99743
G1 X107.469 Y109.513 E3.03639
G1 X107.478 Y109.604 E3.04095
G1 X107.57 Y110.667 E3.09418
G1 X107.58 Y110.839 E3.10277
G1 X107.599 Y111.335 E3.12754
G1 X107.602 Y111.432 E3.13238
G1 X107.608 Y111.96 E3.15872
G1 X107.608 Y119.266 E3.52322
G1 X107.598 Y119.993 E3.5595
G1 X107.55 Y120.527 E3.58624
G1 X107.424 Y121.048 E3.61299
G1 X107.222 Y121.545 E3.63975
G1 X106.948 Y122.006 E3.66651
G1 X106.609 Y122.421 E3.69324
G1 X106.212 Y122.782 E3.72001
G1 X105.766 Y123.079 E3.74674
G1 X105.28 Y123.307 E3.77353
G1 X104.766 Y123.46 E3.80028
G1 X104.099 Y123.542 E3.83381
G1 X103.779 Y123.551 E3.84978
G1 X103.678 Y123.552 E3.85482
G1 X64.669 Y123.552 E5.80099
G1 X63.971 Y123.543 E5.83581
G1 X63.436 Y123.496 E5.86261
G1 X62.915 Y123.37 E5.88935
G1 X62.418 Y123.168 E5.91611
G1 X61.957 Y122.895 E5.94284
G1 X61.541 Y122.556 E5.96962
G1 X61.18 Y122.16 E5.99635
G1 X60.882 Y121.714 E6.02311
G1 X60.654 Y121.228 E6.04989
G1 X60.501 Y120.714 E6.07665
G1 X60.418 Y120.04 E6.11053
G1 X60.409 Y119.707 E6.12715
G1 X60.408 Y119.61 E6.13199
G1 X60.408 Y80.579 E8.07925
G1 X60.417 Y79.913 E8.11248
G1 X60.464 Y79.379 E8.13923
G1 X60.59 Y78.858 E8.16597
G1 X60.793 Y78.361 E8.19275
G1 X61.066 Y77.9 E8.21948
G1 X61.405 Y77.484 E8.24626
G1 X61.802 Y77.124 E8.27299
G0 F3600 X62.188 Y77.336
G1 F1800 X62.625 Y77.081 E8.29824
G1 X63.096 Y76.897 E8.32346
G1 X63.59 Y76.791 E8.34867
G1 X63.927 Y76.763 E8.36554
G1 X64.248 Y76.754 E8.38156
G1 X64.338 Y76.753 E8.38605
G1 X72.202 Y76.753 E8.77839
G1 X72.719 Y76.76 E8.80418
G1 X72.925 Y76.77 E8.81447
G1 X74.167 Y76.867 E8.87663
G1 X74.269 Y76.876 E8.88173
G1 X75.167 Y76.975 E8.92681
G1 X75.698 Y77.08 E8.95381
G1 X76.371 Y77.273 E8.98874
G1 X76.416 Y77.286 E8.99108
G1 X76.994 Y77.461 E9.02121
G1 X77.039 Y77.475 E9.02356
G1 X77.654 Y77.671 E9.05576
G1 X78.145 Y77.874 E9.08227
G1 X78.719 Y78.169 E9.11447
G1 X78.76 Y78.19 E9.11677
G1 X79.395 Y78.528 E9.15265
G1 X79.448 Y78.557 E9.15567
G1 X79.949 Y78.836 E9.18428
G1 X80.364 Y79.112 E9.20914
G1 X80.856 Y79.497 E9.24031
G1 X80.912 Y79.542 E9.24389
G1 X81.382 Y79.927 E9.27421
G1 X81.422 Y79.96 E9.27679
G1 X81.86 Y80.331 E9.30543
G1 X82.006 Y80.462 E9.31522
G1 X82.89 Y81.309 E9.3763
G1 X82.939 Y81.357 E9.37972
G1 X102.817 Y101.236 E10.78225
G1 X102.845 Y101.265 E10.78426
G1 X103.233 Y101.663 E10.812
G1 X103.374 Y101.818 E10.82245
G1 X104.157 Y102.734 E10.88257
G1 X104.197 Y102.781 E10.88565
G1 X104.368 Y102.989 E10.89908
G1 X104.391 Y103.018 E10.90093
G1 X104.786 Y103.51 E10.93241
G1 X105.08 Y103.945 E10.9586
G1 X105.455 Y104.612 E10.99678
G1 X105.487 Y104.67 E11.00008
G1 X105.669 Y105.01 E11.01932
G1 X105.687 Y105.044 E11.02124
G1 X106.069 Y105.779 E11.06257
G1 X106.277 Y106.278 E11.08954
G1 X106.52 Y107.036 E11.12925
G1 X106.535 Y107.084 E11.13176
G1 X106.647 Y107.453 E11.151
G1 X106.659 Y107.492 E11.15303
G1 X106.878 Y108.248 E11.1923
G1 X106.984 Y108.781 E11.21941
G1 X107.071 Y109.557 E11.25837
G1 X107.079 Y109.638 E11.26243
G1 X107.171 Y110.701 E11.31566
G1 X107.181 Y110.855 E11.32336
G1 X107.2 Y111.351 E11.34813
G1 X107.202 Y111.437 E11.35242
G1 X107.208 Y111.965 E11.37876
G1 X107.208 Y119.26 E11.74271
G1 X107.198 Y119.987 E11.77898
G1 X107.151 Y120.49 E11.80419
G1 X107.025 Y120.98 E11.82943
G1 X106.824 Y121.444 E11.85466
G1 X106.552 Y121.87 E11.87987
G1 X106.217 Y122.249 E11.90511
G1 X105.826 Y122.569 E11.93032
G1 X105.39 Y122.824 E11.95552
G1 X104.919 Y123.008 E11.98074
G1 X104.424 Y123.114 E12.006
G1 X104.088 Y123.142 E12.02282
G1 X103.768 Y123.151 E12.03879
G1 X103.678 Y123.152 E12.04328
G1 X64.674 Y123.152 E13.9892
G1 X63.976 Y123.143 E14.02403
G1 X63.472 Y123.096 E14.04928
G1 X62.982 Y122.971 E14.07451
G1 X62.518 Y122.77 E14.09974
G1 X62.092 Y122.499 E14.12493
G1 X61.713 Y122.164 E14.15016
G1 X61.392 Y121.773 E14.1754
G1 X61.137 Y121.337 E14.2006
G1 X60.953 Y120.866 E14.22583
G1 X60.846 Y120.372 E14.25105
G1 X60.818 Y120.029 E14.26821
G1 X60.809 Y119.696 E14.28483
G1 X60.808 Y119.61 E14.28912
G1 X60.808 Y80.585 E16.23609
G1 X60.817 Y79.919 E16.26932
G1 X60.864 Y79.415 E16.29457
G1 X60.989 Y78.926 E16.31975
G1 X61.19 Y78.462 E16.34498
G1 X61.462 Y78.035 E16.37024
G1 X61.797 Y77.657 E16.39544
G1 X62.188 Y77.336 E16.42068
G1 F1500 E9.92068
G1 F600 Z1.3
;MESH:Corner_Bracket_interno.stl
G0 F3600 X76.237 Y81.202 Z1.3
;TYPE:WALL-INNER
G1 F600 Z0.3
G1 F1500 E16.42068
G1 F1800 X76.462 Y81.27 E16.4324
G1 X78.084 Y82.138 E16.52418
G1 X79.539 Y83.331 E16.61806
G1 X100.629 Y104.422 E18.1061
G1 X101.822 Y105.876 E18.19994
G1 X102.691 Y107.5 E18.29183
G1 X103.225 Y109.262 E18.38368
G1 X103.38 Y110.85 E18.46329
G1 X103.408 Y111.384 E18.48996
G1 X103.408 Y119.352 E18.88749
G1 X64.608 Y119.352 E20.82323
G1 X64.608 Y80.553 E22.75892
G1 X72.838 Y80.553 E23.16952
G1 X74.463 Y80.712 E23.25097
G1 X74.7 Y80.736 E23.26286
G1 X76.237 Y81.202 E23.34299
G0 F3600 X76.209 Y81.297
G0 X77.156 Y101.743
G0 X77.205 Y101.829
G1 F1800 X76.459 Y102.403 E23.38995
G1 X75.885 Y103.151 E23.43699
G1 X75.526 Y104.02 E23.4839
G1 X75.402 Y104.953 E23.53085
G1 X75.526 Y105.885 E23.57776
G1 X75.885 Y106.756 E23.62476
G1 X76.459 Y107.502 E23.67172
G1 X77.205 Y108.076 E23.71868
G1 X78.076 Y108.435 E23.76568
G1 X79.008 Y108.559 E23.81259
G1 X79.941 Y108.435 E23.85955
G1 X80.81 Y108.076 E23.90645
G1 X81.558 Y107.502 E23.95349
G1 X82.13 Y106.756 E24.00039
G1 X82.491 Y105.885 E24.04743
G1 X82.613 Y104.953 E24.09433
G1 X82.491 Y104.02 E24.14127
G1 X82.13 Y103.151 E24.18822
G1 X81.558 Y102.403 E24.2352
G1 X80.81 Y101.829 E24.28224
G1 X79.941 Y101.47 E24.32914
G1 X79.008 Y101.348 E24.37609
G1 X78.076 Y101.47 E24.42298
G1 X77.205 Y101.829 E24.46998
G0 F3600 X77.156 Y101.743
G0 X76.431 Y102.375
G0 X75.851 Y103.132
G0 X75.311 Y104.887
G0 X75.806 Y104.953
;TYPE:WALL-OUTER
G1 F1800 X75.916 Y105.781 E24.51165
G1 X76.235 Y106.554 E24.55337
G1 X76.744 Y107.217 E24.59508
G1 X77.407 Y107.726 E24.63678
G1 X78.18 Y108.045 E24.6785
G1 X79.008 Y108.155 E24.72017
G1 X79.837 Y108.045 E24.76189
G1 X80.609 Y107.726 E24.80356
G1 X81.273 Y107.217 E24.8453
G1 X81.781 Y106.554 E24.88697
G1 X82.101 Y105.781 E24.92871
G1 X82.21 Y104.953 E24.97038
G1 X82.101 Y104.124 E25.01209
G1 X81.781 Y103.352 E25.05379
G1 X81.273 Y102.688 E25.0955
G1 X80.609 Y102.179 E25.13724
G1 X79.837 Y101.86 E25.17891
G1 X79.008 Y101.751 E25.22063
G1 X78.18 Y101.86 E25.26229
G1 X77.407 Y102.179 E25.30401
G1 X76.744 Y102.688 E25.34571
G1 X76.235 Y103.352 E25.38745
G1 X75.916 Y104.124 E25.42913
G1 X75.806 Y104.953 E25.47085
G0 F3600 X75.832 Y105.151
G0 X75.336 Y105.216
G0 X76.207 Y81.296
G0 X76.353 Y80.819
G1 F1800 X76.617 Y80.899 E25.48461
G1 X78.306 Y81.802 E25.58016
G1 X79.81 Y83.036 E25.67722
G1 X100.924 Y104.151 E27.16696
G1 X102.158 Y105.654 E27.26398
G1 X103.062 Y107.345 E27.35965
G1 X103.619 Y109.182 E27.45542
G1 X103.778 Y110.811 E27.53707
G1 X103.808 Y111.384 E27.5657
G1 X103.808 Y119.752 E27.98318
G1 X64.208 Y119.752 E29.95883
G1 X64.208 Y80.153 E31.93443
G1 X72.857 Y80.153 E32.36593
G1 X74.504 Y80.314 E32.4485
G1 X74.779 Y80.342 E32.46229
G1 X76.353 Y80.819 E32.54434
G0 F3600 X76.545 Y80.877
G0 X76.315 Y81.632
;TYPE:SKIN
G1 F1800 X77.863 Y82.461 E32.63195
G1 X79.286 Y83.628 E32.72376
G1 X100.327 Y104.67 E34.20835
G1 X101.5 Y106.1 E34.30063
G1 X102.329 Y107.647 E34.38819
G1 X102.841 Y109.338 E34.47634
G1 X102.99 Y110.87 E34.55313
G1 X103.018 Y111.404 E34.57981
G1 X103.018 Y118.962 E34.95688
G1 X64.998 Y118.962 E36.8537
G1 X64.998 Y80.943 E38.75048
G1 X72.821 Y80.943 E39.14077
G1 X74.426 Y81.1 E39.22123
G1 X74.623 Y81.12 E39.23111
G1 X76.124 Y81.575 E39.30936
G1 X76.315 Y81.632 E39.3193
G0 F3600 X79.008 Y100.954
G1 F1800 X77.975 Y101.09 E39.37128
G1 X77.008 Y101.488 E39.42345
G1 X76.18 Y102.125 E39.47557
G1 X75.544 Y102.954 E39.5277
G1 X75.146 Y103.918 E39.57973
G1 X75.008 Y104.953 E39.63182
G1 X75.146 Y105.987 E39.68387
G1 X75.544 Y106.953 E39.73599
G1 X76.181 Y107.78 E39.78807
G1 X77.008 Y108.417 E39.84015
G1 X77.974 Y108.815 E39.89228
G1 X79.008 Y108.953 E39.94432
G1 X80.043 Y108.815 E39.99641
G1 X81.007 Y108.417 E40.04844
G1 X81.837 Y107.78 E40.10064
G1 X82.471 Y106.953 E40.15263
G1 X82.871 Y105.987 E40.20479
G1 X83.007 Y104.953 E40.25682
G1 X82.871 Y103.918 E40.3089
G1 X82.471 Y102.954 E40.36098
G1 X81.837 Y102.125 E40.41304
G1 X81.007 Y101.488 E40.46524
G1 X80.042 Y101.09 E40.51732
G1 X79.008 Y100.954 E40.56935
G0 F3600 X77.237 Y82.329
G1 F1800 X101.631 Y106.722 E42.29044
G1 X101.701 Y106.792
G0 F3600 X102.209 Y107.866
G1 F1800 X76.096 Y81.753 E44.13286
G1 X76.026 Y81.683
G0 F3600 X75.284 Y81.507
G1 F1800 X102.454 Y108.677 E46.04985
G1 X102.524 Y108.747
G0 F3600 X102.673 Y109.461
G1 F1800 X74.499 Y81.287 E48.03767
G0 F3600 X73.872 Y81.226
G1 F1800 X102.734 Y110.088 E50.07404
G0 F3600 X102.794 Y110.714
G1 F1800 X73.245 Y81.165 E52.15889
G0 F3600 X72.637 Y81.122
G1 F1800 X102.833 Y111.319 E54.28941
G0 F3600 X102.838 Y111.889
G1 F1800 X72.071 Y81.122 E56.46019
G0 F3600 X71.506 Y81.122
G1 F1800 X102.838 Y112.454 E58.67083
G0 F3600 X102.838 Y113.02
G1 F1800 X70.94 Y81.122 E60.92141
G0 F3600 X70.374 Y81.122
G1 F1800 X102.838 Y113.586 E63.21192
G0 F3600 X102.838 Y114.151
G1 F1800 X69.809 Y81.122 E65.54229
G0 F3600 X69.243 Y81.122
G1 F1800 X102.838 Y114.717 E67.9126
G0 F3600 X102.838 Y115.283
G1 F1800 X68.677 Y81.122 E70.32284
G0 F3600 X68.112 Y81.122
G1 F1800 X102.838 Y115.848 E72.77295
G0 F3600 X102.838 Y116.414
G1 F1800 X67.546 Y81.122 E75.26299
G0 F3600 X66.98 Y81.122
G1 F1800 X102.838 Y116.98 E77.79297
G0 F3600 X102.838 Y117.545
G1 F1800 X66.415 Y81.122 E80.36281
G0 F3600 X65.849 Y81.122
G1 F1800 X102.838 Y118.111 E82.97258
G0 F3600 X102.838 Y118.677
G1 F1800 X65.283 Y81.122 E85.62229
G0 F3600 X65.178 Y81.583
G1 F1800 X102.376 Y118.781 E88.24681
G0 F3600 X101.81 Y118.781
G1 F1800 X65.178 Y82.148 E90.83143
G0 F3600 X65.178 Y82.714
G1 F1800 X101.244 Y118.781 E93.37612
G0 F3600 X100.679 Y118.781
G1 F1800 X65.178 Y83.28 E95.8809
G0 F3600 X65.178 Y83.845
G1 F1800 X100.113 Y118.781 E98.34579
G0 F3600 X99.547 Y118.781
G1 F1800 X65.178 Y84.411 E100.77075
G0 F3600 X65.178 Y84.977
G1 F1800 X98.982 Y118.781 E103.1558
G0 F3600 X98.416 Y118.781
G1 F1800 X82.721 Y103.086 E104.26317
G1 X82.651 Y103.016
G0 F3600 X83.061 Y103.992
G1 F1800 X97.85 Y118.781 E105.30661
G0 F3600 X97.285 Y118.781
G1 F1800 X83.147 Y104.644 E106.30409
G0 F3600 X83.153 Y105.215
G1 F1800 X96.719 Y118.781 E107.26124
G0 F3600 X96.153 Y118.781
G1 F1800 X83.087 Y105.715 E108.18312
G0 F3600 X82.986 Y106.179
G1 F1800 X95.588 Y118.781 E109.07226
G0 F3600 X95.022 Y118.781
G1 F1800 X82.82 Y106.579 E109.93318
G0 F3600 X82.655 Y106.979
G1 F1800 X94.456 Y118.781 E110.76584
G0 F3600 X93.891 Y118.781
G1 F1800 X82.421 Y107.311 E111.57511
G0 F3600 X82.176 Y107.632
G1 F1800 X93.325 Y118.781 E112.36173
G0 F3600 X92.759 Y118.781
G1 F1800 X81.921 Y107.942 E113.12644
G0 F3600 X81.6 Y108.188
G1 F1800 X92.193 Y118.781 E113.87384
G0 F3600 X91.628 Y118.781
G1 F1800 X81.281 Y108.434 E114.60387
G0 F3600 X80.926 Y108.644
G1 F1800 X91.062 Y118.781 E115.31906
G0 F3600 X90.496 Y118.781
G1 F1800 X80.526 Y108.81 E116.02253
G0 F3600 X80.125 Y108.975
G1 F1800 X89.931 Y118.781 E116.7144
G0 F3600 X89.365 Y118.781
G1 F1800 X79.635 Y109.05 E117.40094
G0 F3600 X79.136 Y109.117
G1 F1800 X88.799 Y118.781 E118.08275
G0 F3600 X88.234 Y118.781
G1 F1800 X78.522 Y109.069 E118.76798
G0 F3600 X77.843 Y108.955
G1 F1800 X87.668 Y118.781 E119.46122
G0 F3600 X87.102 Y118.781
G1 F1800 X76.82 Y108.499 E120.18668
G1 X76.75 Y108.429
G0 F3600 X75.461 Y107.139
G1 F1800 X65.178 Y96.856 E120.9122
G0 F3600 X65.178 Y96.29
G1 F1800 X75.004 Y106.117 E121.60551
G0 F3600 X74.891 Y105.438
G1 F1800 X65.178 Y95.725 E122.29081
G0 F3600 X65.178 Y95.159
G1 F1800 X74.843 Y104.824 E122.97273
G0 F3600 X74.91 Y104.325
G1 F1800 X65.178 Y94.593 E123.65938
G0 F3600 X65.178 Y94.028
G1 F1800 X74.985 Y103.835 E124.35131
G0 F3600 X75.149 Y103.434
G1 F1800 X65.178 Y93.462 E125.05486
G0 F3600 X65.178 Y92.896
G1 F1800 X75.315 Y103.033 E125.77008
G0 F3600 X75.526 Y102.679
G1 F1800 X65.178 Y92.331 E126.50018
G0 F3600 X65.178 Y91.765
G1 F1800 X75.772 Y102.359 E127.24765
G0 F3600 X76.018 Y102.039
G1 F1800 X65.178 Y91.199 E128.01247
G0 F3600 X65.178 Y90.634
G1 F1800 X76.327 Y101.783 E128.79909
G0 F3600 X76.646 Y101.536
G1 F1800 X65.178 Y90.068 E129.60822
G0 F3600 X65.178 Y89.502
G1 F1800 X76.979 Y101.303 E130.44084
G0 F3600 X77.38 Y101.138
G1 F1800 X65.178 Y88.937 E131.30173
G0 F3600 X65.178 Y88.371
G1 F1800 X77.78 Y100.973 E132.19087
G0 F3600 X78.244 Y100.871
G1 F1800 X65.178 Y87.805 E133.11274
G0 F3600 X65.178 Y87.24
G1 F1800 X78.744 Y100.805 E134.06986
G0 F3600 X79.315 Y100.811
G1 F1800 X65.178 Y86.674 E135.0673
G0 F3600 X65.178 Y86.108
G1 F1800 X79.966 Y100.897 E136.11071
G1 X80.036 Y100.967
G0 F3600 X80.87 Y101.235
G1 F1800 X65.178 Y85.542 E137.2179
G1 X65.108 Y85.472
G0 F3600 X65.178 Y97.422
G1 F1800 X86.537 Y118.781 E138.7249
G0 F3600 X85.971 Y118.781
G1 F1800 X65.178 Y97.988 E140.19195
G0 F3600 X65.178 Y98.553
G1 F1800 X85.405 Y118.781 E141.61911
G0 F3600 X84.84 Y118.781
G1 F1800 X65.178 Y99.119 E143.00637
G0 F3600 X65.178 Y99.685
G1 F1800 X84.274 Y118.781 E144.3537
G0 F3600 X83.708 Y118.781
G1 F1800 X65.178 Y100.25 E145.66113
G0 F3600 X65.178 Y100.816
G1 F1800 X83.143 Y118.781 E146.92865
G0 F3600 X82.577 Y118.781
G1 F1800 X65.178 Y101.382 E148.15625
G0 F3600 X65.178 Y101.947
G1 F1800 X82.011 Y118.781 E149.34394
G0 F3600 X81.445 Y118.781
G1 F1800 X65.178 Y102.513 E150.4917
G0 F3600 X65.178 Y103.079
G1 F1800 X80.88 Y118.781 E151.59956
G0 F3600 X80.314 Y118.781
G1 F1800 X65.178 Y103.644 E152.66752
G0 F3600 X65.178 Y104.21
G1 F1800 X79.748 Y118.781 E153.69555
G0 F3600 X79.183 Y118.781
G1 F1800 X65.178 Y104.776 E154.68368
G0 F3600 X65.178 Y105.341
G1 F1800 X78.617 Y118.781 E155.63191
G0 F3600 X78.051 Y118.781
G1 F1800 X65.178 Y105.907 E156.5402
G0 F3600 X65.178 Y106.473
G1 F1800 X77.486 Y118.781 E157.4086
G0 F3600 X76.92 Y118.781
G1 F1800 X65.178 Y107.038 E158.2371
G0 F3600 X65.178 Y107.604
G1 F1800 X76.354 Y118.781 E159.02566
G0 F3600 X75.789 Y118.781
G1 F1800 X65.178 Y108.17 E159.77432
G0 F3600 X65.178 Y108.736
