;FLAVOR:Marlin
;TIME:3548
;Filament used: 2.25633m
;Layer height: 0.15
;MINX:79.318
;MINY:79.318
;MINZ:0.3
;MAXX:122.8
;MAXY:122.8
;MAXZ:30
;Generated with Cura_SteamEngine 4.4.0
M140 S55
M105
M190 S55
M104 S207
M105
M109 S207
M82 ;absolute extrusion mode
G28 ;Home
G1 Z15.0 F6000 ;Move the platform down 15mm
;Prime the extruder
G92 E0
G1 F200 E3
G92 E0
G92 E0
G92 E0
G1 F1500 E-6.5
;LAYER_COUNT:199
;LAYER:0
M107 P1
G1 F600 Z1.3
G0 F3600 X82.133 Y81.761 Z1.3
;TYPE:SKIRT
G1 F600 Z0.3
G1 F1500 E0
G1 F1350 X82.718 Y81.231 E0.03938
G1 X83.354 Y80.763 E0.07878
G1 X84.034 Y80.362 E0.11816
G1 X84.656 Y80.069 E0.15246
G1 X85.021 Y79.917 E0.17219
G1 X85.765 Y79.651 E0.21161
G1 X86.531 Y79.461 E0.25098
G1 X87.313 Y79.35 E0.29039
G1 X88.02 Y79.318 E0.3257
G1 X114.883 Y79.318 E1.6659
G1 X115.672 Y79.358 E1.70531
G1 X116.452 Y79.477 E1.74468
G1 X117.217 Y79.675 E1.7841
G1 X117.957 Y79.949 E1.82347
G1 X118.666 Y80.297 E1.86287
G1 X119.337 Y80.715 E1.90231
G1 X119.961 Y81.198 E1.94168
G1 X120.534 Y81.741 E1.98106
G1 X121.049 Y82.34 E2.02048
G1 X121.5 Y82.988 E2.05986
G1 X121.884 Y83.679 E2.0993
G1 X122.196 Y84.404 E2.13868
G1 X122.433 Y85.157 E2.17806
G1 X122.592 Y85.931 E2.21749
G1 X122.683 Y87.063 E2.27414
G1 X122.8 Y103.636 E3.10099
G1 X122.763 Y104.454 E3.14185
G1 X122.617 Y105.94 E3.21634
G1 X122.5 Y106.721 E3.25574
G1 X122.338 Y107.375 E3.28935
G1 X121.896 Y108.88 E3.36761
G1 X121.635 Y109.625 E3.40699
G1 X121.324 Y110.297 E3.44394
G1 X120.599 Y111.683 E3.52197
G1 X120.198 Y112.364 E3.5614
G1 X119.754 Y112.97 E3.59888
G1 X118.766 Y114.193 E3.67732
G1 X118.223 Y114.798 E3.71788
G1 X114.991 Y118.04 E3.94626
G1 X114.479 Y118.509 E3.9809
G1 X113.202 Y119.58 E4.06406
G1 X112.572 Y120.057 E4.10348
G1 X111.923 Y120.453 E4.14141
G1 X110.538 Y121.208 E4.22011
G1 X109.827 Y121.55 E4.25947
G1 X109.133 Y121.803 E4.29632
G1 X107.643 Y122.269 E4.37421
G1 X106.879 Y122.467 E4.41358
G1 X106.145 Y122.581 E4.45064
G1 X104.519 Y122.755 E4.53223
G1 X103.689 Y122.799 E4.57369
G1 X87.235 Y122.8 E5.39459
G1 X86.447 Y122.76 E5.43395
G1 X85.666 Y122.641 E5.47337
G1 X84.902 Y122.443 E5.51274
G1 X84.161 Y122.169 E5.55216
G1 X83.452 Y121.821 E5.59156
G1 X82.782 Y121.404 E5.63093
G1 X82.157 Y120.921 E5.67034
G1 X81.72 Y120.515 E5.7001
G1 X81.603 Y120.398 E5.70835
G1 X81.073 Y119.812 E5.74777
G1 X80.606 Y119.176 E5.78714
G1 X80.205 Y118.496 E5.82652
G1 X79.875 Y117.778 E5.86595
G1 X79.62 Y117.031 E5.90533
G1 X79.441 Y116.262 E5.94472
G1 X79.341 Y115.478 E5.98415
G1 X79.318 Y114.883 E6.01385
G1 X79.318 Y88.017 E7.3542
G1 X79.358 Y87.228 E7.39362
G1 X79.477 Y86.448 E7.43298
G1 X79.675 Y85.683 E7.47241
G1 X79.866 Y85.145 E7.50089
G1 X80.003 Y84.799 E7.51946
G1 X80.33 Y84.081 E7.55882
G1 X80.729 Y83.399 E7.59824
G1 X81.194 Y82.761 E7.63762
G1 X81.733 Y82.162 E7.67783
G1 X82.133 Y81.761 E7.70608
G0 F3600 X82.416 Y82.044
G1 F1350 X82.987 Y81.528 E7.74448
G1 X83.608 Y81.075 E7.78283
G1 X84.273 Y80.688 E7.82121
G1 X84.81 Y80.439 E7.85074
G1 X85.175 Y80.287 E7.87047
G1 X85.9 Y80.028 E7.90888
G1 X86.647 Y79.846 E7.94724
G1 X87.409 Y79.743 E7.9856
G1 X88.02 Y79.718 E8.01611
G1 X114.883 Y79.718 E9.35631
G1 X115.651 Y79.758 E9.39468
G1 X116.411 Y79.877 E9.43306
G1 X117.154 Y80.075 E9.47142
G1 X117.873 Y80.349 E9.5098
G1 X118.559 Y80.696 E9.54816
G1 X119.206 Y81.112 E9.58653
G1 X119.806 Y81.593 E9.6249
G1 X120.353 Y82.134 E9.66328
G1 X120.841 Y82.729 E9.70167
G1 X121.264 Y83.371 E9.74003
G1 X121.619 Y84.054 E9.77843
G1 X121.9 Y84.769 E9.81676
G1 X122.106 Y85.511 E9.85518
G1 X122.234 Y86.269 E9.89353
G1 X122.283 Y87.066 E9.93337
G1 X122.4 Y103.639 E10.76022
G1 X122.365 Y104.415 E10.79898
G1 X122.219 Y105.901 E10.87347
G1 X122.104 Y106.661 E10.91182
G1 X121.954 Y107.262 E10.94272
G1 X121.512 Y108.767 E11.02098
G1 X121.257 Y109.493 E11.05937
G1 X120.969 Y110.112 E11.09343
G1 X120.244 Y111.498 E11.17146
G1 X119.853 Y112.16 E11.20982
G1 X119.443 Y112.718 E11.24437
G1 X118.455 Y113.941 E11.32281
G1 X117.94 Y114.516 E11.36132
G1 X114.708 Y117.758 E11.5897
G1 X114.222 Y118.203 E11.62258
G1 X112.945 Y119.274 E11.70573
G1 X112.331 Y119.737 E11.7441
G1 X111.732 Y120.101 E11.77907
G1 X110.347 Y120.856 E11.85776
G1 X109.653 Y121.189 E11.89617
G1 X109.014 Y121.422 E11.9301
G1 X107.524 Y121.888 E12.00799
G1 X106.779 Y122.079 E12.04636
G1 X106.102 Y122.183 E12.08053
G1 X104.476 Y122.357 E12.16211
G1 X103.689 Y122.399 E12.20143
G1 X87.235 Y122.4 E13.02233
G1 X86.467 Y122.36 E13.06069
G1 X85.708 Y122.241 E13.09902
G1 X84.964 Y122.043 E13.13743
G1 X84.245 Y121.769 E13.17582
G1 X83.559 Y121.422 E13.21417
G1 X82.912 Y121.006 E13.25255
G1 X82.312 Y120.525 E13.29092
G1 X82.002 Y120.233 E13.31216
G1 X81.885 Y120.116 E13.32042
G1 X81.371 Y119.544 E13.35878
G1 X80.918 Y118.922 E13.39717
G1 X80.532 Y118.257 E13.43553
G1 X80.217 Y117.555 E13.47392
G1 X79.977 Y116.824 E13.51231
G1 X79.814 Y116.073 E13.55065
G1 X79.73 Y115.308 E13.58904
G1 X79.718 Y114.883 E13.61025
G1 X79.718 Y88.017 E14.9506
G1 X79.758 Y87.249 E14.98897
G1 X79.877 Y86.489 E15.02735
G1 X80.075 Y85.746 E15.06571
G1 X80.238 Y85.293 E15.08973
G1 X80.375 Y84.947 E15.1083
G1 X80.695 Y84.247 E15.1467
G1 X81.085 Y83.585 E15.18503
G1 X81.543 Y82.966 E15.22344
G1 X82.016 Y82.445 E15.25855
G1 X82.416 Y82.044 E15.28681
G0 F3600 X82.699 Y82.326
G1 F1350 X83.255 Y81.826 E15.32411
G1 X83.861 Y81.387 E15.36145
G1 X84.51 Y81.016 E15.39874
G1 X84.964 Y80.808 E15.42366
G1 X85.329 Y80.656 E15.44338
G1 X86.034 Y80.406 E15.4807
G1 X86.762 Y80.232 E15.51804
G1 X87.504 Y80.137 E15.55537
G1 X88.02 Y80.118 E15.58113
G1 X114.883 Y80.118 E16.92133
G1 X115.63 Y80.158 E16.95865
G1 X116.368 Y80.277 E16.99594
G1 X117.09 Y80.475 E17.03329
G1 X117.786 Y80.748 E17.07059
G1 X118.449 Y81.095 E17.10793
G1 X119.072 Y81.51 E17.14527
G1 X119.646 Y81.989 E17.18257
G1 X120.167 Y82.526 E17.2199
G1 X120.626 Y83.116 E17.25719
G1 X121.021 Y83.752 E17.29454
G1 X121.345 Y84.426 E17.33185
G1 X121.595 Y85.131 E17.36917
G1 X121.769 Y85.859 E17.40652
G1 X121.864 Y86.601 E17.44384
G1 X121.883 Y87.069 E17.4672
G1 X122 Y103.642 E18.29406
G1 X121.966 Y104.375 E18.33066
G1 X121.82 Y105.861 E18.40516
G1 X121.708 Y106.601 E18.4425
G1 X121.57 Y107.15 E18.47074
G1 X121.128 Y108.655 E18.54899
G1 X120.879 Y109.36 E18.5863
G1 X120.615 Y109.927 E18.6175
G1 X119.89 Y111.313 E18.69554
G1 X119.508 Y111.956 E18.73285
G1 X119.132 Y112.467 E18.7645
G1 X118.144 Y113.69 E18.84294
G1 X117.656 Y114.233 E18.87936
G1 X114.424 Y117.475 E19.10775
G1 X113.965 Y117.896 E19.13882
G1 X112.688 Y118.967 E19.22198
G1 X112.09 Y119.417 E19.25931
G1 X111.54 Y119.75 E19.29139
G1 X110.155 Y120.505 E19.37009
G1 X109.48 Y120.828 E19.40742
G1 X108.894 Y121.04 E19.43851
G1 X107.404 Y121.506 E19.5164
G1 X106.68 Y121.691 E19.55368
G1 X106.06 Y121.785 E19.58496
G1 X104.434 Y121.959 E19.66655
G1 X103.689 Y121.999 E19.70377
G1 X87.235 Y122 E20.52466
G1 X86.488 Y121.96 E20.56199
G1 X85.75 Y121.841 E20.59928
G1 X85.028 Y121.643 E20.63663
G1 X84.332 Y121.37 E20.67393
G1 X83.669 Y121.024 E20.71124
G1 X83.047 Y120.609 E20.74855
G1 X82.285 Y119.95 E20.79881
G1 X82.168 Y119.833 E20.80706
G1 X81.668 Y119.276 E20.8444
G1 X81.231 Y118.67 E20.88168
G1 X80.86 Y118.02 E20.91902
G1 X80.561 Y117.334 E20.95635
G1 X80.337 Y116.62 E20.99369
G1 X80.19 Y115.887 E21.03098
G1 X80.118 Y114.883 E21.0812
G1 X80.118 Y88.017 E22.42155
G1 X80.158 Y87.27 E22.45887
G1 X80.277 Y86.532 E22.49617
G1 X80.475 Y85.81 E22.53352
G1 X80.61 Y85.44 E22.55317
G1 X80.747 Y85.094 E22.57173
G1 X81.059 Y84.414 E22.60906
G1 X81.442 Y83.772 E22.64636
G1 X81.891 Y83.173 E22.6837
G1 X82.299 Y82.727 E22.71386
G1 X82.699 Y82.326 E22.74212
G0 F3600 X82.982 Y82.609
G1 F1350 X83.523 Y82.124 E22.77837
G1 X84.113 Y81.701 E22.81459
G1 X84.747 Y81.345 E22.85086
G1 X85.118 Y81.177 E22.87118
G1 X85.483 Y81.025 E22.89091
G1 X86.168 Y80.783 E22.92715
G1 X86.875 Y80.618 E22.96337
G1 X87.596 Y80.532 E22.9996
G1 X88.02 Y80.518 E23.02076
G1 X114.883 Y80.518 E24.36096
G1 X115.608 Y80.558 E24.39719
G1 X116.325 Y80.677 E24.43345
G1 X117.024 Y80.875 E24.46969
G1 X117.697 Y81.148 E24.50593
G1 X118.336 Y81.493 E24.54216
G1 X118.933 Y81.907 E24.5784
G1 X119.481 Y82.383 E24.61462
G1 X119.974 Y82.917 E24.65087
G1 X120.404 Y83.502 E24.6871
G1 X120.768 Y84.131 E24.72335
G1 X121.061 Y84.796 E24.75961
G1 X121.279 Y85.489 E24.79585
G1 X121.419 Y86.201 E24.83205
G1 X121.483 Y87.071 E24.87558
G1 X121.6 Y103.644 E25.70243
G1 X121.568 Y104.336 E25.73699
G1 X121.422 Y105.822 E25.81148
G1 X121.312 Y106.54 E25.84772
G1 X121.187 Y107.037 E25.87329
G1 X120.745 Y108.542 E25.95154
G1 X120.502 Y109.226 E25.98776
G1 X120.26 Y109.741 E26.01615
G1 X119.535 Y111.127 E26.09418
G1 X119.164 Y111.751 E26.1304
G1 X118.821 Y112.216 E26.15923
G1 X117.833 Y113.439 E26.23767
G1 X117.373 Y113.951 E26.27201
G1 X114.141 Y117.193 E26.50039
G1 X113.708 Y117.59 E26.5297
G1 X112.431 Y118.661 E26.61285
G1 X111.85 Y119.096 E26.64906
G1 X111.349 Y119.399 E26.67827
G1 X109.964 Y120.154 E26.75697
G1 X109.308 Y120.466 E26.79321
G1 X108.775 Y120.658 E26.82148
G1 X107.285 Y121.124 E26.89936
G1 X106.581 Y121.302 E26.93559
G1 X106.017 Y121.388 E26.96406
G1 X104.391 Y121.562 E27.04564
G1 X103.689 Y121.599 E27.08071
G1 X87.235 Y121.6 E27.90161
G1 X86.51 Y121.56 E27.93783
G1 X85.794 Y121.441 E27.97404
G1 X85.095 Y121.243 E28.01029
G1 X84.422 Y120.97 E28.04652
G1 X83.783 Y120.625 E28.08275
G1 X83.185 Y120.212 E28.11901
G1 X82.568 Y119.667 E28.16008
G1 X82.451 Y119.55 E28.16833
G1 X81.967 Y119.009 E28.20455
G1 X81.544 Y118.418 E28.24081
G1 X81.19 Y117.784 E28.27704
G1 X80.907 Y117.115 E28.31328
G1 X80.699 Y116.419 E28.34952
G1 X80.569 Y115.704 E28.38577
G1 X80.518 Y114.883 E28.42681
G1 X80.518 Y88.017 E29.76716
G1 X80.558 Y87.292 E29.80339
G1 X80.677 Y86.575 E29.83965
G1 X80.982 Y85.587 E29.89124
G1 X81.119 Y85.241 E29.9098
G1 X81.423 Y84.582 E29.94601
G1 X81.797 Y83.959 E29.98226
G1 X82.238 Y83.382 E30.01849
G1 X82.582 Y83.01 E30.04377
G1 X82.982 Y82.609 E30.07203
G0 F3600 X83.265 Y82.891
G1 F1350 X83.79 Y82.422 E30.10715
G1 X84.365 Y82.015 E30.1423
G1 X85.271 Y81.546 E30.19319
G1 X85.636 Y81.394 E30.21292
G1 X86.301 Y81.161 E30.24807
G1 X86.987 Y81.005 E30.28317
G1 X88.02 Y80.918 E30.33489
G1 X114.883 Y80.918 E31.67509
G1 X115.586 Y80.958 E31.71022
G1 X116.28 Y81.077 E31.74535
G1 X116.955 Y81.275 E31.78045
G1 X117.604 Y81.547 E31.81555
G1 X118.218 Y81.892 E31.85069
G1 X118.789 Y82.303 E31.88579
G1 X119.31 Y82.777 E31.92093
G1 X119.774 Y83.307 E31.95607
G1 X120.174 Y83.886 E31.99118
G1 X120.506 Y84.507 E32.02631
G1 X120.766 Y85.161 E32.06143
G1 X120.95 Y85.841 E32.09657
G1 X121.056 Y86.537 E32.1317
G1 X121.083 Y87.074 E32.15852
G1 X121.2 Y103.647 E32.98537
G1 X121.17 Y104.297 E33.01783
G1 X121.024 Y105.783 E33.09233
G1 X120.916 Y106.479 E33.12747
G1 X120.803 Y106.924 E33.15037
G1 X120.361 Y108.429 E33.22863
G1 X120.124 Y109.092 E33.26376
G1 X119.906 Y109.556 E33.28933
G1 X119.181 Y110.942 E33.36737
G1 X118.82 Y111.546 E33.40247
G1 X118.51 Y111.964 E33.42844
G1 X117.522 Y113.187 E33.50688
G1 X117.09 Y113.668 E33.53913
G1 X113.858 Y116.91 E33.76752
G1 X113.451 Y117.283 E33.79506
G1 X112.174 Y118.354 E33.87821
G1 X111.61 Y118.775 E33.91333
G1 X111.158 Y119.048 E33.93967
G1 X109.773 Y119.803 E34.01837
G1 X109.136 Y120.104 E34.05352
G1 X108.656 Y120.276 E34.07896
G1 X107.166 Y120.742 E34.15684
G1 X106.483 Y120.914 E34.19198
G1 X105.975 Y120.99 E34.21761
G1 X104.349 Y121.164 E34.29919
G1 X103.689 Y121.199 E34.33217
G1 X87.235 Y121.2 E35.15306
G1 X86.533 Y121.16 E35.18814
G1 X85.839 Y121.041 E35.22327
G1 X85.163 Y120.844 E35.2584
G1 X84.514 Y120.571 E35.29352
G1 X83.9 Y120.227 E35.32864
G1 X83.329 Y119.815 E35.36376
G1 X82.851 Y119.384 E35.39588
G1 X82.734 Y119.267 E35.40413
G1 X82.265 Y118.742 E35.43925
G1 X81.859 Y118.167 E35.47437
G1 X81.521 Y117.549 E35.50951
G1 X81.254 Y116.898 E35.54462
G1 X81.064 Y116.22 E35.57974
G1 X80.951 Y115.525 E35.61487
G1 X80.918 Y114.883 E35.64694
G1 X80.918 Y88.017 E36.98729
G1 X80.958 Y87.314 E37.02242
G1 X81.077 Y86.62 E37.05755
G1 X81.353 Y85.734 E37.10385
G1 X81.49 Y85.388 E37.12242
G1 X81.786 Y84.75 E37.15751
G1 X82.153 Y84.149 E37.19264
G1 X82.585 Y83.593 E37.22777
G1 X82.865 Y83.292 E37.24828
G1 X83.265 Y82.891 E37.27653
G0 F3600 X83.549 Y83.174
G1 F1350 X84.057 Y82.721 E37.31049
G1 X84.615 Y82.331 E37.34446
G1 X85.425 Y81.916 E37.38986
G1 X85.79 Y81.764 E37.40959
G1 X86.433 Y81.539 E37.44357
G1 X87.098 Y81.392 E37.47755
G1 X88.02 Y81.318 E37.5237
G1 X114.883 Y81.318 E38.8639
G1 X115.563 Y81.358 E38.89788
G1 X116.233 Y81.477 E38.93183
G1 X116.885 Y81.674 E38.96581
G1 X117.509 Y81.946 E38.99977
G1 X118.097 Y82.29 E39.03376
G1 X118.641 Y82.7 E39.06775
G1 X119.132 Y83.171 E39.10169
G1 X119.566 Y83.696 E39.13567
G1 X119.935 Y84.268 E39.16963
G1 X120.234 Y84.88 E39.20362
G1 X120.459 Y85.522 E39.23756
G1 X120.608 Y86.187 E39.27156
G1 X120.683 Y87.077 E39.31611
G1 X120.8 Y103.65 E40.14297
G1 X120.772 Y104.258 E40.17333
G1 X120.626 Y105.744 E40.24782
G1 X120.52 Y106.417 E40.28181
G1 X120.419 Y106.811 E40.30211
G1 X119.977 Y108.316 E40.38036
G1 X119.747 Y108.957 E40.41434
G1 X119.551 Y109.37 E40.43715
G1 X118.826 Y110.756 E40.51518
G1 X118.476 Y111.34 E40.54915
G1 X118.199 Y111.713 E40.57233
G1 X117.211 Y112.936 E40.65077
G1 X116.807 Y113.386 E40.68094
G1 X113.575 Y116.628 E40.90933
G1 X113.194 Y116.977 E40.9351
G1 X111.917 Y118.048 E41.01825
G1 X111.371 Y118.454 E41.0522
G1 X110.966 Y118.696 E41.07574
G1 X109.581 Y119.451 E41.15444
G1 X108.965 Y119.742 E41.18843
G1 X108.536 Y119.895 E41.21115
G1 X107.046 Y120.361 E41.28904
G1 X106.386 Y120.525 E41.32296
G1 X105.932 Y120.592 E41.34586
G1 X104.306 Y120.766 E41.42744
G1 X103.689 Y120.799 E41.45827
G1 X87.235 Y120.8 E42.27916
G1 X86.556 Y120.76 E42.3131
G1 X85.885 Y120.641 E42.3471
G1 X85.234 Y120.444 E42.38103
G1 X84.609 Y120.172 E42.41504
G1 X84.021 Y119.828 E42.44902
G1 X83.478 Y119.418 E42.48297
G1 X83.134 Y119.101 E42.50631
G1 X83.017 Y118.984 E42.51456
G1 X82.564 Y118.475 E42.54856
G1 X82.175 Y117.917 E42.58249
G1 X81.853 Y117.317 E42.61646
G1 X81.604 Y116.683 E42.65045
G1 X81.431 Y116.024 E42.68444
G1 X81.337 Y115.35 E42.71839
G1 X81.318 Y114.883 E42.74171
G1 X81.318 Y88.017 E44.08206
G1 X81.358 Y87.337 E44.11604
G1 X81.477 Y86.667 E44.14999
G1 X81.725 Y85.882 E44.19106
G1 X81.862 Y85.536 E44.20963
G1 X82.15 Y84.918 E44.24365
G1 X82.507 Y84.339 E44.27758
G1 X83.149 Y83.575 E44.32737
G1 X83.549 Y83.174 E44.35563
G0 F3600 X83.832 Y83.456
G1 F1350 X84.323 Y83.02 E44.38839
G1 X84.864 Y82.647 E44.42117
G1 X85.579 Y82.285 E44.46115
G1 X85.944 Y82.133 E44.48088
G1 X86.565 Y81.918 E44.51366
G1 X87.207 Y81.78 E44.54643
G1 X88.02 Y81.718 E44.5871
G1 X114.883 Y81.718 E45.9273
G1 X115.539 Y81.758 E45.96009
G1 X116.185 Y81.877 E45.99286
G1 X116.812 Y82.074 E46.02565
G1 X117.41 Y82.346 E46.05843
G1 X117.971 Y82.688 E46.09121
G1 X118.486 Y83.096 E46.12399
G1 X118.948 Y83.563 E46.15676
G1 X119.349 Y84.083 E46.18952
G1 X119.685 Y84.647 E46.22227
G1 X119.949 Y85.249 E46.25507
G1 X120.139 Y85.878 E46.28785
G1 X120.25 Y86.525 E46.3206
G1 X120.283 Y87.08 E46.34834
G1 X120.4 Y103.653 E47.17519
G1 X120.374 Y104.219 E47.20346
G1 X120.228 Y105.705 E47.27795
G1 X120.124 Y106.354 E47.31074
G1 X120.035 Y106.699 E47.32852
G1 X119.593 Y108.204 E47.40678
G1 X119.37 Y108.822 E47.43955
G1 X119.197 Y109.185 E47.45961
G1 X118.472 Y110.571 E47.53765
G1 X118.133 Y111.133 E47.5704
G1 X117.888 Y111.461 E47.59082
G1 X116.9 Y112.684 E47.66926
G1 X116.523 Y113.103 E47.69738
G1 X113.291 Y116.345 E47.92577
G1 X112.937 Y116.67 E47.94974
G1 X111.66 Y117.741 E48.03289
G1 X111.132 Y118.132 E48.06567
G1 X110.775 Y118.345 E48.08641
G1 X109.39 Y119.1 E48.16511
G1 X108.795 Y119.379 E48.1979
G1 X108.417 Y119.513 E48.2179
G1 X106.927 Y119.979 E48.29579
G1 X106.289 Y120.136 E48.32857
G1 X105.89 Y120.194 E48.34869
G1 X104.264 Y120.368 E48.43027
G1 X103.689 Y120.399 E48.459
G1 X87.235 Y120.4 E49.27989
G1 X86.58 Y120.36 E49.31263
G1 X85.934 Y120.241 E49.3454
G1 X85.307 Y120.044 E49.37819
G1 X84.709 Y119.773 E49.41095
G1 X84.148 Y119.43 E49.44375
G1 X83.417 Y118.818 E49.49132
G1 X83.3 Y118.701 E49.49957
G1 X82.864 Y118.209 E49.53237
G1 X82.492 Y117.668 E49.56512
G1 X82.188 Y117.086 E49.59788
