;FLAVOR:Marlin
;TIME:4485
;Filament used: 3.2472m
;Layer height: 0.15
;MINX:62.705
;MINY:47.66
;MINZ:0.3
;MAXX:140.447
;MAXY:117.8
;MAXZ:20.95
;Generated with Cura_SteamEngine 4.4.0
M140 S55
M105
M190 S55
M104 S207
M105
M109 S207
M82 ;absolute extrusion mode
G28 ;Home
G1 Z15.0 F6000 ;Move the platform down 15mm
;Prime the extruder
G92 E0
G1 F200 E3
G92 E0
G92 E0
G92 E0
G1 F1500 E-6.5
;LAYER_COUNT:132
;LAYER:0
M107 P1
G1 F600 Z1.3
G0 F3600 X95.658 Y81.143 Z1.3
;TYPE:SKIRT
G1 F600 Z0.3
G1 F1500 E0
G1 F1800 X95.456 Y81.723 E0.03064
G1 X95.062 Y82.55 E0.07634
G1 X94.872 Y82.895 E0.09599
G1 X94.457 Y83.566 E0.13535
G1 X93.854 Y84.318 E0.18344
G1 X106.966 Y84.317 E0.8376
G1 X106.965 Y77.88 E1.15875
G1 X106.584 Y78.261 E1.18563
G1 X105.994 Y78.793 E1.22526
G1 X105.665 Y79.061 E1.24643
G1 X105.029 Y79.529 E1.28583
G1 X104.388 Y79.908 E1.32298
G1 X104.046 Y80.089 E1.34229
G1 X103.33 Y80.423 E1.3817
G1 X102.609 Y80.675 E1.41981
G1 X102.237 Y80.785 E1.43916
G1 X101.469 Y80.97 E1.47857
G1 X100.803 Y81.066 E1.51214
G1 X100.424 Y81.104 E1.53115
G1 X99.646 Y81.143 E1.57001
G1 X95.658 Y81.143 E1.76897
G0 F3600 X95.332 Y80.865
G1 F1800 X95.078 Y81.591 E1.80734
G1 X94.712 Y82.357 E1.8497
G1 X94.522 Y82.702 E1.86935
G1 X94.116 Y83.355 E1.90771
G1 X93.472 Y84.158 E1.95906
G1 X92.952 Y84.72 E1.99726
G1 X93.02 Y84.718 E2.00066
G1 X107.366 Y84.717 E2.71638
G1 X107.365 Y76.913 E3.10572
G1 X106.301 Y77.978 E3.18083
G1 X105.742 Y78.483 E3.21841
G1 X105.413 Y78.751 E3.23959
G1 X104.792 Y79.205 E3.27796
G1 X104.2 Y79.554 E3.31225
G1 X103.858 Y79.735 E3.33155
G1 X103.161 Y80.059 E3.3699
G1 X102.495 Y80.291 E3.40509
G1 X102.123 Y80.401 E3.42444
G1 X101.375 Y80.581 E3.46282
G1 X100.763 Y80.668 E3.49366
G1 X100.384 Y80.706 E3.51267
G1 X99.646 Y80.743 E3.54953
G1 X95.368 Y80.743 E3.76296
G1 X95.332 Y80.865 E3.76931
G0 F3600 X94.948 Y80.753
G1 F1800 X94.7 Y81.458 E3.80659
G1 X94.362 Y82.164 E3.84564
G1 X94.172 Y82.509 E3.86529
G1 X93.776 Y83.144 E3.90263
G1 X93.178 Y83.886 E3.95017
G1 X92.497 Y84.622 E4.0002
G1 X92.309 Y84.817 E4.01371
G1 X91.92 Y85.206 E4.04116
G1 X93.02 Y85.118 E4.09621
G1 X107.766 Y85.117 E4.83189
G1 X107.765 Y75.947 E5.28939
G1 X106.018 Y77.695 E5.41268
G1 X105.489 Y78.173 E5.44825
G1 X105.16 Y78.441 E5.46942
G1 X104.556 Y78.882 E5.50673
G1 X104.013 Y79.201 E5.53815
G1 X103.671 Y79.382 E5.55746
G1 X102.992 Y79.696 E5.59478
G1 X102.382 Y79.908 E5.627
G1 X102.01 Y80.018 E5.64635
G1 X101.282 Y80.191 E5.68368
G1 X100.723 Y80.27 E5.71185
G1 X100.344 Y80.308 E5.73085
G1 X99.646 Y80.343 E5.76572
G1 X95.068 Y80.343 E5.99412
G1 X94.948 Y80.753 E6.01543
G0 F3600 X94.564 Y80.64
G1 F1800 X94.322 Y81.325 E6.05168
G1 X94.011 Y81.971 E6.08745
G1 X93.821 Y82.316 E6.1071
G1 X93.436 Y82.932 E6.14334
G1 X92.884 Y83.614 E6.18711
G1 X92.203 Y84.35 E6.23714
G1 X92.026 Y84.534 E6.24987
G1 X90.572 Y85.988 E6.35246
G1 X90.611 Y85.973 E6.35455
G1 X91.301 Y85.746 E6.39078
G1 X92.011 Y85.596 E6.42699
G1 X93.02 Y85.518 E6.47748
G1 X108.166 Y85.517 E7.23312
G1 X108.165 Y74.981 E7.75876
G1 X105.735 Y77.412 E7.93024
G1 X105.236 Y77.863 E7.9638
G1 X104.907 Y78.131 E7.98497
G1 X104.32 Y78.558 E8.02118
G1 X103.826 Y78.847 E8.04974
G1 X103.484 Y79.028 E8.06904
G1 X102.825 Y79.332 E8.10525
G1 X102.269 Y79.524 E8.1346
G1 X101.897 Y79.634 E8.15395
G1 X101.19 Y79.801 E8.19019
G1 X100.683 Y79.872 E8.21573
G1 X100.304 Y79.91 E8.23474
G1 X99.646 Y79.943 E8.26761
G1 X94.75 Y79.943 E8.51187
G1 X94.686 Y80.223 E8.5262
G1 X94.564 Y80.64 E8.54787
G0 F3600 X94.181 Y80.528
G1 F1800 X93.945 Y81.191 E8.58298
G1 X93.661 Y81.778 E8.61552
G1 X93.471 Y82.123 E8.63517
G1 X93.097 Y82.719 E8.67027
G1 X92.591 Y83.343 E8.71035
G1 X91.91 Y84.079 E8.76038
G1 X91.744 Y84.252 E8.77234
G1 X83.37 Y92.628 E9.36324
G1 X82.896 Y93.055 E9.39507
G1 X82.57 Y93.32 E9.41603
G1 X81.999 Y93.732 E9.45116
G1 X81.551 Y93.993 E9.47703
G1 X81.202 Y94.177 E9.49671
G1 X80.561 Y94.47 E9.53187
G1 X80.09 Y94.632 E9.55672
G1 X79.723 Y94.742 E9.57584
G1 X79.038 Y94.905 E9.61096
G1 X78.56 Y94.972 E9.63504
G1 X78.18 Y95.01 E9.6541
G1 X77.563 Y95.041 E9.68492
G1 X70.623 Y95.041 E10.03116
G1 X69.92 Y95.001 E10.06629
G1 X69.226 Y94.882 E10.10142
G1 X68.551 Y94.684 E10.13651
G1 X67.902 Y94.412 E10.17162
G1 X67.288 Y94.067 E10.20675
G1 X66.717 Y93.656 E10.24185
G1 X66.239 Y93.225 E10.27396
G1 X66.122 Y93.108 E10.28222
G1 X65.653 Y92.583 E10.31734
G1 X65.247 Y92.008 E10.35246
G1 X64.909 Y91.39 E10.3876
G1 X64.642 Y90.739 E10.4227
G1 X64.452 Y90.061 E10.45783
G1 X64.339 Y89.366 E10.49296
G1 X64.306 Y88.724 E10.52503
G1 X64.305 Y71.86 E11.36638
G1 X64.345 Y71.158 E11.40146
G1 X64.464 Y70.464 E11.43659
G1 X64.662 Y69.788 E11.47173
G1 X64.794 Y69.446 E11.49002
G1 X64.947 Y69.084 E11.50963
G1 X65.258 Y68.452 E11.54477
G1 X65.638 Y67.86 E11.57987
G1 X66.258 Y67.13 E11.62765
G1 X66.656 Y66.729 E11.65584
G1 X67.179 Y66.259 E11.69092
G1 X67.752 Y65.85 E11.72604
G1 X68.369 Y65.51 E11.76119
G1 X68.793 Y65.325 E11.78427
G1 X69.145 Y65.187 E11.80313
G1 X69.814 Y64.967 E11.83826
G1 X70.503 Y64.825 E11.87336
G1 X71.408 Y64.759 E11.91863
G1 X86.387 Y64.758 E12.66594
G1 X86.387 Y56.362 E13.08481
G1 X86.427 Y55.66 E13.11989
G1 X86.546 Y54.966 E13.15502
G1 X86.744 Y54.29 E13.19017
G1 X86.876 Y53.948 E13.20846
G1 X87.029 Y53.586 E13.22806
G1 X87.34 Y52.954 E13.2632
G1 X87.72 Y52.362 E13.2983
G1 X88.34 Y51.632 E13.34608
G1 X88.738 Y51.231 E13.37427
G1 X89.261 Y50.761 E13.40935
G1 X89.834 Y50.352 E13.44447
G1 X90.451 Y50.012 E13.47962
G1 X90.875 Y49.827 E13.5027
G1 X91.227 Y49.689 E13.52156
G1 X91.896 Y49.469 E13.5567
G1 X92.585 Y49.327 E13.59179
G1 X93.49 Y49.261 E13.63706
G1 X110.353 Y49.26 E14.47836
G1 X111.055 Y49.3 E14.51344
G1 X111.749 Y49.419 E14.54857
G1 X112.425 Y49.617 E14.58371
G1 X113.074 Y49.889 E14.61882
G1 X113.688 Y50.233 E14.65393
G1 X114.259 Y50.645 E14.68906
G1 X114.737 Y51.076 E14.72117
G1 X114.854 Y51.193 E14.72943
G1 X115.323 Y51.718 E14.76455
G1 X115.729 Y52.293 E14.79967
G1 X116.067 Y52.911 E14.83481
G1 X116.334 Y53.562 E14.86991
G1 X116.524 Y54.24 E14.90504
G1 X116.637 Y54.935 E14.94017
G1 X116.67 Y55.577 E14.97224
G1 X116.67 Y62.202 E15.30277
G1 X116.662 Y62.525 E15.31888
G1 X116.627 Y63.195 E15.35236
G1 X116.55 Y63.895 E15.38749
G1 X116.386 Y64.613 E15.42423
G1 X116.264 Y65.03 E15.44591
G1 X116.17 Y65.295 E15.45994
G1 X132.53 Y65.294 E16.27614
G1 X133.232 Y65.334 E16.31122
G1 X133.926 Y65.453 E16.34635
G1 X134.602 Y65.651 E16.38149
G1 X135.251 Y65.923 E16.4166
G1 X135.865 Y66.267 E16.45171
G1 X136.436 Y66.679 E16.48684
G1 X136.914 Y67.11 E16.51895
G1 X137.031 Y67.227 E16.52721
G1 X137.5 Y67.752 E16.56233
G1 X137.906 Y68.327 E16.59745
G1 X138.244 Y68.945 E16.63259
G1 X138.511 Y69.596 E16.66769
G1 X138.701 Y70.274 E16.70282
G1 X138.814 Y70.969 E16.73795
G1 X138.847 Y71.611 E16.77002
G1 X138.847 Y78.237 E17.1006
G1 X138.839 Y78.56 E17.11671
G1 X138.804 Y79.23 E17.15019
G1 X138.727 Y79.93 E17.18532
G1 X138.563 Y80.648 E17.22206
G1 X138.441 Y81.065 E17.24374
G1 X138.205 Y81.728 E17.27885
G1 X137.931 Y82.297 E17.31036
G1 X137.743 Y82.641 E17.32992
G1 X137.37 Y83.239 E17.36508
G1 X136.849 Y83.882 E17.40637
G1 X136.166 Y84.619 E17.4565
G1 X136.003 Y84.789 E17.46825
G1 X127.629 Y93.164 E18.05911
G1 X127.161 Y93.587 E18.09059
G1 X126.832 Y93.855 E18.11176
G1 X126.262 Y94.268 E18.14687
G1 X125.829 Y94.521 E18.17189
G1 X125.487 Y94.703 E18.19122
G1 X124.847 Y94.998 E18.22638
G1 X124.328 Y95.177 E18.25377
G1 X123.955 Y95.287 E18.27317
G1 X123.269 Y95.447 E18.30831
G1 X122.805 Y95.511 E18.33168
G1 X122.427 Y95.548 E18.35063
G1 X121.823 Y95.577 E18.3808
G1 X116.2 Y95.577 E18.66133
G1 X116.2 Y98.86 E18.82512
G1 X116.192 Y99.183 E18.84124
G1 X116.157 Y99.853 E18.87471
G1 X116.08 Y100.553 E18.90985
G1 X115.916 Y101.271 E18.94659
G1 X115.794 Y101.688 E18.96827
G1 X115.558 Y102.351 E19.00338
G1 X115.284 Y102.92 E19.03488
G1 X115.096 Y103.264 E19.05444
G1 X114.723 Y103.862 E19.0896
G1 X114.199 Y104.509 E19.13114
G1 X113.515 Y105.246 E19.18131
G1 X113.356 Y105.412 E19.19277
G1 X104.983 Y113.787 E19.78361
G1 X104.514 Y114.21 E19.81512
G1 X104.185 Y114.478 E19.83629
G1 X103.615 Y114.891 E19.8714
G1 X103.182 Y115.144 E19.89642
G1 X102.84 Y115.326 E19.91575
G1 X102.2 Y115.621 E19.95091
G1 X101.681 Y115.8 E19.9783
G1 X101.308 Y115.91 E19.9977
G1 X100.622 Y116.07 E20.03284
G1 X100.158 Y116.134 E20.05621
G1 X99.78 Y116.171 E20.07516
G1 X99.176 Y116.2 E20.10533
G1 X92.235 Y116.2 E20.45162
G1 X91.532 Y116.16 E20.48675
G1 X90.838 Y116.041 E20.52188
G1 X90.163 Y115.843 E20.55697
G1 X89.514 Y115.571 E20.59208
G1 X88.9 Y115.226 E20.62721
G1 X88.329 Y114.815 E20.66231
G1 X87.851 Y114.384 E20.69442
G1 X87.734 Y114.267 E20.70268
G1 X87.265 Y113.742 E20.7378
G1 X86.859 Y113.167 E20.77292
G1 X86.521 Y112.549 E20.80806
G1 X86.254 Y111.898 E20.84316
G1 X86.064 Y111.22 E20.87829
G1 X85.951 Y110.525 E20.91342
G1 X85.918 Y109.883 E20.94549
G1 X85.917 Y93.019 E21.78684
G1 X85.957 Y92.317 E21.82192
G1 X86.076 Y91.623 E21.85705
G1 X86.274 Y90.947 E21.89219
G1 X86.406 Y90.605 E21.91048
G1 X86.559 Y90.243 E21.93009
G1 X86.87 Y89.611 E21.96523
G1 X87.25 Y89.019 E22.00033
G1 X87.87 Y88.289 E22.04811
G1 X88.268 Y87.888 E22.0763
G1 X88.791 Y87.418 E22.11138
G1 X89.364 Y87.009 E22.1465
G1 X89.981 Y86.669 E22.18165
G1 X90.405 Y86.484 E22.20473
G1 X90.757 Y86.346 E22.22359
G1 X91.426 Y86.126 E22.25872
G1 X92.115 Y85.984 E22.29382
G1 X93.02 Y85.918 E22.33909
G1 X108.566 Y85.917 E23.11468
G1 X108.565 Y74.017 E23.70838
G1 X105.453 Y77.13 E23.92798
G1 X104.984 Y77.553 E23.95949
G1 X104.655 Y77.821 E23.98066
G1 X104.085 Y78.234 E24.01578
G1 X103.639 Y78.494 E24.04154
G1 X103.297 Y78.675 E24.06084
G1 X102.657 Y78.968 E24.09596
G1 X102.155 Y79.141 E24.12245
G1 X101.783 Y79.251 E24.1418
G1 X101.098 Y79.411 E24.1769
G1 X100.644 Y79.474 E24.19976
G1 X100.265 Y79.512 E24.21877
G1 X99.646 Y79.543 E24.24969
G1 X94.434 Y79.543 E24.50971
G1 X94.303 Y80.111 E24.5388
G1 X94.181 Y80.528 E24.56047
G0 F3600 X93.797 Y80.416
G1 F1800 X93.567 Y81.057 E24.59445
G1 X93.31 Y81.585 E24.62374
G1 X93.12 Y81.93 E24.64339
G1 X92.758 Y82.506 E24.67734
G1 X92.297 Y83.071 E24.71372
G1 X91.616 Y83.807 E24.76374
G1 X91.461 Y83.969 E24.77493
G1 X83.087 Y92.345 E25.36583
G1 X82.643 Y92.745 E25.39564
G1 X82.317 Y93.01 E25.4166
G1 X81.765 Y93.407 E25.45053
G1 X81.364 Y93.64 E25.47366
G1 X81.015 Y93.824 E25.49335
G1 X80.395 Y94.105 E25.52731
G1 X79.975 Y94.249 E25.54946
G1 X79.608 Y94.359 E25.56857
G1 X78.946 Y94.516 E25.60252
G1 X78.52 Y94.574 E25.62397
G1 X78.14 Y94.612 E25.64302
G1 X77.563 Y94.641 E25.67184
G1 X70.623 Y94.641 E26.01808
G1 X69.943 Y94.601 E26.05206
G1 X69.273 Y94.482 E26.08601
G1 X68.621 Y94.285 E26.11999
G1 X67.997 Y94.013 E26.15395
G1 X67.409 Y93.669 E26.18794
G1 X66.865 Y93.259 E26.22193
G1 X66.522 Y92.942 E26.24523
G1 X66.405 Y92.825 E26.25348
G1 X65.952 Y92.316 E26.28748
G1 X65.563 Y91.758 E26.32141
G1 X65.241 Y91.158 E26.35539
G1 X64.992 Y90.524 E26.38937
G1 X64.819 Y89.865 E26.42336
G1 X64.725 Y89.191 E26.45731
G1 X64.706 Y88.724 E26.48063
G1 X64.705 Y71.86 E27.32198
G1 X64.745 Y71.181 E27.35591
G1 X64.864 Y70.51 E27.38991
G1 X65.163 Y69.602 E27.4376
G1 X65.316 Y69.24 E27.45721
G1 X65.617 Y68.629 E27.49119
G1 X65.988 Y68.058 E27.52516
G1 X66.541 Y67.412 E27.56759
G1 X66.939 Y67.011 E27.59578
G1 X67.447 Y66.557 E27.62977
G1 X68.004 Y66.165 E27.66375
G1 X68.603 Y65.841 E27.69772
G1 X68.939 Y65.697 E27.71596
G1 X69.291 Y65.559 E27.73482
G1 X69.938 Y65.348 E27.76878
G1 X70.606 Y65.215 E27.80276
G1 X71.408 Y65.159 E27.84287
G1 X86.788 Y65.158 E28.61018
G1 X86.787 Y56.362 E29.04901
G1 X86.827 Y55.683 E29.08295
G1 X86.946 Y55.012 E29.11695
G1 X87.245 Y54.104 E29.16464
G1 X87.398 Y53.742 E29.18425
G1 X87.699 Y53.131 E29.21823
G1 X88.07 Y52.56 E29.2522
G1 X88.623 Y51.914 E29.29462
G1 X89.021 Y51.513 E29.32281
G1 X89.529 Y51.059 E29.3568
G1 X90.086 Y50.667 E29.39078
G1 X90.685 Y50.343 E29.42476
G1 X91.021 Y50.199 E29.443
G1 X91.373 Y50.061 E29.46186
G1 X92.02 Y49.85 E29.49581
G1 X92.688 Y49.717 E29.52979
G1 X93.49 Y49.661 E29.5699
G1 X110.353 Y49.66 E30.4112
G1 X111.032 Y49.7 E30.44513
G1 X111.703 Y49.819 E30.47913
G1 X112.354 Y50.016 E30.51307
G1 X112.979 Y50.288 E30.54707
G1 X113.567 Y50.632 E30.58106
G1 X114.11 Y51.042 E30.615
G1 X114.454 Y51.359 E30.63834
G1 X114.571 Y51.476 E30.6466
G1 X115.024 Y51.985 E30.68059
G1 X115.413 Y52.543 E30.71453
G1 X115.735 Y53.143 E30.7485
G1 X115.984 Y53.777 E30.78248
G1 X116.157 Y54.436 E30.81647
G1 X116.251 Y55.11 E30.85043
G1 X116.27 Y55.577 E30.87374
G1 X116.27 Y62.202 E31.20427
G1 X116.262 Y62.505 E31.21939
G1 X116.227 Y63.175 E31.25286
G1 X116.152 Y63.851 E31.28679
G1 X116.002 Y64.501 E31.32007
G1 X115.88 Y64.918 E31.34175
G1 X115.65 Y65.559 E31.37573
G1 X115.581 Y65.701 E31.3836
G1 X115.667 Y65.695 E31.3879
G1 X132.53 Y65.694 E32.2292
G1 X133.209 Y65.734 E32.26314
G1 X133.88 Y65.853 E32.29713
G1 X134.531 Y66.05 E32.33107
G1 X135.156 Y66.322 E32.36507
G1 X135.744 Y66.666 E32.39906
G1 X136.287 Y67.076 E32.43301
G1 X136.631 Y67.393 E32.45634
G1 X136.748 Y67.51 E32.4646
G1 X137.201 Y68.019 E32.49859
G1 X137.59 Y68.577 E32.53253
G1 X137.912 Y69.177 E32.5665
G1 X138.161 Y69.811 E32.60048
G1 X138.334 Y70.47 E32.63448
G1 X138.428 Y71.144 E32.66843
G1 X138.447 Y71.611 E32.69175
G1 X138.447 Y78.237 E33.02232
G1 X138.439 Y78.54 E33.03744
G1 X138.404 Y79.21 E33.07091
G1 X138.329 Y79.886 E33.10484
G1 X138.179 Y80.536 E33.13813
G1 X138.057 Y80.953 E33.1598
G1 X137.827 Y81.594 E33.19378
G1 X137.58 Y82.105 E33.22209
G1 X137.392 Y82.449 E33.24165
G1 X137.03 Y83.027 E33.27568
G1 X136.556 Y83.61 E33.31316
G1 X135.873 Y84.347 E33.36329
G1 X135.72 Y84.506 E33.3743
G1 X127.346 Y92.881 E33.96517
G1 X126.908 Y93.277 E33.99463
G1 X126.579 Y93.545 E34.0158
G1 X126.027 Y93.943 E34.04975
G1 X125.641 Y94.168 E34.07204
G1 X125.299 Y94.35 E34.09137
G1 X124.68 Y94.634 E34.12535
G1 X124.215 Y94.793 E34.14986
G1 X123.842 Y94.903 E34.16926
G1 X123.178 Y95.057 E34.20327
G1 X122.766 Y95.112 E34.22401
G1 X122.388 Y95.149 E34.24296
G1 X121.823 Y95.177 E34.27118
G1 X115.8 Y95.177 E34.57167
G1 X115.8 Y98.86 E34.75541
G1 X115.792 Y99.163 E34.77054
G1 X115.757 Y99.833 E34.80401
G1 X115.682 Y100.509 E34.83794
G1 X115.532 Y101.159 E34.87122
G1 X115.41 Y101.576 E34.8929
G1 X115.18 Y102.217 E34.92687
G1 X114.933 Y102.728 E34.95519
G1 X114.745 Y103.072 E34.97475
G1 X114.383 Y103.65 E35.00877
G1 X113.906 Y104.237 E35.04651
G1 X113.222 Y104.974 E35.09667
G1 X113.073 Y105.129 E35.1074
G1 X104.7 Y113.504 E35.69823
G1 X104.261 Y113.9 E35.72773
G1 X103.932 Y114.168 E35.7489
G1 X103.38 Y114.566 E35.78285
G1 X102.994 Y114.791 E35.80514
G1 X102.652 Y114.973 E35.82447
G1 X102.033 Y115.257 E35.85844
G1 X101.568 Y115.416 E35.88296
G1 X101.195 Y115.526 E35.90236
G1 X100.531 Y115.68 E35.93637
G1 X100.119 Y115.735 E35.95711
G1 X99.741 Y115.772 E35.97605
G1 X99.176 Y115.8 E36.00428
G1 X92.235 Y115.8 E36.35056
G1 X91.555 Y115.76 E36.38455
G1 X90.885 Y115.641 E36.4185
G1 X90.233 Y115.444 E36.45248
G1 X89.609 Y115.172 E36.48644
G1 X89.021 Y114.828 E36.52043
G1 X88.477 Y114.418 E36.55441
G1 X88.134 Y114.101 E36.57771
G1 X88.017 Y113.984 E36.58597
G1 X87.564 Y113.475 E36.61996
G1 X87.175 Y112.917 E36.6539
G1 X86.853 Y112.317 E36.68787
G1 X86.604 Y111.683 E36.72185
G1 X86.431 Y111.024 E36.75585
G1 X86.337 Y110.35 E36.7898
G1 X86.318 Y109.883 E36.81311
G1 X86.317 Y93.019 E37.65446
G1 X86.357 Y92.34 E37.6884
G1 X86.476 Y91.669 E37.7224
G1 X86.775 Y90.761 E37.77009
G1 X86.928 Y90.399 E37.7897
G1 X87.229 Y89.788 E37.82368
G1 X87.6 Y89.217 E37.85765
G1 X88.153 Y88.571 E37.90007
G1 X88.551 Y88.17 E37.92826
G1 X89.059 Y87.716 E37.96225
G1 X89.616 Y87.324 E37.99623
G1 X90.215 Y87 E38.03021
G1 X90.551 Y86.856 E38.04845
G1 X90.903 Y86.718 E38.06731
G1 X91.55 Y86.507 E38.10126
G1 X92.218 Y86.374 E38.13524
G1 X93.02 Y86.318 E38.17535
G1 X108.966 Y86.317 E38.9709
G1 X108.965 Y73.051 E39.63274
G1 X105.17 Y76.847 E39.90054
G1 X104.731 Y77.243 E39.93003
G1 X104.402 Y77.511 E39.9512
G1 X103.85 Y77.909 E39.98515
G1 X103.452 Y78.14 E40.00811
G1 X103.11 Y78.321 E40.02742
G1 X102.491 Y78.604 E40.06137
G1 X102.042 Y78.757 E40.08504
G1 X101.67 Y78.867 E40.10439
G1 X101.007 Y79.021 E40.13835
G1 X100.604 Y79.076 E40.15864
