;FLAVOR:Marlin
;TIME:6168
;Filament used: 4.04984m
;Layer height: 0.15
;MINX:83.468
;MINY:53.423
;MINZ:0.3
;MAXX:146.485
;MAXY:116.532
;MAXZ:20.95
;Generated with Cura_SteamEngine 4.4.0
M140 S55
M105
M190 S55
M104 S207
M105
M109 S207
M82 ;absolute extrusion mode
G28 ;Home
G1 Z15.0 F6000 ;Move the platform down 15mm
;Prime the extruder
G92 E0
G1 F200 E3
G92 E0
G92 E0
G92 E0
G1 F1500 E-6.5
;LAYER_COUNT:132
;LAYER:0
M107 P1
G1 F600 Z1.3
G0 F3600 X84.866 Y58.108 Z1.3
;TYPE:SKIRT
G1 F600 Z0.3
G1 F1500 E0
G1 F1350 X85.349 Y57.483 E0.03941
G1 X85.754 Y57.047 E0.0691
G1 X85.871 Y56.93 E0.07735
G1 X86.457 Y56.4 E0.11677
G1 X87.093 Y55.933 E0.15614
G1 X87.773 Y55.532 E0.19552
G1 X88.491 Y55.202 E0.23494
G1 X89.238 Y54.947 E0.27432
G1 X90.007 Y54.768 E0.31372
G1 X90.791 Y54.668 E0.35315
G1 X91.386 Y54.645 E0.38285
G1 X99.877 Y54.645 E0.80647
G1 X100.524 Y54.672 E0.83878
G1 X102.049 Y54.799 E0.91512
G1 X102.832 Y54.904 E0.95454
G1 X103.6 Y55.088 E0.99394
G1 X104.918 Y55.475 E1.06247
G1 X105.663 Y55.736 E1.10185
G1 X106.336 Y56.048 E1.13886
G1 X107.546 Y56.681 E1.20699
G1 X108.226 Y57.082 E1.24637
G1 X108.829 Y57.522 E1.28362
G1 X109.907 Y58.392 E1.35273
G1 X110.515 Y58.938 E1.3935
G1 X112.191 Y60.609 E1.51157
G1 X112.194 Y60.551 E1.51447
G1 X112.314 Y59.77 E1.55389
G1 X112.511 Y59.006 E1.59325
G1 X112.786 Y58.265 E1.63268
G1 X113.133 Y57.556 E1.67207
G1 X113.551 Y56.886 E1.71146
G1 X114.034 Y56.261 E1.75087
G1 X114.439 Y55.825 E1.78056
G1 X114.556 Y55.708 E1.78882
G1 X115.142 Y55.178 E1.82823
G1 X115.778 Y54.711 E1.8676
G1 X116.458 Y54.31 E1.90699
G1 X117.176 Y53.98 E1.94641
G1 X117.923 Y53.725 E1.98579
G1 X118.692 Y53.546 E2.02518
G1 X119.476 Y53.446 E2.06461
G1 X120.071 Y53.423 E2.09432
G1 X128.562 Y53.423 E2.51793
G1 X129.209 Y53.45 E2.55024
G1 X130.734 Y53.577 E2.62659
G1 X131.517 Y53.682 E2.666
G1 X132.285 Y53.866 E2.7054
G1 X133.603 Y54.253 E2.77393
G1 X134.348 Y54.514 E2.81332
G1 X135.016 Y54.823 E2.85004
G1 X136.23 Y55.457 E2.91836
G1 X136.91 Y55.858 E2.95775
G1 X137.522 Y56.305 E2.99556
G1 X138.591 Y57.169 E3.06413
G1 X139.194 Y57.71 E3.10455
G1 X142.034 Y60.54 E3.30457
G1 X142.508 Y61.057 E3.33957
G1 X143.441 Y62.171 E3.41206
G1 X143.917 Y62.801 E3.45146
G1 X144.309 Y63.445 E3.48907
G1 X144.971 Y64.659 E3.55806
G1 X145.313 Y65.37 E3.59742
G1 X145.564 Y66.055 E3.63382
G1 X145.973 Y67.357 E3.7019
G1 X146.172 Y68.122 E3.74134
G1 X146.288 Y68.868 E3.779
G1 X146.434 Y70.238 E3.84774
G1 X146.478 Y71.059 E3.88876
G1 X146.485 Y79.832 E4.32645
G1 X146.446 Y80.62 E4.36581
G1 X146.327 Y81.401 E4.40522
G1 X146.13 Y82.166 E4.44463
G1 X145.856 Y82.907 E4.48405
G1 X145.509 Y83.616 E4.52343
G1 X145.092 Y84.287 E4.56284
G1 X144.609 Y84.912 E4.60225
G1 X144.2 Y85.353 E4.63226
G1 X144.083 Y85.47 E4.64051
G1 X143.497 Y86 E4.67993
G1 X142.861 Y86.467 E4.7193
G1 X142.181 Y86.868 E4.75868
G1 X141.463 Y87.198 E4.79811
G1 X140.716 Y87.453 E4.83749
G1 X139.947 Y87.632 E4.87688
G1 X139.69 Y87.665 E4.8898
G1 X141.35 Y89.319 E5.00671
G1 X141.823 Y89.835 E5.04164
G1 X142.756 Y90.949 E5.11413
G1 X143.232 Y91.579 E5.15353
G1 X143.622 Y92.218 E5.19087
G1 X144.285 Y93.432 E5.25988
G1 X144.628 Y94.144 E5.29931
G1 X144.883 Y94.842 E5.33639
G1 X145.29 Y96.143 E5.4044
G1 X145.488 Y96.908 E5.44382
G1 X145.601 Y97.64 E5.48077
G1 X145.748 Y99.01 E5.54951
G1 X145.793 Y99.836 E5.59078
G1 X145.8 Y108.609 E6.02847
G1 X145.761 Y109.397 E6.06783
G1 X145.642 Y110.178 E6.10725
G1 X145.445 Y110.943 E6.14666
G1 X145.171 Y111.684 E6.18607
G1 X144.824 Y112.393 E6.22545
G1 X144.407 Y113.064 E6.26487
G1 X143.924 Y113.689 E6.30428
G1 X143.515 Y114.13 E6.33428
G1 X143.398 Y114.247 E6.34254
G1 X142.812 Y114.777 E6.38196
G1 X142.176 Y115.244 E6.42132
G1 X141.496 Y115.645 E6.46071
G1 X140.778 Y115.975 E6.50013
G1 X140.031 Y116.23 E6.53951
G1 X139.262 Y116.409 E6.5789
G1 X138.478 Y116.509 E6.61833
G1 X137.883 Y116.532 E6.64804
G1 X120.011 Y116.531 E7.53968
G1 X119.222 Y116.491 E7.57909
G1 X118.441 Y116.371 E7.61851
G1 X117.988 Y116.264 E7.64174
G1 X117.664 Y116.177 E7.65847
G1 X116.913 Y115.934 E7.69785
G1 X116.19 Y115.616 E7.73726
G1 X115.503 Y115.227 E7.77665
G1 X114.946 Y114.838 E7.81054
G1 X114.837 Y114.754 E7.81741
G1 X114.812 Y114.777 E7.8191
G1 X114.176 Y115.244 E7.85847
G1 X113.496 Y115.645 E7.89785
G1 X112.778 Y115.975 E7.93727
G1 X112.031 Y116.23 E7.97665
G1 X111.262 Y116.409 E8.01605
G1 X110.478 Y116.509 E8.05548
G1 X109.883 Y116.532 E8.08518
G1 X92.011 Y116.531 E8.97682
G1 X91.222 Y116.491 E9.01624
G1 X90.441 Y116.371 E9.05566
G1 X89.988 Y116.264 E9.07888
G1 X89.664 Y116.177 E9.09562
G1 X88.913 Y115.934 E9.135
G1 X88.19 Y115.616 E9.1744
G1 X87.503 Y115.227 E9.21379
G1 X86.946 Y114.838 E9.24768
G1 X86.72 Y114.665 E9.26188
G1 X86.118 Y114.154 E9.30128
G1 X85.571 Y113.584 E9.34069
G1 X85.084 Y112.962 E9.3801
G1 X84.847 Y112.605 E9.40148
G1 X84.727 Y112.413 E9.41278
G1 X84.343 Y111.723 E9.45217
G1 X84.03 Y110.998 E9.49157
G1 X83.775 Y110.177 E9.53446
G1 X83.702 Y109.886 E9.54943
G1 X83.549 Y109.111 E9.58884
G1 X83.468 Y107.988 E9.64501
G1 X83.469 Y90.117 E10.5366
G1 X83.509 Y89.328 E10.57601
G1 X83.629 Y88.547 E10.61544
G1 X83.826 Y87.783 E10.6548
G1 X84.101 Y87.042 E10.69423
G1 X84.448 Y86.333 E10.73361
G1 X84.866 Y85.663 E10.77301
G1 X85.075 Y85.393 E10.79005
G1 X84.837 Y85.035 E10.81149
G1 X84.717 Y84.842 E10.82283
G1 X84.335 Y84.151 E10.86222
G1 X84.024 Y83.425 E10.90163
G1 X83.775 Y82.621 E10.94362
G1 X83.702 Y82.33 E10.95859
G1 X83.549 Y81.555 E10.998
G1 X83.468 Y80.432 E11.05417
G1 X83.469 Y62.562 E11.94571
G1 X83.509 Y61.773 E11.98512
G1 X83.629 Y60.992 E12.02454
G1 X83.826 Y60.228 E12.0639
G1 X84.101 Y59.487 E12.10334
G1 X84.448 Y58.778 E12.14272
G1 X84.866 Y58.108 E12.18212
G0 F3600 X85.263 Y58.238
G1 F1350 X85.745 Y57.638 E12.22051
G1 X86.036 Y57.329 E12.24169
G1 X86.153 Y57.212 E12.24994
G1 X86.725 Y56.698 E12.28831
G1 X87.347 Y56.245 E12.3267
G1 X88.012 Y55.859 E12.36506
G1 X88.714 Y55.544 E12.40345
G1 X89.445 Y55.304 E12.44183
G1 X90.196 Y55.141 E12.48017
G1 X90.961 Y55.057 E12.51857
G1 X91.386 Y55.045 E12.53978
G1 X99.877 Y55.045 E12.9634
G1 X100.491 Y55.071 E12.99406
G1 X102.016 Y55.198 E13.0704
G1 X102.778 Y55.301 E13.10877
G1 X103.487 Y55.472 E13.14515
G1 X104.805 Y55.859 E13.21368
G1 X105.531 Y56.114 E13.25207
G1 X106.15 Y56.402 E13.28613
G1 X107.36 Y57.035 E13.35426
G1 X108.022 Y57.427 E13.39265
G1 X108.577 Y57.833 E13.42695
G1 X109.655 Y58.703 E13.49607
G1 X110.232 Y59.221 E13.53475
G1 X112.554 Y61.536 E13.69833
G1 X112.554 Y61.34 E13.70811
G1 X112.594 Y60.571 E13.74653
G1 X112.714 Y59.812 E13.78487
G1 X112.911 Y59.068 E13.82326
G1 X113.185 Y58.35 E13.8616
G1 X113.532 Y57.663 E13.9
G1 X113.948 Y57.016 E13.93838
G1 X114.43 Y56.416 E13.97678
G1 X114.721 Y56.107 E13.99795
G1 X114.838 Y55.99 E14.00621
G1 X115.41 Y55.476 E14.04457
G1 X116.032 Y55.023 E14.08296
G1 X116.697 Y54.637 E14.12132
G1 X117.399 Y54.322 E14.15971
G1 X118.13 Y54.082 E14.19809
G1 X118.881 Y53.919 E14.23643
G1 X119.646 Y53.835 E14.27483
G1 X120.071 Y53.823 E14.29604
G1 X128.562 Y53.823 E14.71966
G1 X129.176 Y53.849 E14.75032
G1 X130.701 Y53.976 E14.82667
G1 X131.463 Y54.079 E14.86503
G1 X132.172 Y54.25 E14.90141
G1 X133.49 Y54.637 E14.96995
G1 X134.216 Y54.892 E15.00834
G1 X134.831 Y55.178 E15.04217
G1 X136.045 Y55.812 E15.1105
G1 X136.707 Y56.203 E15.14886
G1 X137.271 Y56.616 E15.18374
G1 X138.34 Y57.48 E15.25231
G1 X138.911 Y57.993 E15.29061
G1 X141.751 Y60.823 E15.49063
G1 X142.201 Y61.314 E15.52386
G1 X143.134 Y62.428 E15.59635
G1 X143.597 Y63.042 E15.63472
G1 X143.958 Y63.636 E15.6694
G1 X144.62 Y64.85 E15.73838
G1 X144.952 Y65.544 E15.77677
G1 X145.183 Y66.175 E15.81029
G1 X145.592 Y67.477 E15.87838
G1 X145.784 Y68.222 E15.91676
G1 X145.89 Y68.911 E15.95154
G1 X146.036 Y70.281 E16.02027
G1 X146.078 Y71.059 E16.05914
G1 X146.085 Y79.832 E16.49683
G1 X146.046 Y80.6 E16.5352
G1 X145.927 Y81.36 E16.57358
G1 X145.73 Y82.104 E16.61197
G1 X145.456 Y82.823 E16.65036
G1 X145.11 Y83.509 E16.68869
G1 X144.694 Y84.156 E16.72707
G1 X144.214 Y84.757 E16.76544
G1 X143.918 Y85.071 E16.78697
G1 X143.801 Y85.188 E16.79522
G1 X143.229 Y85.702 E16.83359
G1 X142.607 Y86.155 E16.87198
G1 X141.942 Y86.541 E16.91034
G1 X141.24 Y86.856 E16.94873
G1 X140.509 Y87.096 E16.98711
G1 X139.758 Y87.259 E17.02545
G1 X138.993 Y87.343 E17.06385
G1 X138.806 Y87.348 E17.07318
G1 X141.067 Y89.602 E17.23246
G1 X141.516 Y90.092 E17.26562
G1 X142.449 Y91.206 E17.33811
G1 X142.912 Y91.82 E17.37648
G1 X143.271 Y92.41 E17.41093
G1 X143.934 Y93.624 E17.47994
G1 X144.267 Y94.317 E17.5183
G1 X144.501 Y94.962 E17.55253
G1 X144.908 Y96.263 E17.62054
G1 X145.1 Y97.008 E17.65893
G1 X145.204 Y97.683 E17.693
G1 X145.351 Y99.053 E17.76174
G1 X145.393 Y99.836 E17.80086
G1 X145.4 Y108.609 E18.23855
G1 X145.361 Y109.377 E18.27691
G1 X145.242 Y110.137 E18.31529
G1 X145.045 Y110.881 E18.35369
G1 X144.771 Y111.6 E18.39208
G1 X144.425 Y112.286 E18.43041
G1 X144.009 Y112.933 E18.46878
G1 X143.529 Y113.534 E18.50716
G1 X143.233 Y113.848 E18.52869
G1 X143.116 Y113.965 E18.53694
G1 X142.544 Y114.479 E18.57531
G1 X141.922 Y114.932 E18.6137
G1 X141.257 Y115.318 E18.65206
G1 X140.555 Y115.633 E18.69045
G1 X139.824 Y115.873 E18.72883
G1 X139.073 Y116.036 E18.76717
G1 X138.308 Y116.12 E18.80557
G1 X137.883 Y116.132 E18.82678
G1 X120.011 Y116.131 E19.71841
G1 X119.242 Y116.091 E19.75683
G1 X118.483 Y115.971 E19.79517
G1 X118.092 Y115.878 E19.81522
G1 X117.768 Y115.791 E19.83196
G1 X117.036 Y115.553 E19.87036
G1 X116.334 Y115.241 E19.90869
G1 X115.667 Y114.857 E19.94708
G1 X115.189 Y114.52 E19.97626
G1 X114.963 Y114.347 E19.99046
G1 X114.823 Y114.228 E19.99963
G1 X114.544 Y114.479 E20.01835
G1 X113.922 Y114.932 E20.05674
G1 X113.257 Y115.318 E20.0951
G1 X112.555 Y115.633 E20.13349
G1 X111.824 Y115.873 E20.17187
G1 X111.073 Y116.036 E20.21021
G1 X110.308 Y116.12 E20.24861
G1 X109.883 Y116.132 E20.26982
G1 X92.011 Y116.131 E21.16146
G1 X91.242 Y116.091 E21.19988
G1 X90.483 Y115.971 E21.23821
G1 X90.092 Y115.878 E21.25826
G1 X89.768 Y115.791 E21.275
G1 X89.036 Y115.553 E21.3134
G1 X88.334 Y115.241 E21.35173
G1 X87.667 Y114.857 E21.39013
G1 X87.189 Y114.52 E21.4193
G1 X86.963 Y114.347 E21.4335
G1 X86.377 Y113.848 E21.4719
G1 X85.847 Y113.292 E21.51023
G1 X85.186 Y112.393 E21.5659
G1 X85.066 Y112.201 E21.57719
G1 X84.693 Y111.528 E21.61558
G1 X84.391 Y110.821 E21.65394
G1 X84.163 Y110.08 E21.69261
G1 X84.09 Y109.789 E21.70758
G1 X83.942 Y109.034 E21.74597
G1 X83.868 Y107.988 E21.79828
G1 X83.869 Y90.117 E22.68987
G1 X83.909 Y89.348 E22.72829
G1 X84.029 Y88.589 E22.76662
G1 X84.226 Y87.845 E22.80502
G1 X84.5 Y87.127 E22.84336
G1 X84.847 Y86.44 E22.88176
G1 X85.263 Y85.793 E22.92014
G1 X85.59 Y85.386 E22.94618
G1 X85.177 Y84.823 E22.98102
G1 X85.057 Y84.63 E22.99236
G1 X84.685 Y83.957 E23.03072
G1 X84.385 Y83.249 E23.06908
G1 X84.163 Y82.524 E23.10691
G1 X84.09 Y82.233 E23.12188
G1 X83.942 Y81.478 E23.16026
G1 X83.868 Y80.432 E23.21258
G1 X83.869 Y62.562 E24.10412
G1 X83.909 Y61.793 E24.14253
G1 X84.029 Y61.034 E24.18087
G1 X84.226 Y60.29 E24.21927
G1 X84.5 Y59.572 E24.25761
G1 X84.847 Y58.885 E24.29601
G1 X85.263 Y58.238 E24.33438
G0 F3600 X85.661 Y58.373
G1 F1350 X86.319 Y57.612 E24.38457
G1 X86.436 Y57.495 E24.39283
G1 X86.993 Y56.995 E24.43017
G1 X87.599 Y56.558 E24.46745
G1 X88.249 Y56.187 E24.50479
G1 X88.935 Y55.888 E24.54212
G1 X89.649 Y55.664 E24.57945
G1 X90.382 Y55.517 E24.61675
G1 X91.386 Y55.445 E24.66697
G1 X99.877 Y55.445 E25.09059
G1 X100.458 Y55.469 E25.1196
G1 X101.983 Y55.596 E25.19594
G1 X102.724 Y55.698 E25.23326
G1 X103.374 Y55.856 E25.26663
G1 X104.692 Y56.243 E25.33517
G1 X105.398 Y56.491 E25.3725
G1 X105.965 Y56.756 E25.40372
G1 X107.175 Y57.389 E25.47185
G1 X107.818 Y57.771 E25.50917
G1 X108.326 Y58.145 E25.54064
G1 X109.404 Y59.015 E25.60975
G1 X109.95 Y59.504 E25.64632
G1 X112.785 Y62.33 E25.84602
G1 X112.954 Y62.515 E25.85852
G1 X112.954 Y61.34 E25.91715
G1 X112.994 Y60.593 E25.95447
G1 X113.114 Y59.854 E25.99182
G1 X113.311 Y59.133 E26.02911
G1 X113.585 Y58.436 E26.06647
G1 X113.931 Y57.773 E26.10378
G1 X114.346 Y57.151 E26.14109
G1 X115.004 Y56.39 E26.19128
G1 X115.121 Y56.273 E26.19953
G1 X115.678 Y55.773 E26.23688
G1 X116.284 Y55.336 E26.27415
G1 X116.934 Y54.965 E26.31149
G1 X117.62 Y54.666 E26.34882
G1 X118.334 Y54.442 E26.38616
G1 X119.067 Y54.295 E26.42345
G1 X120.071 Y54.223 E26.47367
G1 X128.562 Y54.223 E26.89729
G1 X129.143 Y54.247 E26.9263
G1 X130.668 Y54.374 E27.00265
G1 X131.409 Y54.476 E27.03997
G1 X132.059 Y54.634 E27.07334
G1 X133.377 Y55.021 E27.14187
G1 X134.083 Y55.269 E27.1792
G1 X134.645 Y55.532 E27.21016
G1 X135.859 Y56.166 E27.27849
G1 X136.503 Y56.547 E27.31582
G1 X137.019 Y56.927 E27.34779
G1 X138.088 Y57.791 E27.41636
G1 X138.629 Y58.277 E27.45265
G1 X141.469 Y61.107 E27.65267
G1 X141.894 Y61.57 E27.68403
G1 X142.827 Y62.684 E27.75652
G1 X143.276 Y63.283 E27.79387
G1 X143.607 Y63.828 E27.82568
G1 X144.269 Y65.042 E27.89467
G1 X144.591 Y65.717 E27.93198
G1 X144.801 Y66.295 E27.96266
G1 X145.21 Y67.597 E28.03075
G1 X145.396 Y68.322 E28.06809
G1 X145.493 Y68.953 E28.09994
G1 X145.639 Y70.323 E28.16867
G1 X145.678 Y71.059 E28.20545
G1 X145.685 Y79.832 E28.64313
G1 X145.646 Y80.579 E28.68045
G1 X145.527 Y81.318 E28.71779
G1 X145.33 Y82.04 E28.75513
G1 X145.057 Y82.736 E28.79243
G1 X144.711 Y83.4 E28.82979
G1 X144.297 Y84.022 E28.86706
G1 X143.635 Y84.788 E28.91757
G1 X143.518 Y84.905 E28.92583
G1 X142.961 Y85.405 E28.96317
G1 X142.355 Y85.842 E29.00045
G1 X141.705 Y86.213 E29.03778
G1 X141.019 Y86.512 E29.07512
G1 X140.305 Y86.736 E29.11245
G1 X139.572 Y86.883 E29.14975
G1 X138.568 Y86.955 E29.19997
G1 X137.834 Y86.955 E29.23659
G1 X137.95 Y87.059 E29.24436
G1 X140.785 Y89.885 E29.44407
G1 X141.209 Y90.348 E29.47539
G1 X142.142 Y91.462 E29.54788
G1 X142.591 Y92.061 E29.58523
G1 X142.92 Y92.602 E29.61682
G1 X143.583 Y93.816 E29.68583
G1 X143.905 Y94.491 E29.72314
G1 X144.12 Y95.081 E29.75447
G1 X144.527 Y96.382 E29.82248
G1 X144.712 Y97.107 E29.85981
G1 X144.806 Y97.725 E29.891
G1 X144.953 Y99.095 E29.95974
G1 X144.993 Y99.836 E29.99676
G1 X145 Y108.609 E30.43445
G1 X144.961 Y109.356 E30.47177
G1 X144.842 Y110.095 E30.50911
G1 X144.645 Y110.817 E30.54645
G1 X144.372 Y111.513 E30.58375
G1 X144.026 Y112.177 E30.6211
G1 X143.612 Y112.799 E30.65838
G1 X142.95 Y113.565 E30.70889
G1 X142.833 Y113.682 E30.71715
G1 X142.276 Y114.182 E30.75449
G1 X141.67 Y114.619 E30.79176
G1 X141.02 Y114.99 E30.8291
G1 X140.334 Y115.289 E30.86644
G1 X139.62 Y115.513 E30.90377
G1 X138.887 Y115.66 E30.94107
G1 X137.883 Y115.732 E30.99129
G1 X120.011 Y115.731 E31.88292
G1 X119.264 Y115.691 E31.92024
G1 X118.196 Y115.492 E31.97444
G1 X117.872 Y115.405 E31.99118
G1 X117.161 Y115.172 E32.02851
G1 X116.478 Y114.865 E32.06587
G1 X115.833 Y114.487 E32.10317
G1 X115.432 Y114.202 E32.12771
G1 X115.206 Y114.029 E32.14191
G1 X114.816 Y113.697 E32.16746
G1 X114.276 Y114.182 E32.20367
G1 X113.67 Y114.619 E32.24095
G1 X113.02 Y114.99 E32.27829
G1 X112.334 Y115.289 E32.31562
G1 X111.62 Y115.513 E32.35296
G1 X110.887 Y115.66 E32.39025
G1 X109.883 Y115.732 E32.44047
G1 X92.011 Y115.731 E33.33211
G1 X91.264 Y115.691 E33.36943
G1 X90.196 Y115.492 E33.42363
G1 X89.872 Y115.405 E33.44037
G1 X89.161 Y115.172 E33.4777
G1 X88.478 Y114.865 E33.51505
G1 X87.833 Y114.487 E33.55235
G1 X87.432 Y114.202 E33.5769
G1 X87.206 Y114.029 E33.5911
G1 X86.637 Y113.544 E33.6284
G1 X86.123 Y113 E33.66574
G1 X85.525 Y112.181 E33.71633
G1 X85.405 Y111.989 E33.72762
G1 X85.043 Y111.334 E33.76496
G1 X84.753 Y110.645 E33.80226
G1 X84.551 Y109.982 E33.83683
G1 X84.478 Y109.691 E33.8518
G1 X84.335 Y108.957 E33.88911
G1 X84.268 Y107.988 E33.93757
G1 X84.269 Y90.117 E34.82916
G1 X84.309 Y89.37 E34.86648
G1 X84.429 Y88.631 E34.90383
G1 X84.626 Y87.91 E34.94112
G1 X84.9 Y87.213 E34.97848
G1 X85.246 Y86.55 E35.01579
G1 X85.661 Y85.928 E35.0531
G1 X86.103 Y85.417 E35.08681
G1 X85.516 Y84.612 E35.13651
G1 X85.396 Y84.419 E35.14785
G1 X85.036 Y83.764 E35.18514
G1 X84.747 Y83.073 E35.22251
G1 X84.551 Y82.426 E35.25623
G1 X84.478 Y82.135 E35.2712
G1 X84.335 Y81.401 E35.30851
G1 X84.268 Y80.432 E35.35697
G1 X84.269 Y62.562 E36.24851
G1 X84.309 Y61.815 E36.28583
