;FLAVOR:Marlin
;TIME:1079
;Filament used: 0.985659m
;Layer height: 0.15
;MINX:82.2
;MINY:82.2
;MINZ:0.3
;MAXX:117.8
;MAXY:117.8
;MAXZ:19.9
;Generated with Cura_SteamEngine 4.4.0
M140 S55
M105
M190 S55
M104 S207
M105
M109 S207
M82 ;absolute extrusion mode
G28 ;Home
G1 Z15.0 F6000 ;Move the platform down 15mm
;Prime the extruder
G92 E0
G1 F200 E3
G92 E0
G92 E0
G92 E0
G1 F1500 E-6.5
;LAYER_COUNT:125
;LAYER:0
M107 P1
G1 F600 Z1.3
G0 F3600 X84.976 Y85.181 Z1.3
;TYPE:SKIRT
G1 F600 Z0.3
G1 F1500 E0
G1 F1800 X85.294 Y84.868 E0.02226
G1 X85.885 Y84.343 E0.0617
G1 X86.697 Y83.773 E0.1112
G1 X87.078 Y83.54 E0.13348
G1 X87.771 Y83.162 E0.17286
G1 X88.623 Y82.814 E0.21877
G1 X89.047 Y82.669 E0.24113
G1 X89.806 Y82.451 E0.28053
G1 X90.831 Y82.284 E0.33234
G1 X91.345 Y82.235 E0.3581
G1 X92.085 Y82.2 E0.39506
G1 X107.992 Y82.2 E1.18866
G1 X108.894 Y82.252 E1.23374
G1 X109.358 Y82.306 E1.25704
G1 X110.136 Y82.437 E1.29641
G1 X111.083 Y82.71 E1.34558
G1 X111.508 Y82.862 E1.36809
G1 X112.237 Y83.165 E1.40748
G1 X113.065 Y83.623 E1.45469
G1 X113.441 Y83.862 E1.47692
G1 X114.085 Y84.319 E1.51631
G1 X114.807 Y84.965 E1.56465
G1 X115.119 Y85.281 E1.5868
G1 X115.645 Y85.87 E1.6262
G1 X116.195 Y86.646 E1.67365
G1 X116.431 Y87.026 E1.69597
G1 X116.813 Y87.717 E1.73536
G1 X117.184 Y88.612 E1.7837
G1 X117.33 Y89.038 E1.80616
G1 X117.548 Y89.797 E1.84556
G1 X117.688 Y90.574 E1.88495
G1 X117.732 Y91.027 E1.90766
G1 X117.781 Y91.733 E1.94296
G1 X117.8 Y92.273 E1.96992
G1 X117.8 Y98.343 E2.27275
G1 X117.758 Y99.149 E2.31302
G1 X117.705 Y99.659 E2.3386
G1 X117.584 Y100.44 E2.37803
G1 X117.292 Y101.479 E2.43187
G1 X117.139 Y101.907 E2.45455
G1 X116.836 Y102.636 E2.49394
G1 X116.377 Y103.465 E2.54121
G1 X116.138 Y103.841 E2.56344
G1 X115.681 Y104.485 E2.60284
G1 X115.035 Y105.207 E2.65117
G1 X114.719 Y105.519 E2.67333
G1 X114.13 Y106.045 E2.71272
G1 X113.357 Y106.593 E2.76
G1 X112.979 Y106.828 E2.7822
G1 X112.288 Y107.211 E2.82162
G1 X111.405 Y107.578 E2.86932
G1 X110.976 Y107.726 E2.89197
G1 X110.217 Y107.945 E2.93138
G1 X109.278 Y108.106 E2.97891
G1 X108.838 Y108.154 E3.00099
G1 X108.189 Y108.189 E3.03341
G1 X108.149 Y108.881 E3.068
G1 X108.096 Y109.343 E3.0912
G1 X107.967 Y110.122 E3.13059
G1 X107.69 Y111.085 E3.18058
G1 X107.537 Y111.512 E3.20321
G1 X107.233 Y112.241 E3.24262
G1 X106.777 Y113.065 E3.2896
G1 X106.538 Y113.441 E3.31183
G1 X106.081 Y114.085 E3.35123
G1 X105.435 Y114.807 E3.39956
G1 X105.119 Y115.119 E3.42172
G1 X104.53 Y115.645 E3.46111
G1 X103.749 Y116.198 E3.50886
G1 X103.37 Y116.433 E3.5311
G1 X102.679 Y116.815 E3.5705
G1 X101.783 Y117.185 E3.61886
G1 X101.35 Y117.333 E3.64169
G1 X100.591 Y117.55 E3.68107
G1 X99.813 Y117.689 E3.7205
G1 X99.36 Y117.734 E3.74321
G1 X98.659 Y117.782 E3.77827
G1 X98.126 Y117.8 E3.80487
G1 X92.057 Y117.8 E4.10766
G1 X91.239 Y117.757 E4.14852
G1 X90.727 Y117.703 E4.17421
G1 X89.947 Y117.581 E4.2136
G1 X88.924 Y117.292 E4.26663
G1 X88.498 Y117.14 E4.2892
G1 X87.768 Y116.838 E4.32861
G1 X86.935 Y116.377 E4.37611
G1 X86.559 Y116.138 E4.39834
G1 X85.915 Y115.681 E4.43773
G1 X85.193 Y115.035 E4.48607
G1 X84.881 Y114.719 E4.50822
G1 X84.355 Y114.13 E4.54762
G1 X83.807 Y113.357 E4.59489
G1 X83.572 Y112.979 E4.6171
G1 X83.189 Y112.288 E4.65652
G1 X82.82 Y111.399 E4.70454
G1 X82.67 Y110.963 E4.72754
G1 X82.452 Y110.204 E4.76694
G1 X82.29 Y109.251 E4.81517
G1 X82.244 Y108.819 E4.83684
G1 X82.2 Y107.993 E4.87811
G1 X82.2 Y92.206 E5.66572
G1 X82.223 Y91.607 E5.69563
G1 X82.272 Y90.971 E5.72745
G1 X82.372 Y90.188 E5.76684
G1 X82.552 Y89.418 E5.80629
G1 X82.688 Y88.991 E5.82864
G1 X82.846 Y88.54 E5.85249
G1 X83.144 Y87.809 E5.89187
G1 X83.625 Y86.934 E5.94168
G1 X83.866 Y86.555 E5.96409
G1 X84.323 Y85.911 E6.00349
G1 X84.976 Y85.181 E6.05235
G0 F3600 X85.257 Y85.466
G1 F1800 X85.575 Y85.153 E6.07461
G1 X86.151 Y84.643 E6.113
G1 X86.905 Y84.114 E6.15895
G1 X87.286 Y83.881 E6.18123
G1 X87.962 Y83.514 E6.21961
G1 X88.752 Y83.192 E6.26217
G1 X89.176 Y83.047 E6.28452
G1 X89.916 Y82.836 E6.32291
G1 X90.869 Y82.682 E6.37108
G1 X91.383 Y82.633 E6.39683
G1 X92.085 Y82.6 E6.4319
G1 X107.992 Y82.6 E7.2255
G1 X108.847 Y82.65 E7.26823
G1 X109.311 Y82.704 E7.29153
G1 X110.07 Y82.832 E7.32994
G1 X110.948 Y83.086 E7.37554
G1 X111.373 Y83.238 E7.39805
G1 X112.083 Y83.535 E7.43645
G1 X112.851 Y83.961 E7.48027
G1 X113.227 Y84.2 E7.50249
G1 X113.853 Y84.646 E7.54084
G1 X114.523 Y85.246 E7.58571
G1 X114.835 Y85.562 E7.60787
G1 X115.346 Y86.137 E7.64624
G1 X115.855 Y86.857 E7.69023
G1 X116.091 Y87.237 E7.71255
G1 X116.463 Y87.91 E7.75092
G1 X116.805 Y88.742 E7.79579
G1 X116.951 Y89.168 E7.81826
G1 X117.163 Y89.907 E7.85662
G1 X117.296 Y90.665 E7.89501
G1 X117.333 Y91.055 E7.91456
G1 X117.382 Y91.761 E7.94986
G1 X117.4 Y92.273 E7.97542
G1 X117.4 Y98.343 E8.27826
G1 X117.36 Y99.108 E8.31647
G1 X117.307 Y99.618 E8.34206
G1 X117.188 Y100.378 E8.38043
G1 X116.915 Y101.344 E8.43052
G1 X116.762 Y101.772 E8.45319
G1 X116.466 Y102.482 E8.49157
G1 X116.039 Y103.251 E8.53545
G1 X115.8 Y103.627 E8.55768
G1 X115.354 Y104.253 E8.59603
G1 X114.754 Y104.923 E8.6409
G1 X114.438 Y105.235 E8.66305
G1 X113.863 Y105.746 E8.70143
G1 X113.146 Y106.254 E8.74527
G1 X112.768 Y106.489 E8.76748
G1 X112.095 Y106.86 E8.80582
G1 X111.274 Y107.199 E8.85013
G1 X110.845 Y107.347 E8.87277
G1 X110.106 Y107.56 E8.91114
G1 X109.235 Y107.708 E8.95522
G1 X108.795 Y107.756 E8.9773
G1 X107.992 Y107.8 E9.01742
G1 X107.8 Y107.8 E9.027
G1 X107.8 Y107.992 E9.03658
G1 X107.752 Y108.835 E9.07871
G1 X107.699 Y109.297 E9.10191
G1 X107.572 Y110.056 E9.1403
G1 X107.313 Y110.95 E9.18673
G1 X107.16 Y111.377 E9.20936
G1 X106.864 Y112.087 E9.24774
G1 X106.439 Y112.851 E9.29136
G1 X106.2 Y113.227 E9.31359
G1 X105.754 Y113.853 E9.35193
G1 X105.154 Y114.523 E9.3968
G1 X104.838 Y114.835 E9.41896
G1 X104.263 Y115.346 E9.45734
G1 X103.539 Y115.858 E9.50158
G1 X103.16 Y116.093 E9.52382
G1 X102.486 Y116.464 E9.56221
G1 X101.653 Y116.806 E9.60713
G1 X101.22 Y116.954 E9.62996
G1 X100.481 Y117.165 E9.6683
G1 X99.723 Y117.298 E9.7067
G1 X99.333 Y117.335 E9.72624
G1 X98.632 Y117.383 E9.7613
G1 X98.126 Y117.4 E9.78656
G1 X92.057 Y117.4 E10.08934
G1 X91.281 Y117.359 E10.12811
G1 X90.769 Y117.305 E10.15379
G1 X90.009 Y117.185 E10.19218
G1 X89.058 Y116.916 E10.24149
G1 X88.632 Y116.764 E10.26405
G1 X87.922 Y116.468 E10.30243
G1 X87.149 Y116.039 E10.34654
G1 X86.773 Y115.8 E10.36876
G1 X86.147 Y115.354 E10.40711
G1 X85.477 Y114.754 E10.45198
G1 X85.165 Y114.438 E10.47414
G1 X84.654 Y113.863 E10.51252
G1 X84.146 Y113.146 E10.55636
G1 X83.911 Y112.768 E10.57856
G1 X83.54 Y112.095 E10.6169
G1 X83.199 Y111.268 E10.66153
G1 X83.049 Y110.832 E10.68453
G1 X82.836 Y110.093 E10.7229
G1 X82.688 Y109.209 E10.76762
G1 X82.642 Y108.777 E10.78929
G1 X82.6 Y107.993 E10.82846
G1 X82.6 Y92.206 E11.61608
G1 X82.622 Y91.638 E11.64444
G1 X82.671 Y91.002 E11.67626
G1 X82.77 Y90.239 E11.71465
G1 X82.947 Y89.49 E11.75305
G1 X83.065 Y89.123 E11.77228
G1 X83.223 Y88.672 E11.79612
G1 X83.515 Y87.961 E11.83447
G1 X83.963 Y87.148 E11.88078
G1 X84.204 Y86.769 E11.90319
G1 X84.649 Y86.143 E11.9415
G1 X85.257 Y85.466 E11.9869
G0 F3600 X85.538 Y85.751
G1 F1800 X85.856 Y85.438 E12.00916
G1 X86.416 Y84.943 E12.04645
G1 X87.114 Y84.455 E12.08894
G1 X87.495 Y84.222 E12.11122
G1 X88.153 Y83.867 E12.14852
G1 X88.882 Y83.571 E12.18778
G1 X89.306 Y83.426 E12.21013
G1 X90.026 Y83.222 E12.24747
G1 X90.907 Y83.081 E12.29198
G1 X91.421 Y83.032 E12.31774
G1 X92.085 Y83 E12.35091
G1 X107.992 Y83 E13.14451
G1 X108.801 Y83.047 E13.18494
G1 X109.265 Y83.101 E13.20824
G1 X110.003 Y83.227 E13.2456
G1 X110.813 Y83.463 E13.28769
G1 X111.238 Y83.615 E13.3102
G1 X111.928 Y83.904 E13.34753
G1 X112.636 Y84.298 E13.38795
G1 X113.012 Y84.537 E13.41018
G1 X113.621 Y84.972 E13.44752
G1 X114.238 Y85.527 E13.48892
G1 X114.55 Y85.843 E13.51107
G1 X115.047 Y86.403 E13.54843
G1 X115.516 Y87.068 E13.58903
G1 X115.752 Y87.448 E13.61134
G1 X116.112 Y88.104 E13.64868
G1 X116.427 Y88.872 E13.69009
G1 X116.573 Y89.298 E13.71256
G1 X116.777 Y90.017 E13.74984
G1 X116.934 Y91.082 E13.80355
G1 X116.983 Y91.788 E13.83886
G1 X117 Y92.273 E13.86307
G1 X117 Y98.343 E14.1659
G1 X116.963 Y99.067 E14.20207
G1 X116.91 Y99.577 E14.22765
G1 X116.793 Y100.315 E14.26493
G1 X116.538 Y101.209 E14.31131
G1 X116.385 Y101.637 E14.33399
G1 X116.096 Y102.327 E14.37131
G1 X115.702 Y103.036 E14.41178
G1 X115.463 Y103.412 E14.434
G1 X115.028 Y104.021 E14.47134
G1 X114.473 Y104.638 E14.51274
G1 X114.157 Y104.95 E14.5349
G1 X113.597 Y105.447 E14.57225
G1 X112.935 Y105.914 E14.61267
G1 X112.557 Y106.149 E14.63488
G1 X111.901 Y106.509 E14.67221
G1 X111.144 Y106.821 E14.71306
G1 X110.715 Y106.969 E14.7357
G1 X109.996 Y107.175 E14.77301
G1 X109.191 Y107.311 E14.81375
G1 X108.751 Y107.359 E14.83583
G1 X107.992 Y107.4 E14.87375
G1 X107.4 Y107.4 E14.90328
G1 X107.4 Y107.992 E14.93282
G1 X107.354 Y108.79 E14.9727
G1 X107.301 Y109.252 E14.9959
G1 X107.177 Y109.989 E15.03318
G1 X106.937 Y110.815 E15.0761
G1 X106.784 Y111.242 E15.09873
G1 X106.494 Y111.932 E15.13607
G1 X106.102 Y112.636 E15.17627
G1 X105.863 Y113.012 E15.1985
G1 X105.428 Y113.621 E15.23583
G1 X104.873 Y114.238 E15.27724
G1 X104.557 Y114.55 E15.29939
G1 X103.997 Y115.047 E15.33675
G1 X103.328 Y115.518 E15.37757
G1 X102.949 Y115.753 E15.39981
G1 X102.293 Y116.113 E15.43715
G1 X101.524 Y116.428 E15.47861
G1 X101.091 Y116.576 E15.50143
G1 X100.371 Y116.78 E15.53877
G1 X99.305 Y116.936 E15.59252
G1 X98.604 Y116.984 E15.62757
G1 X98.126 Y117 E15.65143
G1 X92.057 Y117 E15.95422
G1 X91.323 Y116.961 E15.99089
G1 X90.811 Y116.907 E16.01658
G1 X90.072 Y116.789 E16.05391
G1 X89.193 Y116.539 E16.0995
G1 X88.767 Y116.387 E16.12207
G1 X88.076 Y116.098 E16.15944
G1 X87.364 Y115.702 E16.20008
G1 X86.988 Y115.463 E16.22231
G1 X86.379 Y115.028 E16.25965
G1 X85.762 Y114.473 E16.30105
G1 X85.45 Y114.157 E16.32321
G1 X84.953 Y113.597 E16.36056
G1 X84.486 Y112.935 E16.40098
G1 X84.251 Y112.557 E16.42319
G1 X83.891 Y111.901 E16.46052
G1 X83.577 Y111.138 E16.50168
G1 X83.427 Y110.702 E16.52469
G1 X83.222 Y109.983 E16.56199
G1 X83.085 Y109.166 E16.60332
G1 X83.039 Y108.734 E16.62499
G1 X83 Y107.993 E16.66201
G1 X83 Y92.206 E17.44963
G1 X83.021 Y91.668 E17.47649
G1 X83.07 Y91.032 E17.50831
G1 X83.167 Y90.291 E17.5456
G1 X83.443 Y89.256 E17.59904
G1 X83.601 Y88.805 E17.62288
G1 X83.885 Y88.113 E17.6602
G1 X84.3 Y87.363 E17.70296
G1 X84.541 Y86.984 E17.72537
G1 X84.976 Y86.375 E17.76271
G1 X85.538 Y85.751 E17.8046
G0 F3600 X85.818 Y86.036
G1 F1800 X86.136 Y85.723 E17.82686
G1 X86.681 Y85.243 E17.8631
G1 X87.323 Y84.796 E17.90212
G1 X87.704 Y84.563 E17.9244
G1 X88.343 Y84.219 E17.96061
G1 X89.011 Y83.949 E17.99656
G1 X89.435 Y83.804 E18.01891
G1 X90.135 Y83.607 E18.05519
G1 X90.945 Y83.479 E18.0961
G1 X91.459 Y83.43 E18.12186
G1 X92.085 Y83.4 E18.15313
G1 X107.992 Y83.4 E18.94674
G1 X108.755 Y83.444 E18.98486
G1 X109.219 Y83.498 E19.00817
G1 X109.935 Y83.622 E19.04442
G1 X110.679 Y83.839 E19.08309
G1 X111.104 Y83.991 E19.10561
G1 X111.773 Y84.273 E19.14183
G1 X112.422 Y84.636 E19.17893
G1 X112.798 Y84.875 E19.20115
G1 X113.388 Y85.298 E19.23737
G1 X113.954 Y85.808 E19.27538
G1 X114.266 Y86.124 E19.29754
G1 X114.747 Y86.668 E19.33377
G1 X115.176 Y87.279 E19.37101
G1 X115.412 Y87.659 E19.39333
G1 X115.76 Y88.296 E19.42954
G1 X116.049 Y89.001 E19.46756
G1 X116.195 Y89.427 E19.49002
G1 X116.392 Y90.126 E19.52625
G1 X116.535 Y91.11 E19.57586
G1 X116.584 Y91.816 E19.61117
G1 X116.6 Y92.273 E19.63398
G1 X116.6 Y98.343 E19.93682
G1 X116.565 Y99.025 E19.97089
G1 X116.512 Y99.535 E19.99647
G1 X116.397 Y100.252 E20.0327
G1 X116.162 Y101.075 E20.0754
G1 X116.009 Y101.503 E20.09807
G1 X115.727 Y102.172 E20.13429
G1 X115.364 Y102.822 E20.17144
G1 X115.125 Y103.198 E20.19366
G1 X114.702 Y103.788 E20.22988
G1 X114.192 Y104.354 E20.26789
G1 X113.876 Y104.666 E20.29005
G1 X113.332 Y105.147 E20.32628
G1 X112.724 Y105.574 E20.36334
G1 X112.346 Y105.809 E20.38555
G1 X111.709 Y106.158 E20.42178
G1 X111.013 Y106.443 E20.45931
G1 X110.584 Y106.591 E20.48195
G1 X109.886 Y106.79 E20.51816
G1 X109.148 Y106.913 E20.55549
G1 X108.708 Y106.961 E20.57757
G1 X107.992 Y107 E20.61334
G1 X107 Y107 E20.66283
G1 X107 Y107.992 E20.71232
G1 X106.957 Y108.744 E20.7499
G1 X106.904 Y109.206 E20.7731
G1 X106.782 Y109.922 E20.80934
G1 X106.56 Y110.68 E20.84874
G1 X106.407 Y111.107 E20.87137
G1 X106.125 Y111.777 E20.90764
G1 X105.764 Y112.422 E20.94452
G1 X105.525 Y112.798 E20.96674
G1 X105.102 Y113.388 E21.00296
G1 X104.592 Y113.954 E21.04097
G1 X104.276 Y114.266 E21.06313
G1 X103.732 Y114.747 E21.09936
G1 X103.117 Y115.178 E21.13682
G1 X102.738 Y115.413 E21.15907
G1 X102.101 Y115.761 E21.19528
G1 X101.395 Y116.049 E21.23333
G1 X100.962 Y116.197 E21.25615
G1 X100.262 Y116.394 E21.29243
G1 X99.278 Y116.537 E21.34204
G1 X98.577 Y116.585 E21.3771
G1 X98.126 Y116.6 E21.39961
G1 X92.057 Y116.6 E21.70239
G1 X91.365 Y116.564 E21.73696
G1 X90.853 Y116.51 E21.76265
G1 X90.136 Y116.394 E21.79889
G1 X89.327 Y116.162 E21.84087
G1 X88.901 Y116.01 E21.86344
G1 X88.231 Y115.729 E21.89969
G1 X87.578 Y115.364 E21.93701
G1 X87.202 Y115.125 E21.95924
G1 X86.612 Y114.702 E21.99546
G1 X86.046 Y114.192 E22.03347
G1 X85.734 Y113.876 E22.05562
G1 X85.253 Y113.332 E22.09185
G1 X84.826 Y112.724 E22.12891
G1 X84.591 Y112.346 E22.15112
G1 X84.242 Y111.709 E22.18736
G1 X83.955 Y111.008 E22.22515
G1 X83.805 Y110.572 E22.24815
G1 X83.607 Y109.873 E22.2844
G1 X83.483 Y109.124 E22.32227
G1 X83.437 Y108.692 E22.34395
G1 X83.4 Y107.993 E22.37887
G1 X83.4 Y92.206 E23.16649
G1 X83.42 Y91.699 E23.1918
G1 X83.469 Y91.063 E23.22363
G1 X83.564 Y90.343 E23.25986
G1 X83.82 Y89.388 E23.30918
G1 X83.978 Y88.937 E23.33303
G1 X84.256 Y88.266 E23.36926
G1 X84.638 Y87.578 E23.40852
G1 X84.879 Y87.199 E23.43093
G1 X85.302 Y86.608 E23.46719
G1 X85.818 Y86.036 E23.50562
G0 F3600 X86.099 Y86.321
G1 F1800 X86.417 Y86.008 E23.52788
G1 X86.946 Y85.544 E23.56299
G1 X87.531 Y85.138 E23.59851
G1 X87.912 Y84.905 E23.6208
G1 X88.533 Y84.572 E23.65595
G1 X89.141 Y84.328 E23.68863
G1 X89.565 Y84.183 E23.71099
G1 X90.243 Y83.993 E23.74612
G1 X90.983 Y83.877 E23.78349
G1 X91.497 Y83.828 E23.80925
G1 X92.085 Y83.8 E23.83862
G1 X107.992 Y83.8 E24.63222
G1 X108.709 Y83.842 E24.66805
G1 X109.173 Y83.896 E24.69136
G1 X109.866 Y84.017 E24.72646
G1 X110.544 Y84.216 E24.76171
G1 X110.969 Y84.368 E24.78423
G1 X111.617 Y84.642 E24.81933
G1 X112.207 Y84.974 E24.8531
G1 X112.583 Y85.213 E24.87533
G1 X113.155 Y85.623 E24.91044
G1 X113.669 Y86.089 E24.94506
G1 X113.981 Y86.405 E24.96721
G1 X114.446 Y86.933 E25.00231
G1 X114.836 Y87.49 E25.03623
G1 X115.072 Y87.87 E25.05855
G1 X115.409 Y88.488 E25.09367
G1 X115.67 Y89.131 E25.12829
G1 X115.816 Y89.557 E25.15076
G1 X116.006 Y90.235 E25.18589
G1 X116.136 Y91.138 E25.2314
G1 X116.185 Y91.844 E25.26671
G1 X116.2 Y92.273 E25.28813
G1 X116.2 Y98.343 E25.59096
G1 X116.167 Y98.984 E25.62298
G1 X116.114 Y99.494 E25.64856
G1 X116.001 Y100.189 E25.68369
G1 X115.785 Y100.94 E25.72268
G1 X115.632 Y101.368 E25.74535
G1 X115.358 Y102.016 E25.78045
G1 X115.026 Y102.607 E25.81427
G1 X114.787 Y102.983 E25.8365
G1 X114.377 Y103.555 E25.87161
G1 X113.911 Y104.069 E25.90622
G1 X113.595 Y104.381 E25.92838
G1 X113.067 Y104.846 E25.96348
G1 X112.512 Y105.234 E25.99727
G1 X112.134 Y105.469 E26.01947
G1 X111.516 Y105.807 E26.05461
G1 X110.883 Y106.065 E26.08872
G1 X110.454 Y106.213 E26.11136
G1 X109.777 Y106.404 E26.14645
G1 X109.104 Y106.515 E26.18048
G1 X108.664 Y106.563 E26.20256
G1 X107.992 Y106.6 E26.23614
G1 X106.6 Y106.6 E26.30559
G1 X106.6 Y107.992 E26.37503
G1 X106.56 Y108.699 E26.41036
G1 X106.507 Y109.161 E26.43356
G1 X106.387 Y109.854 E26.46865
G1 X106.184 Y110.545 E26.50458
G1 X106.031 Y110.972 E26.52721
G1 X105.756 Y111.621 E26.56238
G1 X105.426 Y112.207 E26.59593
G1 X105.187 Y112.583 E26.61816
G1 X104.777 Y113.155 E26.65327
G1 X104.311 Y113.669 E26.68788
G1 X103.995 Y113.981 E26.71004
G1 X103.467 Y114.446 E26.74514
G1 X102.906 Y114.838 E26.77928
G1 X102.527 Y115.073 E26.80153
G1 X101.909 Y115.41 E26.83665
G1 X101.265 Y115.671 E26.87132
G1 X100.832 Y115.819 E26.89415
G1 X100.154 Y116.008 E26.92926
G1 X99.251 Y116.138 E26.97478
